; generated by Slic3r 1.0.0RC3 on 2014-03-16 at 17:36:59

; layer_height = 0.24
; perimeters = 2
; top_solid_layers = 4
; bottom_solid_layers = 3
; fill_density = 0.4
; perimeter_speed = 20
; infill_speed = 20
; travel_speed = 60
; nozzle_diameter = 0.5
; filament_diameter = 1.75
; extrusion_multiplier = 1
; perimeters extrusion width = 0.50mm
; infill extrusion width = 0.87mm
; solid infill extrusion width = 0.85mm
; top infill extrusion width = 0.85mm
; first layer extrusion width = 0.48mm

G21 ; set units to millimeters
M107
M104 S205 ; set temperature
G21 ; set units to millimeters
G90 ; use absolute coordinates
M83 ; use relative distances for extrusion
M140 S65; Set bed temperature
G1 Z5 F200 ; lift nozzle
G1 X2 Y50 F2000; Go to wait for warm position
M116; Wait for all temperatures
G10 P0 S205 R0 ; Set extruder temperature
T0; Select extruder
M116; Wait for all temperatures
M109 S205 ; wait for temperature to be reached
G90 ; use absolute coordinates
M83 ; use relative distances for extrusion
G1 F1800.000 E-1.00000
G1 Z0.240 F3600.000
G1 X87.918 Y86.360 F3600.000
G1 E1.00000 F1800.000
G1 X88.378 Y85.900 E0.03144 F600.000
G1 X88.888 Y85.490 E0.03162
G1 X89.958 Y84.730 E0.06342
G1 X90.728 Y84.250 E0.04385
G1 X91.318 Y83.920 E0.03267
G1 X91.928 Y83.660 E0.03204
G1 X95.618 Y82.310 E0.18987
G1 X96.198 Y82.130 E0.02935
G1 X96.798 Y82.000 E0.02967
G1 X98.028 Y81.820 E0.06007
G1 X99.078 Y81.740 E0.05089
G1 X99.748 Y81.730 E0.03238
G1 X100.408 Y81.780 E0.03198
G1 X104.298 Y82.290 E0.18958
G1 X104.978 Y82.420 E0.03345
G1 X105.638 Y82.610 E0.03319
G1 X106.938 Y83.090 E0.06697
G1 X107.688 Y83.420 E0.03960
G1 X108.268 Y83.710 E0.03134
G1 X108.808 Y84.060 E0.03110
G1 X112.018 Y86.320 E0.18970
G1 X112.528 Y86.720 E0.03132
G1 X112.998 Y87.160 E0.03111
G1 X113.528 Y87.720 E0.03726
G1 X114.458 Y88.840 E0.07035
G1 X114.868 Y89.390 E0.03315
G1 X115.208 Y89.990 E0.03333
G1 X116.988 Y93.490 E0.18975
G1 X117.258 Y94.100 E0.03224
G1 X117.468 Y94.730 E0.03209
G1 X117.728 Y95.690 E0.04806
G1 X117.838 Y96.170 E0.02380
G1 X117.978 Y96.900 E0.03592
G1 X118.068 Y97.540 E0.03123
G1 X118.088 Y98.190 E0.03142
G1 X118.048 Y102.120 E0.18992
G1 X118.008 Y102.770 E0.03147
G1 X117.908 Y103.420 E0.03178
G1 X117.728 Y104.250 E0.04104
G1 X117.588 Y104.780 E0.02649
G1 X117.328 Y105.630 E0.04295
G1 X117.108 Y106.230 E0.03088
G1 X116.838 Y106.800 E0.03048
G1 X114.978 Y110.260 E0.18982
G1 X114.658 Y110.790 E0.02992
G1 X114.288 Y111.300 E0.03045
G1 X113.838 Y111.850 E0.03434
G1 X113.468 Y112.260 E0.02669
G1 X112.758 Y112.990 E0.04921
G1 X112.268 Y113.440 E0.03215
G1 X111.738 Y113.840 E0.03209
G1 X108.478 Y116.040 E0.19005
G1 X107.888 Y116.400 E0.03340
G1 X107.268 Y116.690 E0.03308
G1 X106.398 Y117.040 E0.04532
G1 X105.248 Y117.430 E0.05868
G1 X104.598 Y117.610 E0.03259
G1 X103.928 Y117.720 E0.03281
G1 X100.028 Y118.150 E0.18960
G1 X99.388 Y118.180 E0.03096
G1 X98.748 Y118.160 E0.03094
G1 X97.948 Y118.090 E0.03881
G1 X97.408 Y118.020 E0.02631
G1 X96.488 Y117.860 E0.04512
G1 X95.858 Y117.720 E0.03119
G1 X95.238 Y117.510 E0.03163
G1 X91.578 Y116.080 E0.18988
G1 X90.948 Y115.790 E0.03351
G1 X90.358 Y115.440 E0.03315
G1 X89.128 Y114.610 E0.07170
G1 X88.568 Y114.180 E0.03412
G1 X88.068 Y113.760 E0.03155
G1 X87.618 Y113.280 E0.03179
G1 X85.048 Y110.310 E0.18979
G1 X84.638 Y109.790 E0.03200
G1 X84.288 Y109.230 E0.03191
G1 X83.858 Y108.460 E0.04262
G1 X83.628 Y108.020 E0.02399
G1 X83.268 Y107.240 E0.04151
G1 X83.028 Y106.630 E0.03168
G1 X82.848 Y106.010 E0.03120
G1 X81.948 Y102.190 E0.18965
G1 X81.828 Y101.540 E0.03194
G1 X81.778 Y100.880 E0.03198
G1 X81.758 Y99.700 E0.05703
G1 X81.798 Y98.710 E0.04788
G1 X81.858 Y98.030 E0.03299
G1 X81.998 Y97.350 E0.03355
G1 X82.978 Y93.540 E0.19010
G1 X83.178 Y92.900 E0.03240
G1 X83.448 Y92.290 E0.03224
G1 X84.108 Y90.990 E0.07045
G1 X84.498 Y90.330 E0.03705
G1 X84.858 Y89.780 E0.03176
G1 X85.278 Y89.270 E0.03193
G1 X87.869 Y86.414 E0.18635
G1 X89.153 Y87.943 F3600.000
G1 X90.992 Y86.596 E0.11016 F600.000
G1 X91.826 Y86.070 E0.04763
G1 X93.297 Y85.242 E0.08157
G1 X94.678 Y85.231 E0.06677
G1 X94.828 Y85.179 E0.00767
G1 X96.017 Y84.260 E0.07260
G1 X98.537 Y83.910 E0.12294
G1 X99.511 Y83.852 E0.04717
G1 X100.954 Y83.829 E0.06974
G1 X102.134 Y84.447 E0.06436
G1 X102.294 Y84.471 E0.00780
G1 X103.745 Y84.209 E0.07125
G1 X106.040 Y85.019 E0.11761
G1 X108.232 Y86.009 E0.11623
G1 X109.116 Y87.227 E0.07271
G1 X109.245 Y87.319 E0.00767
G1 X110.568 Y87.719 E0.06680
G1 X111.729 Y88.906 E0.08022
G1 X112.380 Y89.640 E0.04743
G1 X113.787 Y91.473 E0.11167
G1 X113.988 Y92.914 E0.07027
G1 X114.057 Y93.054 E0.00757
G1 X115.104 Y94.111 E0.07187
G1 X115.754 Y96.548 E0.12189
G1 X116.159 Y98.831 E0.11204
G1 X115.662 Y100.226 E0.07155
G1 X115.659 Y100.383 E0.00758
G1 X116.091 Y101.777 E0.07049
G1 X115.598 Y104.036 E0.11175
G1 X115.321 Y104.977 E0.04741
G1 X114.778 Y106.544 E0.08013
G1 X113.753 Y107.466 E0.06660
G1 X113.675 Y107.604 E0.00767
G1 X113.393 Y109.086 E0.07291
G1 X111.829 Y110.917 E0.11633
G1 X110.100 Y112.625 E0.11748
G1 X108.684 Y113.003 E0.07079
G1 X108.553 Y113.089 E0.00758
G1 X107.639 Y114.247 E0.07128
G1 X105.356 Y115.170 E0.11902
G1 X103.084 Y115.872 E0.11491
G1 X101.624 Y115.546 E0.07228
G1 X101.466 Y115.562 E0.00768
G1 X100.205 Y116.141 E0.06705
G1 X98.520 Y116.019 E0.08162
G1 X97.542 Y115.898 E0.04765
G1 X95.306 Y115.463 E0.11007
G1 X94.206 Y114.521 E0.07000
G1 X94.060 Y114.461 E0.00758
G1 X92.571 Y114.363 E0.07214
G1 X90.610 Y113.070 E0.11348
G1 X88.653 Y111.526 E0.12048
G1 X88.102 Y110.157 E0.07129
G1 X88.001 Y110.037 E0.00758
G1 X86.750 Y109.277 E0.07075
G1 X85.581 Y107.176 E0.11617
G1 X84.581 Y104.954 E0.11773
G1 X84.728 Y103.458 E0.07263
G1 X84.693 Y103.306 E0.00758
G1 X83.946 Y102.071 E0.06975
G1 X83.878 Y99.895 E0.10519
G1 X83.913 Y98.901 E0.04805
G1 X84.071 Y97.127 E0.08610
G1 X84.852 Y95.972 E0.06738
G1 X84.894 Y95.819 E0.00768
G1 X84.810 Y94.338 E0.07166
G1 X85.924 Y92.106 E0.12052
G1 X87.147 Y90.102 E0.11348
G1 X88.449 Y89.383 E0.07184
G1 X88.555 Y89.268 E0.00758
G1 X89.123 Y88.009 E0.06672
G1 X89.542 Y88.258 F3600.000
G1 X91.258 Y87.000 E0.10282 F600.000
G1 X92.069 Y86.489 E0.04630
G1 X93.425 Y85.725 E0.07523
G1 X94.845 Y85.714 E0.06862
G1 X94.996 Y85.662 E0.00767
G1 X96.212 Y84.722 E0.07429
G1 X98.577 Y84.393 E0.11538
G1 X99.525 Y84.336 E0.04589
G1 X100.839 Y84.315 E0.06352
G1 X102.057 Y84.953 E0.06643
G1 X102.217 Y84.977 E0.00780
G1 X103.706 Y84.708 E0.07313
G1 X105.851 Y85.465 E0.10990
G1 X107.916 Y86.397 E0.10949
G1 X108.820 Y87.643 E0.07438
G1 X108.949 Y87.735 E0.00767
G1 X110.309 Y88.146 E0.06866
G1 X111.378 Y89.240 E0.07390
G1 X112.011 Y89.954 E0.04612
G1 X113.325 Y91.666 E0.10429
G1 X113.531 Y93.140 E0.07190
G1 X113.600 Y93.280 E0.00757
G1 X114.669 Y94.361 E0.07347
G1 X115.279 Y96.644 E0.11416
G1 X115.660 Y98.790 E0.10533
G1 X115.152 Y100.216 E0.07314
G1 X115.149 Y100.373 E0.00758
G1 X115.591 Y101.799 E0.07214
G1 X115.131 Y103.909 E0.10438
G1 X114.862 Y104.825 E0.04610
G1 X114.361 Y106.268 E0.07380
G1 X113.308 Y107.215 E0.06846
G1 X113.230 Y107.353 E0.00767
G1 X112.941 Y108.869 E0.07458
G1 X111.468 Y110.594 E0.10961
G1 X109.852 Y112.190 E0.10977
G1 X108.404 Y112.576 E0.07241
G1 X108.273 Y112.663 E0.00758
G1 X107.338 Y113.847 E0.07290
G1 X105.203 Y114.711 E0.11131
G1 X103.064 Y115.371 E0.10818
G1 X101.570 Y115.037 E0.07396
G1 X101.412 Y115.054 E0.00768
G1 X100.116 Y115.649 E0.06892
G1 X98.562 Y115.536 E0.07529
G1 X97.611 Y115.419 E0.04631
G1 X95.524 Y115.012 E0.10271
G1 X94.398 Y114.048 E0.07164
G1 X94.253 Y113.989 E0.00758
G1 X92.731 Y113.888 E0.07374
G1 X90.886 Y112.672 E0.10678
G1 X89.055 Y111.226 E0.11274
G1 X88.492 Y109.827 E0.07289
G1 X88.390 Y109.707 E0.00758
G1 X87.110 Y108.929 E0.07239
G1 X86.018 Y106.968 E0.10848
G1 X85.076 Y104.873 E0.11098
G1 X85.226 Y103.345 E0.07418
G1 X85.191 Y103.193 E0.00758
G1 X84.426 Y101.928 E0.07141
G1 X84.363 Y99.903 E0.09794
G1 X84.396 Y98.937 E0.04667
G1 X84.542 Y97.294 E0.07971
G1 X85.344 Y96.108 E0.06922
G1 X85.387 Y95.954 E0.00768
G1 X85.301 Y94.438 E0.07339
G1 X86.343 Y92.349 E0.11279
G1 X87.494 Y90.464 E0.10675
G1 X88.824 Y89.729 E0.07343
G1 X88.930 Y89.614 E0.00758
G1 X89.512 Y88.324 E0.06838
G1 X89.931 Y88.572 F3600.000
G1 X91.525 Y87.404 E0.09547 F600.000
G1 X92.312 Y86.908 E0.04496
G1 X93.554 Y86.209 E0.06889
G1 X95.013 Y86.197 E0.07048
G1 X95.163 Y86.145 E0.00767
G1 X96.407 Y85.183 E0.07598
G1 X98.617 Y84.876 E0.10782
G1 X99.538 Y84.820 E0.04460
G1 X100.723 Y84.802 E0.05729
G1 X101.980 Y85.459 E0.06851
G1 X102.139 Y85.483 E0.00780
G1 X103.667 Y85.208 E0.07500
G1 X105.661 Y85.911 E0.10220
G1 X107.599 Y86.786 E0.10276
G1 X108.523 Y88.059 E0.07604
G1 X108.653 Y88.151 E0.00767
G1 X110.050 Y88.574 E0.07053
G1 X111.027 Y89.574 E0.06759
G1 X111.642 Y90.268 E0.04481
G1 X112.863 Y91.859 E0.09691
G1 X113.073 Y93.366 E0.07353
G1 X113.143 Y93.507 E0.00757
G1 X114.235 Y94.611 E0.07508
G1 X114.769 Y96.581 E0.09863
G1 X115.160 Y98.748 E0.10642
G1 X114.642 Y100.205 E0.07473
G1 X114.639 Y100.362 E0.00758
G1 X115.091 Y101.821 E0.07379
G1 X114.663 Y103.782 E0.09701
G1 X114.402 Y104.672 E0.04479
G1 X113.945 Y105.991 E0.06748
G1 X112.863 Y106.964 E0.07031
G1 X112.785 Y107.102 E0.00767
G1 X112.490 Y108.653 E0.07626
G1 X111.107 Y110.271 E0.10288
G1 X109.604 Y111.755 E0.10206
G1 X108.123 Y112.150 E0.07403
G1 X107.992 Y112.236 E0.00758
G1 X107.037 Y113.447 E0.07452
G1 X105.050 Y114.251 E0.10360
G1 X103.044 Y114.870 E0.10144
G1 X101.516 Y114.529 E0.07563
G1 X101.358 Y114.546 E0.00768
G1 X100.027 Y115.157 E0.07080
G1 X98.603 Y115.053 E0.06897
G1 X97.680 Y114.939 E0.04498
G1 X95.743 Y114.562 E0.09536
G1 X94.591 Y113.575 E0.07327
G1 X94.446 Y113.516 E0.00758
G1 X92.890 Y113.413 E0.07534
G1 X91.161 Y112.273 E0.10007
G1 X89.456 Y110.927 E0.10499
G1 X88.881 Y109.497 E0.07449
G1 X88.779 Y109.377 E0.00758
G1 X87.470 Y108.581 E0.07404
G1 X86.455 Y106.759 E0.10078
G1 X85.571 Y104.792 E0.10423
G1 X85.723 Y103.232 E0.07573
G1 X85.689 Y103.079 E0.00758
G1 X84.905 Y101.786 E0.07308
G1 X84.847 Y99.910 E0.09069
G1 X84.879 Y98.973 E0.04529
G1 X85.013 Y97.462 E0.07332
G1 X85.837 Y96.244 E0.07106
G1 X85.879 Y96.090 E0.00768
G1 X85.792 Y94.538 E0.07512
G1 X86.762 Y92.592 E0.10507
G1 X87.840 Y90.825 E0.10003
G1 X89.199 Y90.075 E0.07501
G1 X89.305 Y89.960 E0.00758
G1 X89.901 Y88.638 E0.07004
G1 X90.321 Y88.887 F3600.000
G1 X91.791 Y87.809 E0.08813 F600.000
G1 X92.555 Y87.327 E0.04363
G1 X93.683 Y86.692 E0.06255
G1 X95.180 Y86.680 E0.07233
G1 X95.330 Y86.628 E0.00767
G1 X96.601 Y85.645 E0.07767
G1 X98.656 Y85.359 E0.10026
G1 X99.551 Y85.304 E0.04332
G1 X100.608 Y85.288 E0.05107
G1 X101.902 Y85.965 E0.07059
G1 X102.062 Y85.989 E0.00780
G1 X103.627 Y85.707 E0.07687
G1 X105.472 Y86.357 E0.09449
G1 X107.283 Y87.174 E0.09602
G1 X108.227 Y88.476 E0.07771
G1 X108.356 Y88.568 E0.00767
G1 X109.790 Y89.001 E0.07239
G1 X110.676 Y89.908 E0.06127
G1 X111.273 Y90.582 E0.04350
G1 X112.401 Y92.052 E0.08953
G1 X112.616 Y93.592 E0.07515
G1 X112.685 Y93.733 E0.00757
G1 X113.801 Y94.861 E0.07668
G1 X114.299 Y96.697 E0.09194
G1 X114.661 Y98.707 E0.09866
G1 X114.132 Y100.195 E0.07633
G1 X114.128 Y100.351 E0.00758
G1 X114.590 Y101.843 E0.07545
G1 X114.196 Y103.655 E0.08964
G1 X113.943 Y104.519 E0.04348
G1 X113.528 Y105.714 E0.06115
G1 X112.418 Y106.713 E0.07216
G1 X112.340 Y106.851 E0.00767
G1 X112.038 Y108.436 E0.07794
G1 X110.745 Y109.949 E0.09616
G1 X109.356 Y111.320 E0.09435
G1 X107.843 Y111.724 E0.07564
G1 X107.712 Y111.810 E0.00758
G1 X106.736 Y113.047 E0.07614
G1 X104.897 Y113.792 E0.09589
G1 X103.024 Y114.370 E0.09471
G1 X101.463 Y114.021 E0.07730
G1 X101.305 Y114.038 E0.00768
G1 X99.938 Y114.665 E0.07267
G1 X98.645 Y114.571 E0.06265
G1 X97.749 Y114.460 E0.04365
G1 X95.961 Y114.111 E0.08800
G1 X94.784 Y113.103 E0.07491
G1 X94.639 Y113.044 E0.00758
G1 X93.050 Y112.938 E0.07693
G1 X91.437 Y111.875 E0.09337
G1 X89.858 Y110.627 E0.09725
G1 X89.270 Y109.166 E0.07609
G1 X89.168 Y109.047 E0.00758
G1 X87.830 Y108.233 E0.07568
G1 X86.893 Y106.551 E0.09308
G1 X86.065 Y104.711 E0.09748
G1 X86.221 Y103.119 E0.07728
G1 X86.186 Y102.966 E0.00758
G1 X85.385 Y101.643 E0.07474
G1 X85.331 Y99.917 E0.08344
G1 X85.362 Y99.009 E0.04392
G1 X85.485 Y97.629 E0.06693
G1 X86.330 Y96.380 E0.07290
G1 X86.372 Y96.226 E0.00768
G1 X86.283 Y94.638 E0.07685
G1 X87.181 Y92.835 E0.09734
G1 X88.187 Y91.187 E0.09330
G1 X89.574 Y90.421 E0.07659
G1 X89.681 Y90.306 E0.00758
G1 X90.291 Y88.953 E0.07170
G1 X90.710 Y89.202 F3600.000
G1 X92.058 Y88.213 E0.08078 F600.000
G1 X92.798 Y87.746 E0.04230
G1 X93.812 Y87.175 E0.05621
G1 X95.426 Y87.162 E0.07802
G1 X95.668 Y87.000 E0.01406
G1 X95.681 Y86.969 E0.00162
G1 X96.796 Y86.106 E0.06814
G1 X98.696 Y85.841 E0.09270
G1 X99.564 Y85.788 E0.04203
G1 X100.492 Y85.774 E0.04485
G1 X101.893 Y86.507 E0.07639
G1 X102.184 Y86.476 E0.01416
G1 X102.210 Y86.455 E0.00160
G1 X103.588 Y86.206 E0.06768
G1 X105.282 Y86.802 E0.08679
G1 X106.966 Y87.563 E0.08929
G1 X107.797 Y88.708 E0.06838
G1 X107.800 Y88.738 E0.00144
G1 X107.987 Y88.962 E0.01408
G1 X109.531 Y89.429 E0.07797
G1 X110.326 Y90.242 E0.05495
G1 X110.904 Y90.896 E0.04219
G1 X111.939 Y92.245 E0.08214
G1 X112.168 Y93.889 E0.08021
G1 X112.357 Y94.106 E0.01393
G1 X113.367 Y95.111 E0.06883
G1 X113.828 Y96.813 E0.08524
G1 X114.162 Y98.665 E0.09091
G1 X113.621 Y100.184 E0.07792
G1 X113.618 Y100.341 E0.00758
G1 X114.090 Y101.865 E0.07710
G1 X113.728 Y103.528 E0.08227
G1 X113.483 Y104.366 E0.04217
G1 X113.111 Y105.438 E0.05482
G1 X111.913 Y106.516 E0.07791
G1 X111.839 Y106.798 E0.01407
G1 X111.851 Y106.831 E0.00168
G1 X111.586 Y108.219 E0.06828
G1 X110.384 Y109.626 E0.08944
G1 X109.108 Y110.885 E0.08664
G1 X107.498 Y111.314 E0.08049
G1 X107.306 Y111.529 E0.01392
G1 X106.435 Y112.646 E0.06848
G1 X104.744 Y113.332 E0.08818
G1 X103.004 Y113.869 E0.08797
G1 X101.605 Y113.544 E0.06941
G1 X101.317 Y113.499 E0.01409
G1 X99.849 Y114.173 E0.07805
G1 X98.687 Y114.088 E0.05632
G1 X97.818 Y113.980 E0.04231
G1 X96.180 Y113.661 E0.08064
G1 X94.922 Y112.584 E0.08002
G1 X94.636 Y112.546 E0.01395
G1 X93.210 Y112.464 E0.06902
G1 X91.712 Y111.477 E0.08666
G1 X90.259 Y110.328 E0.08951
G1 X89.659 Y108.836 E0.07769
G1 X89.558 Y108.717 E0.00758
G1 X88.190 Y107.886 E0.07732
G1 X87.330 Y106.342 E0.08539
G1 X86.560 Y104.630 E0.09073
G1 X86.709 Y103.202 E0.06936
G1 X86.720 Y102.913 E0.01400
G1 X85.865 Y101.501 E0.07977
G1 X85.816 Y99.925 E0.07619
G1 X85.845 Y99.045 E0.04254
G1 X85.956 Y97.797 E0.06055
G1 X86.864 Y96.454 E0.07832
G1 X86.867 Y96.164 E0.01405
G1 X86.852 Y96.140 E0.00134
G1 X86.773 Y94.739 E0.06784
G1 X87.600 Y93.079 E0.08961
G1 X88.533 Y91.549 E0.08658
G1 X89.949 Y90.767 E0.07818
G1 X90.056 Y90.652 E0.00758
G1 X90.680 Y89.268 E0.07336
G1 X91.099 Y89.517 F3600.000
G1 X92.324 Y88.618 E0.07344 F600.000
G1 X93.041 Y88.165 E0.04097
G1 X93.941 Y87.658 E0.04987
G1 X95.064 Y87.649 E0.05427
G1 X95.481 Y87.875 E0.02295
G1 X95.887 Y87.732 E0.02079
G1 X96.078 Y87.273 E0.02401
G1 X96.991 Y86.568 E0.05575
G1 X98.736 Y86.324 E0.08515
G1 X99.578 Y86.272 E0.04075
G1 X100.377 Y86.260 E0.03862
G1 X101.358 Y86.774 E0.05352
G1 X101.618 Y87.160 E0.02251
G1 X102.044 Y87.222 E0.02080
G1 X102.421 Y86.909 E0.02370
G1 X103.549 Y86.705 E0.05537
G1 X105.093 Y87.248 E0.07908
G1 X106.650 Y87.951 E0.08255
G1 X107.330 Y88.888 E0.05595
G1 X107.383 Y89.379 E0.02387
G1 X107.732 Y89.632 E0.02079
G1 X108.199 Y89.532 E0.02309
G1 X109.272 Y89.856 E0.05416
G1 X109.975 Y90.576 E0.04864
G1 X110.536 Y91.210 E0.04088
G1 X111.477 Y92.438 E0.07476
G1 X111.635 Y93.572 E0.05533
G1 X111.457 Y94.024 E0.02348
G1 X111.648 Y94.409 E0.02078
G1 X112.125 Y94.544 E0.02395
G1 X112.933 Y95.361 E0.05554
G1 X113.358 Y96.930 E0.07855
G1 X113.663 Y98.623 E0.08316
G1 X113.276 Y99.710 E0.05574
G1 X112.906 Y100.029 E0.02359
G1 X112.896 Y100.459 E0.02080
G1 X113.252 Y100.795 E0.02365
G1 X113.590 Y101.887 E0.05522
G1 X113.261 Y103.401 E0.07490
G1 X113.024 Y104.213 E0.04086
G1 X112.695 Y105.161 E0.04849
G1 X111.860 Y105.912 E0.05427
G1 X111.398 Y106.019 E0.02289
G1 X111.190 Y106.396 E0.02080
G1 X111.351 Y106.866 E0.02403
G1 X111.134 Y108.002 E0.05586
G1 X110.023 Y109.303 E0.08271
G1 X108.860 Y110.450 E0.07893
G1 X107.751 Y110.746 E0.05545
