; generated by Slic3r 1.0.0RC3 on 2014-03-16 at 17:34:19

; layer_height = 0.24
; perimeters = 2
; top_solid_layers = 4
; bottom_solid_layers = 3
; fill_density = 0.4
; perimeter_speed = 20
; infill_speed = 20
; travel_speed = 60
; nozzle_diameter = 0.5
; filament_diameter = 1.75
; extrusion_multiplier = 1
; perimeters extrusion width = 0.50mm
; infill extrusion width = 0.87mm
; solid infill extrusion width = 0.85mm
; top infill extrusion width = 0.85mm
; first layer extrusion width = 0.48mm

G21 ; set units to millimeters
M107
M104 S205 ; set temperature
G21 ; set units to millimeters
G90 ; use absolute coordinates
M83 ; use relative distances for extrusion
M140 S65; Set bed temperature
G1 Z5 F200 ; lift nozzle
G1 X2 Y50 F2000; Go to wait for warm position
M116; Wait for all temperatures
G10 P0 S205 R0 ; Set extruder temperature
T0; Select extruder
M116; Wait for all temperatures
M109 S205 ; wait for temperature to be reached
G90 ; use absolute coordinates
M83 ; use relative distances for extrusion
G1 F1800.000 E-1.00000
G1 Z0.240 F3600.000
G1 X88.068 Y86.230 F3600.000
G1 E1.00000 F1800.000
G1 X88.568 Y85.810 E0.03155 F600.000
G1 X89.128 Y85.380 E0.03412
G1 X90.358 Y84.550 E0.07170
G1 X90.948 Y84.200 E0.03315
G1 X91.578 Y83.910 E0.03351
G1 X95.238 Y82.480 E0.18988
G1 X95.858 Y82.270 E0.03163
G1 X96.488 Y82.130 E0.03119
G1 X97.408 Y81.970 E0.04512
G1 X97.948 Y81.900 E0.02631
G1 X98.748 Y81.830 E0.03881
G1 X99.388 Y81.810 E0.03094
G1 X100.028 Y81.840 E0.03096
G1 X103.928 Y82.270 E0.18960
G1 X104.558 Y82.380 E0.03090
G1 X105.168 Y82.540 E0.03047
G1 X105.928 Y82.780 E0.03851
G1 X106.458 Y82.970 E0.02721
G1 X107.328 Y83.330 E0.04550
G1 X107.918 Y83.610 E0.03156
G1 X108.478 Y83.950 E0.03166
G1 X111.738 Y86.150 E0.19005
G1 X112.268 Y86.550 E0.03209
G1 X112.758 Y87.000 E0.03215
G1 X113.468 Y87.730 E0.04921
G1 X113.838 Y88.140 E0.02669
G1 X114.288 Y88.690 E0.03434
G1 X114.658 Y89.200 E0.03045
G1 X114.978 Y89.730 E0.02992
G1 X116.838 Y93.190 E0.18982
G1 X117.108 Y93.750 E0.03004
G1 X117.318 Y94.340 E0.03026
G1 X117.578 Y95.180 E0.04249
G1 X117.728 Y95.740 E0.02801
G1 X117.908 Y96.580 E0.04151
G1 X118.008 Y97.220 E0.03130
G1 X118.048 Y97.870 E0.03147
G1 X118.088 Y101.800 E0.18992
G1 X118.068 Y102.460 E0.03191
G1 X117.978 Y103.110 E0.03171
G1 X117.838 Y103.830 E0.03544
G1 X117.468 Y105.240 E0.07044
G1 X117.258 Y105.890 E0.03301
G1 X116.988 Y106.510 E0.03268
G1 X115.208 Y110.000 E0.18932
G1 X114.878 Y110.570 E0.03183
G1 X114.488 Y111.110 E0.03219
G1 X113.878 Y111.870 E0.04709
G1 X112.998 Y112.830 E0.06293
G1 X112.528 Y113.270 E0.03111
G1 X112.018 Y113.670 E0.03132
G1 X108.808 Y115.930 E0.18970
G1 X108.268 Y116.280 E0.03110
G1 X107.688 Y116.570 E0.03134
G1 X106.938 Y116.900 E0.03960
G1 X105.568 Y117.390 E0.07031
G1 X104.948 Y117.570 E0.03120
G1 X104.318 Y117.690 E0.03099
G1 X100.428 Y118.210 E0.18965
G1 X99.748 Y118.260 E0.03295
G1 X99.078 Y118.250 E0.03238
G1 X98.028 Y118.170 E0.05089
G1 X96.798 Y117.990 E0.06007
G1 X96.198 Y117.860 E0.02967
G1 X95.618 Y117.680 E0.02935
G1 X91.928 Y116.330 E0.18987
G1 X91.318 Y116.070 E0.03204
G1 X90.728 Y115.740 E0.03267
G1 X89.958 Y115.260 E0.04385
G1 X88.888 Y114.500 E0.06342
G1 X88.378 Y114.090 E0.03162
G1 X87.908 Y113.620 E0.03212
G1 X85.268 Y110.700 E0.19022
G1 X84.858 Y110.190 E0.03162
G1 X84.498 Y109.650 E0.03136
G1 X84.108 Y108.990 E0.03705
G1 X83.458 Y107.730 E0.06851
G1 X83.188 Y107.100 E0.03312
G1 X82.978 Y106.450 E0.03301
G1 X81.998 Y102.640 E0.19010
G1 X81.858 Y101.960 E0.03355
G1 X81.798 Y101.280 E0.03299
G1 X81.758 Y99.850 E0.06913
G1 X81.778 Y99.110 E0.03577
G1 X81.828 Y98.460 E0.03150
G1 X81.948 Y97.810 E0.03194
G1 X82.848 Y93.980 E0.19012
G1 X83.028 Y93.330 E0.03259
G1 X83.288 Y92.710 E0.03249
G1 X83.858 Y91.530 E0.06333
G1 X84.288 Y90.760 E0.04262
G1 X84.638 Y90.200 E0.03191
G1 X85.048 Y89.680 E0.03200
G1 X87.618 Y86.710 E0.18979
G1 X88.018 Y86.283 E0.02828
G1 F1800.000 E-1.00000
G1 X88.653 Y88.474 F3600.000
G1 E1.00000 F1800.000
G1 X90.610 Y86.930 E0.12047 F600.000
G1 X92.571 Y85.637 E0.11348
G1 X94.060 Y85.539 E0.07214
G1 X94.206 Y85.479 E0.00758
G1 X95.306 Y84.537 E0.07000
G1 X97.542 Y84.102 E0.11007
G1 X98.513 Y83.982 E0.04730
G1 X100.294 Y83.884 E0.08619
G1 X101.459 Y84.437 E0.06233
G1 X101.620 Y84.455 E0.00783
G1 X103.084 Y84.128 E0.07246
G1 X105.356 Y84.830 E0.11491
G1 X107.639 Y85.753 E0.11902
G1 X108.553 Y86.911 E0.07128
G1 X108.684 Y86.997 E0.00758
G1 X110.100 Y87.375 E0.07078
G1 X111.829 Y89.083 E0.11749
G1 X113.393 Y90.914 E0.11633
G1 X113.675 Y92.396 E0.07290
G1 X113.753 Y92.534 E0.00767
G1 X114.778 Y93.456 E0.06661
G1 X115.321 Y95.023 E0.08013
G1 X115.598 Y95.964 E0.04741
G1 X116.091 Y98.223 E0.11175
G1 X115.659 Y99.617 E0.07049
G1 X115.662 Y99.774 E0.00758
G1 X116.159 Y101.169 E0.07155
G1 X115.754 Y103.452 E0.11204
G1 X115.104 Y105.889 E0.12189
G1 X114.057 Y106.946 E0.07187
G1 X113.988 Y107.086 E0.00757
G1 X113.787 Y108.527 E0.07027
G1 X112.380 Y110.360 E0.11166
G1 X111.729 Y111.094 E0.04744
G1 X110.568 Y112.281 E0.08023
G1 X109.245 Y112.681 E0.06680
G1 X109.116 Y112.773 E0.00767
G1 X108.232 Y113.991 E0.07271
G1 X106.040 Y114.981 E0.11622
G1 X103.745 Y115.791 E0.11762
G1 X102.300 Y115.530 E0.07095
G1 X102.145 Y115.552 E0.00759
G1 X100.831 Y116.210 E0.07100
G1 X98.372 Y116.073 E0.11901
G1 X96.017 Y115.740 E0.11491
G1 X94.828 Y114.821 E0.07260
G1 X94.678 Y114.769 E0.00767
G1 X93.296 Y114.758 E0.06679
G1 X91.825 Y113.930 E0.08157
G1 X90.992 Y113.404 E0.04762
G1 X89.153 Y112.057 E0.11016
G1 X88.555 Y110.732 E0.07024
G1 X88.449 Y110.617 E0.00758
G1 X87.147 Y109.898 E0.07184
G1 X85.924 Y107.894 E0.11348
G1 X84.810 Y105.662 E0.12052
G1 X84.894 Y104.185 E0.07151
G1 X84.853 Y104.033 E0.00758
G1 X84.046 Y102.818 E0.07046
G1 X83.884 Y100.479 E0.11333
G1 X83.887 Y99.502 E0.04719
G1 X83.967 Y97.875 E0.07872
G1 X84.692 Y96.699 E0.06676
G1 X84.728 Y96.544 E0.00767
G1 X84.581 Y95.046 E0.07277
G1 X85.581 Y92.824 E0.11773
G1 X86.750 Y90.723 E0.11618
G1 X88.001 Y89.963 E0.07074
G1 X88.102 Y89.843 E0.00758
G1 X88.626 Y88.542 E0.06779
G1 X89.055 Y88.774 F3600.000
G1 X90.886 Y87.328 E0.11273 F600.000
G1 X92.731 Y86.112 E0.10677
G1 X94.253 Y86.011 E0.07374
G1 X94.398 Y85.952 E0.00758
G1 X95.524 Y84.988 E0.07164
G1 X97.611 Y84.581 E0.10271
G1 X98.555 Y84.465 E0.04600
G1 X100.196 Y84.373 E0.07938
G1 X101.402 Y84.946 E0.06454
G1 X101.563 Y84.964 E0.00783
G1 X103.064 Y84.629 E0.07430
G1 X105.203 Y85.289 E0.10817
G1 X107.338 Y86.153 E0.11131
G1 X108.273 Y87.337 E0.07290
G1 X108.404 Y87.424 E0.00757
G1 X109.852 Y87.810 E0.07240
G1 X111.468 Y89.406 E0.10978
G1 X112.941 Y91.131 E0.10961
G1 X113.230 Y92.647 E0.07458
G1 X113.308 Y92.785 E0.00767
G1 X114.361 Y93.732 E0.06846
G1 X114.862 Y95.175 E0.07380
G1 X115.131 Y96.091 E0.04610
G1 X115.591 Y98.201 E0.10438
G1 X115.149 Y99.627 E0.07214
G1 X115.152 Y99.784 E0.00758
G1 X115.660 Y101.210 E0.07314
G1 X115.279 Y103.356 E0.10533
G1 X114.669 Y105.639 E0.11416
G1 X113.600 Y106.720 E0.07347
G1 X113.531 Y106.860 E0.00757
G1 X113.325 Y108.334 E0.07190
G1 X112.011 Y110.046 E0.10428
G1 X111.378 Y110.760 E0.04613
G1 X110.309 Y111.854 E0.07391
G1 X108.949 Y112.265 E0.06866
G1 X108.819 Y112.357 E0.00767
G1 X107.916 Y113.603 E0.07438
G1 X105.851 Y114.535 E0.10949
G1 X103.706 Y115.292 E0.10991
G1 X102.227 Y115.025 E0.07258
G1 X102.072 Y115.047 E0.00759
G1 X100.728 Y115.719 E0.07262
G1 X98.429 Y115.592 E0.11128
G1 X96.212 Y115.278 E0.10819
G1 X94.996 Y114.338 E0.07429
G1 X94.845 Y114.286 E0.00767
G1 X93.425 Y114.274 E0.06864
G1 X92.069 Y113.511 E0.07523
G1 X91.258 Y113.000 E0.04629
G1 X89.542 Y111.743 E0.10281
G1 X88.930 Y110.386 E0.07190
G1 X88.824 Y110.271 E0.00758
G1 X87.494 Y109.537 E0.07342
G1 X86.343 Y107.651 E0.10675
G1 X85.301 Y105.562 E0.11279
G1 X85.386 Y104.051 E0.07313
G1 X85.345 Y103.899 E0.00758
G1 X84.520 Y102.657 E0.07209
G1 X84.368 Y100.470 E0.10592
G1 X84.371 Y99.520 E0.04590
G1 X84.445 Y98.023 E0.07242
G1 X85.190 Y96.814 E0.06863
G1 X85.226 Y96.660 E0.00767
G1 X85.076 Y95.127 E0.07442
G1 X86.018 Y93.032 E0.11098
G1 X87.110 Y91.071 E0.10848
G1 X88.390 Y90.293 E0.07239
G1 X88.492 Y90.173 E0.00758
G1 X89.028 Y88.841 E0.06939
G1 X89.456 Y89.073 F3600.000
G1 X91.161 Y87.727 E0.10499 F600.000
G1 X92.890 Y86.587 E0.10007
G1 X94.446 Y86.484 E0.07534
G1 X94.591 Y86.425 E0.00758
G1 X95.743 Y85.438 E0.07327
G1 X97.680 Y85.061 E0.09536
G1 X98.598 Y84.947 E0.04470
G1 X100.097 Y84.863 E0.07258
G1 X101.345 Y85.455 E0.06674
G1 X101.506 Y85.473 E0.00783
G1 X103.044 Y85.130 E0.07614
G1 X105.050 Y85.749 E0.10144
G1 X107.037 Y86.553 E0.10360
G1 X107.993 Y87.764 E0.07453
G1 X108.124 Y87.850 E0.00758
G1 X109.604 Y88.245 E0.07402
G1 X111.107 Y89.729 E0.10207
G1 X112.489 Y91.348 E0.10288
G1 X112.785 Y92.898 E0.07625
G1 X112.863 Y93.036 E0.00767
G1 X113.945 Y94.009 E0.07031
G1 X114.402 Y95.328 E0.06748
G1 X114.663 Y96.218 E0.04479
G1 X115.091 Y98.179 E0.09701
G1 X114.639 Y99.638 E0.07379
G1 X114.642 Y99.795 E0.00758
G1 X115.160 Y101.252 E0.07473
G1 X114.769 Y103.419 E0.10642
G1 X114.235 Y105.389 E0.09863
G1 X113.143 Y106.493 E0.07508
G1 X113.073 Y106.634 E0.00757
G1 X112.863 Y108.141 E0.07353
G1 X111.642 Y109.732 E0.09690
G1 X111.027 Y110.426 E0.04482
G1 X110.050 Y111.426 E0.06759
G1 X108.653 Y111.849 E0.07053
G1 X108.523 Y111.941 E0.00767
G1 X107.599 Y113.214 E0.07604
G1 X105.661 Y114.089 E0.10275
G1 X103.666 Y114.792 E0.10221
G1 X102.155 Y114.519 E0.07422
G1 X102.000 Y114.542 E0.00758
G1 X100.626 Y115.229 E0.07424
G1 X98.486 Y115.111 E0.10355
G1 X96.407 Y114.817 E0.10148
G1 X95.163 Y113.855 E0.07598
G1 X95.013 Y113.803 E0.00767
G1 X93.554 Y113.791 E0.07049
G1 X92.312 Y113.092 E0.06889
G1 X91.525 Y112.596 E0.04495
G1 X89.931 Y111.428 E0.09547
G1 X89.305 Y110.040 E0.07356
G1 X89.199 Y109.925 E0.00758
G1 X87.840 Y109.175 E0.07501
G1 X86.762 Y107.408 E0.10003
G1 X85.792 Y105.462 E0.10507
G1 X85.879 Y103.917 E0.07475
G1 X85.838 Y103.766 E0.00758
G1 X84.994 Y102.495 E0.07372
G1 X84.853 Y100.461 E0.09850
G1 X84.855 Y99.538 E0.04462
G1 X84.923 Y98.172 E0.06611
G1 X85.688 Y96.930 E0.07051
G1 X85.724 Y96.775 E0.00767
G1 X85.571 Y95.208 E0.07608
G1 X86.455 Y93.241 E0.10423
G1 X87.470 Y91.419 E0.10078
G1 X88.779 Y90.623 E0.07403
G1 X88.881 Y90.503 E0.00758
G1 X89.429 Y89.141 E0.07099
G1 X89.858 Y89.373 F3600.000
G1 X91.437 Y88.125 E0.09725 F600.000
G1 X93.050 Y87.062 E0.09336
G1 X94.639 Y86.956 E0.07694
G1 X94.784 Y86.897 E0.00758
G1 X95.961 Y85.889 E0.07491
G1 X97.749 Y85.540 E0.08800
G1 X98.640 Y85.430 E0.04340
G1 X99.999 Y85.352 E0.06577
G1 X101.288 Y85.964 E0.06895
G1 X101.449 Y85.982 E0.00783
G1 X103.024 Y85.630 E0.07798
G1 X104.897 Y86.208 E0.09471
G1 X106.736 Y86.953 E0.09588
G1 X107.712 Y88.190 E0.07615
G1 X107.843 Y88.276 E0.00758
G1 X109.355 Y88.680 E0.07564
G1 X110.745 Y90.051 E0.09436
G1 X112.038 Y91.564 E0.09616
G1 X112.340 Y93.149 E0.07793
G1 X112.418 Y93.287 E0.00767
G1 X113.528 Y94.286 E0.07217
G1 X113.943 Y95.481 E0.06115
G1 X114.196 Y96.345 E0.04348
G1 X114.590 Y98.157 E0.08964
G1 X114.128 Y99.649 E0.07544
G1 X114.132 Y99.805 E0.00758
G1 X114.661 Y101.293 E0.07633
G1 X114.299 Y103.303 E0.09866
G1 X113.801 Y105.139 E0.09194
G1 X112.685 Y106.267 E0.07668
G1 X112.616 Y106.408 E0.00757
G1 X112.401 Y107.948 E0.07516
G1 X111.273 Y109.418 E0.08952
G1 X110.677 Y110.092 E0.04350
G1 X109.790 Y110.999 E0.06127
G1 X108.356 Y111.432 E0.07239
G1 X108.227 Y111.524 E0.00767
G1 X107.283 Y112.826 E0.07771
G1 X105.472 Y113.643 E0.09602
G1 X103.627 Y114.293 E0.09450
G1 X102.082 Y114.014 E0.07586
G1 X101.927 Y114.037 E0.00759
G1 X100.523 Y114.739 E0.07585
G1 X98.543 Y114.630 E0.09582
G1 X96.601 Y114.355 E0.09477
G1 X95.330 Y113.372 E0.07767
G1 X95.180 Y113.320 E0.00767
G1 X93.683 Y113.308 E0.07234
G1 X92.555 Y112.673 E0.06255
G1 X91.791 Y112.191 E0.04362
G1 X90.321 Y111.113 E0.08813
G1 X89.681 Y109.694 E0.07521
G1 X89.574 Y109.579 E0.00758
G1 X88.187 Y108.813 E0.07659
G1 X87.181 Y107.165 E0.09330
G1 X86.283 Y105.362 E0.09734
G1 X86.371 Y103.784 E0.07637
G1 X86.330 Y103.632 E0.00758
G1 X85.468 Y102.333 E0.07535
G1 X85.337 Y100.453 E0.09109
G1 X85.339 Y99.556 E0.04333
G1 X85.400 Y98.320 E0.05981
G1 X86.186 Y97.045 E0.07238
G1 X86.222 Y96.890 E0.00767
G1 X86.065 Y95.289 E0.07774
G1 X86.893 Y93.449 E0.09748
G1 X87.830 Y91.767 E0.09309
G1 X89.168 Y90.953 E0.07567
G1 X89.270 Y90.834 E0.00758
G1 X89.831 Y89.440 E0.07259
G1 X90.259 Y89.672 F3600.000
G1 X91.712 Y88.523 E0.08951 F600.000
G1 X93.210 Y87.536 E0.08666
G1 X94.636 Y87.454 E0.06903
G1 X94.922 Y87.416 E0.01395
G1 X96.180 Y86.339 E0.08002
G1 X97.818 Y86.020 E0.08065
G1 X98.682 Y85.912 E0.04211
G1 X99.901 Y85.842 E0.05897
G1 X101.304 Y86.508 E0.07507
G1 X101.596 Y86.464 E0.01425
G1 X101.623 Y86.439 E0.00179
G1 X103.004 Y86.131 E0.06837
G1 X104.744 Y86.668 E0.08797
G1 X106.435 Y87.354 E0.08817
G1 X107.306 Y88.471 E0.06848
G1 X107.498 Y88.686 E0.01392
G1 X109.107 Y89.115 E0.08049
G1 X110.384 Y90.374 E0.08665
G1 X111.586 Y91.781 E0.08943
G1 X111.851 Y93.169 E0.06827
G1 X111.839 Y93.202 E0.00168
G1 X111.913 Y93.484 E0.01407
G1 X113.111 Y94.562 E0.07792
G1 X113.483 Y95.634 E0.05482
G1 X113.751 Y96.562 E0.04670
G1 X114.090 Y98.135 E0.07774
G1 X113.618 Y99.659 E0.07710
G1 X113.621 Y99.816 E0.00758
G1 X114.162 Y101.335 E0.07792
G1 X113.828 Y103.187 E0.09091
G1 X113.367 Y104.889 E0.08524
G1 X112.357 Y105.894 E0.06883
G1 X112.168 Y106.111 E0.01393
G1 X111.939 Y107.755 E0.08021
G1 X110.905 Y109.104 E0.08213
G1 X110.326 Y109.758 E0.04219
G1 X109.531 Y110.571 E0.05496
G1 X107.986 Y111.038 E0.07797
G1 X107.800 Y111.262 E0.01408
G1 X107.797 Y111.292 E0.00144
G1 X106.966 Y112.437 E0.06838
G1 X105.282 Y113.198 E0.08929
G1 X103.588 Y113.794 E0.08680
G1 X102.010 Y113.509 E0.07749
G1 X101.854 Y113.531 E0.00759
G1 X100.421 Y114.249 E0.07747
G1 X98.600 Y114.149 E0.08809
G1 X96.796 Y113.894 E0.08805
G1 X95.681 Y113.031 E0.06813
G1 X95.668 Y113.000 E0.00163
G1 X95.426 Y112.838 E0.01406
G1 X93.812 Y112.825 E0.07803
G1 X92.798 Y112.254 E0.05621
G1 X91.982 Y111.735 E0.04674
G1 X90.710 Y110.798 E0.07633
G1 X90.056 Y109.348 E0.07687
G1 X89.949 Y109.233 E0.00758
G1 X88.533 Y108.451 E0.07818
G1 X87.600 Y106.921 E0.08658
G1 X86.773 Y105.261 E0.08961
G1 X86.863 Y103.843 E0.06865
G1 X86.861 Y103.555 E0.01394
G1 X85.942 Y102.171 E0.08026
G1 X85.821 Y100.444 E0.08368
G1 X85.823 Y99.574 E0.04204
G1 X85.878 Y98.468 E0.05351
G1 X86.724 Y97.096 E0.07789
G1 X86.714 Y96.804 E0.01410
G1 X86.698 Y96.782 E0.00134
G1 X86.560 Y95.370 E0.06853
G1 X87.330 Y93.658 E0.09073
G1 X88.190 Y92.114 E0.08539
G1 X89.558 Y91.283 E0.07731
G1 X89.659 Y91.164 E0.00758
G1 X90.232 Y89.740 E0.07419
G1 X90.661 Y89.972 F3600.000
G1 X91.988 Y88.922 E0.08177 F600.000
G1 X93.369 Y88.011 E0.07995
G1 X94.519 Y87.935 E0.05566
G1 X94.965 Y88.151 E0.02394
G1 X95.363 Y87.989 E0.02080
G1 X95.529 Y87.535 E0.02336
G1 X96.398 Y86.790 E0.05532
G1 X97.887 Y86.499 E0.07329
G1 X98.725 Y86.395 E0.04081
G1 X99.802 Y86.331 E0.05216
G1 X100.787 Y86.798 E0.05266
G1 X101.064 Y87.172 E0.02250
G1 X101.492 Y87.214 E0.02079
G1 X101.854 Y86.884 E0.02368
G1 X102.984 Y86.632 E0.05594
G1 X104.590 Y87.128 E0.08124
G1 X106.133 Y87.754 E0.08046
G1 X106.844 Y88.653 E0.05540
G1 X106.919 Y89.141 E0.02383
G1 X107.279 Y89.377 E0.02078
G1 X107.751 Y89.254 E0.02357
G1 X108.859 Y89.550 E0.05545
G1 X110.023 Y90.697 E0.07893
G1 X111.134 Y91.998 E0.08271
G1 X111.351 Y93.134 E0.05586
G1 X111.190 Y93.604 E0.02404
G1 X111.398 Y93.981 E0.02080
G1 X111.860 Y94.088 E0.02289
G1 X112.695 Y94.839 E0.05427
G1 X113.024 Y95.787 E0.04849
G1 X113.280 Y96.673 E0.04457
G1 X113.590 Y98.113 E0.07120
G1 X113.252 Y99.205 E0.05522
G1 X112.896 Y99.541 E0.02365
G1 X112.906 Y99.971 E0.02080
G1 X113.276 Y100.290 E0.02359
G1 X113.663 Y101.377 E0.05574
G1 X113.358 Y103.070 E0.08316
G1 X112.933 Y104.639 E0.07855
G1 X112.125 Y105.456 E0.05554
G1 X111.648 Y105.591 E0.02395
G1 X111.457 Y105.976 E0.02078
G1 X111.635 Y106.428 E0.02348
G1 X111.477 Y107.562 E0.05533
G1 X110.536 Y108.790 E0.07475
G1 X109.975 Y109.424 E0.04088
G1 X109.272 Y110.144 E0.04864
G1 X108.199 Y110.468 E0.05415
G1 X107.732 Y110.368 E0.02309
G1 X107.383 Y110.621 E0.02079
G1 X107.330 Y111.112 E0.02387
G1 X106.650 Y112.049 E0.05595
G1 X105.093 Y112.752 E0.08255
