; generated by Slic3r 1.0.0RC3 on 2014-03-16 at 18:21:43

; layer_height = 0.24
; perimeters = 2
; top_solid_layers = 4
; bottom_solid_layers = 3
; fill_density = 0.2
; perimeter_speed = 20
; infill_speed = 20
; travel_speed = 60
; nozzle_diameter = 0.5
; filament_diameter = 1.75
; extrusion_multiplier = 1
; perimeters extrusion width = 0.50mm
; infill extrusion width = 0.87mm
; solid infill extrusion width = 0.85mm
; top infill extrusion width = 0.85mm
; first layer extrusion width = 0.48mm

G21 ; set units to millimeters
M107
M104 S205 ; set temperature
G21 ; set units to millimeters
G90 ; use absolute coordinates
M83 ; use relative distances for extrusion
M140 S65; Set bed temperature
G1 Z5 F200 ; lift nozzle
G1 X2 Y50 F2000; Go to wait for warm position
M116; Wait for all temperatures
G10 P0 S205 R0 ; Set extruder temperature
T0; Select extruder
M116; Wait for all temperatures
M109 S205 ; wait for temperature to be reached
G90 ; use absolute coordinates
M83 ; use relative distances for extrusion
G1 F1800.000 E-1.00000
G1 Z0.240 F3600.000
G1 X88.542 Y90.925 F3600.000
G1 E1.00000 F1800.000
G1 X89.212 Y90.275 E0.04511 F600.000
G1 X92.112 Y87.815 E0.18376
G1 X92.832 Y87.275 E0.04349
G1 X93.622 Y86.845 E0.04346
G1 X94.372 Y86.505 E0.03979
G1 X95.272 Y86.185 E0.04616
G1 X96.202 Y85.985 E0.04597
G1 X99.972 Y85.485 E0.18377
G1 X100.872 Y85.435 E0.04356
G1 X101.772 Y85.505 E0.04362
G1 X102.582 Y85.625 E0.03957
G1 X103.502 Y85.825 E0.04550
G1 X104.372 Y86.155 E0.04496
G1 X107.822 Y87.765 E0.18397
G1 X108.562 Y88.175 E0.04088
G1 X109.252 Y88.675 E0.04118
G1 X109.562 Y88.935 E0.01955
G1 X110.202 Y89.535 E0.04239
G1 X110.722 Y90.105 E0.03728
G1 X111.172 Y90.725 E0.03702
G1 X113.202 Y93.935 E0.18353
G1 X113.632 Y94.735 E0.04389
G1 X113.952 Y95.595 E0.04434
G1 X114.182 Y96.385 E0.03976
G1 X114.372 Y97.315 E0.04587
G1 X114.432 Y98.265 E0.04600
G1 X114.392 Y102.075 E0.18412
G1 X114.322 Y103.005 E0.04507
G1 X114.112 Y103.915 E0.04513
G1 X113.872 Y104.695 E0.03944
G1 X113.542 Y105.545 E0.04406
G1 X113.102 Y106.335 E0.04370
G1 X111.022 Y109.515 E0.18362
G1 X110.462 Y110.245 E0.04446
G1 X109.812 Y110.885 E0.04408
G1 X109.182 Y111.425 E0.04010
G1 X108.432 Y111.985 E0.04523
G1 X107.602 Y112.425 E0.04540
G1 X104.132 Y113.975 E0.18365
G1 X103.262 Y114.295 E0.04479
G1 X102.352 Y114.485 E0.04492
G1 X101.532 Y114.595 E0.03998
G1 X100.612 Y114.645 E0.04452
G1 X99.682 Y114.575 E0.04507
G1 X95.922 Y113.995 E0.18384
G1 X95.012 Y113.785 E0.04513
G1 X94.142 Y113.445 E0.04514
G1 X93.402 Y113.095 E0.03956
G1 X92.612 Y112.655 E0.04370
G1 X91.882 Y112.105 E0.04417
G1 X89.032 Y109.595 E0.18352
G1 X88.382 Y108.925 E0.04511
G1 X87.832 Y108.175 E0.04494
G1 X87.392 Y107.475 E0.03995
G1 X86.962 Y106.665 E0.04431
G1 X86.642 Y105.795 E0.04479
G1 X85.602 Y102.135 E0.18386
G1 X85.432 Y101.355 E0.03858
G1 X85.362 Y100.555 E0.03881
G1 X85.352 Y100.215 E0.01644
G1 X85.372 Y99.275 E0.04543
G1 X85.462 Y98.465 E0.03938
G1 X85.642 Y97.665 E0.03962
G1 X86.742 Y94.025 E0.18375
G1 X87.072 Y93.165 E0.04451
G1 X87.522 Y92.365 E0.04435
G1 X87.972 Y91.675 E0.03981
G1 X88.498 Y90.983 E0.04201
G1 F1800.000 E-1.00000
G1 X92.258 Y90.751 F3600.000
G1 E1.00000 F1800.000
G1 X92.356 Y90.670 E0.00620 F600.000
G1 X93.270 Y89.381 E0.07635
G1 X95.121 Y88.503 E0.09898
G1 X96.923 Y87.812 E0.09327
G1 X98.443 Y88.029 E0.07420
G1 X98.556 Y88.019 E0.00551
G1 X100.230 Y87.452 E0.08540
G1 X102.071 Y87.686 E0.08966
G1 X104.008 Y88.081 E0.09552
G1 X105.232 Y89.137 E0.07810
G1 X105.347 Y89.192 E0.00618
G1 X106.882 Y89.482 E0.07548
G1 X108.373 Y90.725 E0.09383
G1 X109.827 Y92.132 E0.09778
G1 X110.293 Y93.693 E0.07870
G1 X110.359 Y93.800 E0.00609
G1 X111.520 Y94.912 E0.07766
G1 X112.099 Y96.810 E0.09590
G1 X112.534 Y98.750 E0.09610
G1 X112.087 Y100.259 E0.07604
G1 X112.083 Y100.387 E0.00619
G1 X112.459 Y101.942 E0.07731
G1 X111.940 Y103.806 E0.09351
G1 X111.243 Y105.724 E0.09859
G1 X110.045 Y106.759 E0.07650
G1 X109.974 Y106.865 E0.00619
G1 X109.456 Y108.365 E0.07668
G1 X107.908 Y109.742 E0.10012
G1 X106.390 Y110.897 E0.09217
G1 X104.893 Y111.111 E0.07307
G1 X104.789 Y111.152 E0.00541
G1 X103.331 Y112.154 E0.08549
G1 X101.997 Y112.395 E0.06552
G1 X101.254 Y112.492 E0.03620
G1 X99.457 Y112.615 E0.08703
G1 X98.060 Y111.965 E0.07445
G1 X97.932 Y111.943 E0.00628
G1 X96.363 Y112.097 E0.07619
G1 X94.561 Y111.312 E0.09498
G1 X92.791 Y110.378 E0.09671
G1 X91.912 Y109.020 E0.07816
G1 X91.819 Y108.936 E0.00608
G1 X90.384 Y108.190 E0.07815
G1 X89.285 Y106.511 E0.09695
G1 X88.335 Y104.794 E0.09486
G1 X88.340 Y103.225 E0.07582
G1 X88.308 Y103.101 E0.00619
G1 X87.506 Y101.708 E0.07764
G1 X87.483 Y99.749 E0.09467
G1 X87.611 Y97.739 E0.09733
G1 X88.467 Y96.413 E0.07630
G1 X88.506 Y96.291 E0.00618
G1 X88.582 Y94.698 E0.07704
G1 X89.591 Y93.076 E0.09232
G1 X90.812 Y91.410 E0.09980
G1 X92.192 Y90.782 E0.07326
G1 X92.577 Y91.138 F3600.000
G1 X92.676 Y91.056 E0.00620 F600.000
G1 X93.593 Y89.763 E0.07659
G1 X95.303 Y88.952 E0.09150
G1 X96.979 Y88.309 E0.08672
G1 X98.489 Y88.525 E0.07371
G1 X98.602 Y88.515 E0.00551
G1 X100.281 Y87.946 E0.08564
G1 X101.984 Y88.162 E0.08293
G1 X103.787 Y88.531 E0.08895
G1 X105.014 Y89.589 E0.07829
G1 X105.130 Y89.644 E0.00618
G1 X106.670 Y89.934 E0.07573
G1 X108.043 Y91.080 E0.08643
G1 X109.400 Y92.392 E0.09121
G1 X109.866 Y93.954 E0.07877
G1 X109.932 Y94.062 E0.00608
G1 X111.094 Y95.174 E0.07773
G1 X111.633 Y96.942 E0.08932
G1 X112.034 Y98.733 E0.08868
G1 X111.585 Y100.246 E0.07630
G1 X111.582 Y100.374 E0.00619
G1 X111.959 Y101.933 E0.07751
G1 X111.476 Y103.667 E0.08695
G1 X110.832 Y105.439 E0.09113
G1 X109.630 Y106.478 E0.07675
G1 X109.558 Y106.584 E0.00619
G1 X109.039 Y108.088 E0.07691
G1 X107.607 Y109.363 E0.09264
G1 X106.197 Y110.436 E0.08562
G1 X104.712 Y110.648 E0.07247
G1 X104.608 Y110.689 E0.00541
G1 X103.143 Y111.696 E0.08593
G1 X101.917 Y111.917 E0.06018
G1 X101.200 Y112.011 E0.03492
G1 X99.549 Y112.123 E0.07998
G1 X98.145 Y111.470 E0.07485
G1 X98.017 Y111.448 E0.00628
G1 X96.440 Y111.603 E0.07655
G1 X94.779 Y110.879 E0.08757
G1 X93.129 Y110.009 E0.09014
G1 X92.249 Y108.650 E0.07823
G1 X92.156 Y108.565 E0.00608
G1 X90.720 Y107.818 E0.07821
G1 X89.695 Y106.254 E0.09037
G1 X88.820 Y104.670 E0.08745
G1 X88.825 Y103.096 E0.07607
G1 X88.792 Y102.972 E0.00619
G1 X87.989 Y101.576 E0.07783
G1 X87.967 Y99.753 E0.08810
G1 X88.086 Y97.897 E0.08989
G1 X88.945 Y96.566 E0.07655
G1 X88.984 Y96.444 E0.00618
G1 X89.060 Y94.847 E0.07725
G1 X89.997 Y93.340 E0.08577
G1 X91.127 Y91.799 E0.09233
G1 X92.511 Y91.168 E0.07351
G1 X92.897 Y91.525 F3600.000
G1 X92.996 Y91.443 E0.00620 F600.000
G1 X93.915 Y90.146 E0.07682
G1 X95.486 Y89.400 E0.08402
G1 X97.035 Y88.806 E0.08017
G1 X98.535 Y89.021 E0.07321
G1 X98.648 Y89.010 E0.00551
G1 X100.332 Y88.440 E0.08588
G1 X101.896 Y88.639 E0.07620
G1 X103.567 Y88.980 E0.08239
G1 X104.797 Y90.040 E0.07848
G1 X104.912 Y90.096 E0.00618
G1 X106.457 Y90.387 E0.07597
G1 X107.713 Y91.434 E0.07903
G1 X108.972 Y92.652 E0.08463
G1 X109.439 Y94.216 E0.07884
G1 X109.504 Y94.323 E0.00609
G1 X110.668 Y95.436 E0.07780
G1 X111.167 Y97.074 E0.08274
G1 X111.534 Y98.715 E0.08125
G1 X111.084 Y100.234 E0.07655
G1 X111.081 Y100.362 E0.00619
G1 X111.459 Y101.925 E0.07772
G1 X111.012 Y103.527 E0.08039
G1 X110.421 Y105.155 E0.08367
G1 X109.215 Y106.196 E0.07699
G1 X109.143 Y106.302 E0.00619
G1 X108.622 Y107.811 E0.07713
G1 X107.306 Y108.983 E0.08516
G1 X106.004 Y109.974 E0.07907
G1 X104.445 Y110.197 E0.07611
G1 X102.954 Y111.238 E0.08786
G1 X101.837 Y111.440 E0.05484
G1 X101.147 Y111.529 E0.03364
G1 X99.641 Y111.632 E0.07294
G1 X98.229 Y110.975 E0.07525
G1 X98.101 Y110.953 E0.00628
G1 X96.517 Y111.109 E0.07690
G1 X94.996 Y110.446 E0.08017
G1 X93.467 Y109.639 E0.08357
G1 X92.586 Y108.279 E0.07831
G1 X92.493 Y108.194 E0.00608
G1 X91.056 Y107.447 E0.07828
G1 X90.106 Y105.996 E0.08380
G1 X89.304 Y104.547 E0.08004
G1 X89.310 Y102.967 E0.07633
G1 X89.277 Y102.844 E0.00619
G1 X88.472 Y101.444 E0.07803
G1 X88.451 Y99.757 E0.08153
G1 X88.561 Y98.054 E0.08245
G1 X89.422 Y96.719 E0.07680
G1 X89.462 Y96.597 E0.00618
G1 X89.538 Y94.996 E0.07746
G1 X90.403 Y93.604 E0.07922
G1 X91.442 Y92.188 E0.08486
G1 X92.831 Y91.555 E0.07375
G1 X93.216 Y91.911 F3600.000
G1 X93.315 Y91.829 E0.00620 F600.000
G1 X94.238 Y90.529 E0.07706
G1 X95.668 Y89.849 E0.07654
G1 X97.091 Y89.303 E0.07362
G1 X98.732 Y89.538 E0.08010
G1 X98.947 Y89.468 E0.01093
G1 X99.020 Y89.396 E0.00498
G1 X100.382 Y88.934 E0.06949
G1 X101.808 Y89.115 E0.06947
G1 X103.346 Y89.429 E0.07583
G1 X104.579 Y90.492 E0.07867
G1 X104.694 Y90.548 E0.00618
G1 X106.244 Y90.840 E0.07622
G1 X107.383 Y91.789 E0.07163
G1 X108.544 Y92.912 E0.07806
G1 X109.011 Y94.477 E0.07891
G1 X109.077 Y94.584 E0.00609
G1 X110.241 Y95.699 E0.07787
G1 X110.701 Y97.206 E0.07616
G1 X111.035 Y98.697 E0.07383
G1 X110.583 Y100.221 E0.07680
G1 X110.579 Y100.349 E0.00619
G1 X110.958 Y101.916 E0.07792
G1 X110.548 Y103.388 E0.07384
G1 X110.009 Y104.870 E0.07621
G1 X108.799 Y105.915 E0.07724
G1 X108.728 Y106.021 E0.00619
G1 X108.206 Y107.535 E0.07736
G1 X107.102 Y108.523 E0.07158
G1 X105.811 Y109.512 E0.07862
G1 X104.149 Y109.750 E0.08110
G1 X103.968 Y109.870 E0.01051
G1 X103.881 Y110.013 E0.00808
G1 X102.766 Y110.780 E0.06542
G1 X101.758 Y110.962 E0.04950
G1 X101.093 Y111.048 E0.03236
G1 X99.733 Y111.141 E0.06590
G1 X98.314 Y110.480 E0.07565
G1 X98.186 Y110.458 E0.00628
G1 X96.594 Y110.614 E0.07726
G1 X95.214 Y110.013 E0.07276
G1 X93.804 Y109.270 E0.07700
G1 X92.923 Y107.908 E0.07838
G1 X92.830 Y107.824 E0.00608
G1 X91.391 Y107.076 E0.07835
G1 X90.516 Y105.739 E0.07722
G1 X89.789 Y104.424 E0.07263
G1 X89.795 Y102.839 E0.07658
G1 X89.762 Y102.715 E0.00619
G1 X88.954 Y101.312 E0.07822
G1 X88.936 Y99.761 E0.07496
G1 X89.035 Y98.212 E0.07500
G1 X89.900 Y96.872 E0.07705
G1 X89.939 Y96.750 E0.00618
G1 X90.016 Y95.145 E0.07768
G1 X90.809 Y93.867 E0.07267
G1 X91.757 Y92.576 E0.07739
G1 X93.150 Y91.941 E0.07399
G1 X93.446 Y92.402 F3600.000
G1 X93.748 Y92.151 E0.01899 F600.000
G1 X93.761 Y92.039 E0.00549
G1 X94.560 Y90.911 E0.06678
G1 X95.851 Y90.298 E0.06907
G1 X97.147 Y89.801 E0.06707
G1 X98.517 Y89.997 E0.06689
G1 X98.655 Y90.102 E0.00837
G1 X99.015 Y90.079 E0.01743
G1 X99.280 Y89.819 E0.01796
G1 X100.433 Y89.429 E0.05880
G1 X101.721 Y89.591 E0.06274
G1 X103.125 Y89.878 E0.06927
G1 X104.177 Y90.785 E0.06709
G1 X104.220 Y90.902 E0.00603
G1 X104.573 Y91.073 E0.01897
G1 X104.681 Y91.038 E0.00547
G1 X106.032 Y91.293 E0.06645
G1 X107.053 Y92.143 E0.06423
G1 X108.116 Y93.172 E0.07149
G1 X108.515 Y94.507 E0.06732
G1 X108.487 Y94.633 E0.00622
G1 X108.691 Y94.968 E0.01897
G1 X108.809 Y94.998 E0.00585
G1 X109.815 Y95.961 E0.06731
G1 X110.235 Y97.338 E0.06958
G1 X110.535 Y98.679 E0.06640
G1 X110.143 Y99.998 E0.06648
G1 X110.060 Y100.080 E0.00562
G1 X110.051 Y100.472 E0.01897
G1 X110.132 Y100.560 E0.00575
G1 X110.458 Y101.907 E0.06701
G1 X110.084 Y103.248 E0.06728
G1 X109.598 Y104.586 E0.06876
G1 X108.554 Y105.487 E0.06662
G1 X108.439 Y105.511 E0.00568
G1 X108.219 Y105.836 E0.01897
G1 X108.240 Y105.950 E0.00561
G1 X107.789 Y107.258 E0.06683
G1 X106.704 Y108.224 E0.07019
G1 X105.618 Y109.051 E0.06597
G1 X104.248 Y109.247 E0.06688
G1 X104.081 Y109.183 E0.00860
G1 X103.749 Y109.297 E0.01698
G1 X103.521 Y109.673 E0.02125
G1 X102.577 Y110.322 E0.05536
G1 X101.678 Y110.484 E0.04415
G1 X101.040 Y110.567 E0.03108
G1 X99.825 Y110.649 E0.05885
G1 X98.588 Y110.073 E0.06595
G1 X98.523 Y109.985 E0.00529
G1 X98.136 Y109.920 E0.01897
G1 X98.040 Y109.986 E0.00562
G1 X96.672 Y110.120 E0.06644
G1 X95.431 Y109.581 E0.06535
G1 X94.142 Y108.901 E0.07043
G1 X93.386 Y107.732 E0.06725
G1 X93.378 Y107.607 E0.00607
G1 X93.088 Y107.343 E0.01896
G1 X92.963 Y107.347 E0.00601
G1 X91.727 Y106.705 E0.06733
G1 X90.926 Y105.482 E0.07064
G1 X90.274 Y104.300 E0.06522
G1 X90.279 Y102.925 E0.06646
G1 X90.334 Y102.825 E0.00555
G1 X90.233 Y102.445 E0.01898
G1 X90.130 Y102.384 E0.00580
G1 X89.437 Y101.180 E0.06712
G1 X89.420 Y99.765 E0.06840
G1 X89.510 Y98.369 E0.06756
G1 X90.257 Y97.213 E0.06651
G1 X90.361 Y97.157 E0.00574
G1 X90.481 Y96.783 E0.01896
G1 X90.427 Y96.676 E0.00577
G1 X90.493 Y95.293 E0.06688
G1 X91.216 Y94.131 E0.06612
G1 X92.072 Y92.965 E0.06992
G1 X93.328 Y92.392 E0.06671
G1 X93.373 Y92.396 E0.00218
G1 X93.876 Y92.922 F3600.000
G1 X94.179 Y92.672 E0.01899 F600.000
G1 X94.228 Y92.216 E0.02214
G1 X94.882 Y91.294 E0.05464
G1 X95.953 Y90.781 E0.05737
G1 X97.203 Y90.298 E0.06473
G1 X98.324 Y90.458 E0.05473
G1 X98.695 Y90.741 E0.02253
G1 X99.055 Y90.718 E0.01743
G1 X99.540 Y90.242 E0.03285
G1 X100.483 Y89.923 E0.04811
G1 X101.633 Y90.068 E0.05601
G1 X102.905 Y90.328 E0.06271
G1 X103.765 Y91.069 E0.05489
G1 X103.926 Y91.509 E0.02263
G1 X104.279 Y91.680 E0.01897
G1 X104.714 Y91.537 E0.02213
G1 X105.819 Y91.745 E0.05437
G1 X106.723 Y92.498 E0.05683
G1 X107.688 Y93.432 E0.06491
G1 X108.015 Y94.524 E0.05508
G1 X107.911 Y94.985 E0.02280
G1 X108.116 Y95.320 E0.01897
G1 X108.565 Y95.435 E0.02242
G1 X109.389 Y96.223 E0.05507
G1 X109.769 Y97.470 E0.06300
G1 X110.035 Y98.661 E0.05898
G1 X109.715 Y99.741 E0.05439
G1 X109.386 Y100.064 E0.02228
G1 X109.377 Y100.456 E0.01897
G1 X109.691 Y100.796 E0.02236
G1 X109.958 Y101.899 E0.05483
G1 X109.620 Y103.109 E0.06072
G1 X109.186 Y104.301 E0.06130
G1 X108.333 Y105.038 E0.05451
G1 X107.880 Y105.133 E0.02233
G1 X107.660 Y105.458 E0.01897
G1 X107.741 Y105.911 E0.02224
G1 X107.372 Y106.981 E0.05468
G1 X106.403 Y107.845 E0.06271
G1 X105.425 Y108.589 E0.05942
G1 X104.304 Y108.750 E0.05472
G1 X103.877 Y108.586 E0.02207
G1 X103.545 Y108.700 E0.01698
G1 X103.161 Y109.333 E0.03577
G1 X102.388 Y109.864 E0.04529
G1 X101.598 Y110.006 E0.03881
G1 X100.986 Y110.085 E0.02980
G1 X99.917 Y110.158 E0.05181
G1 X98.904 Y109.687 E0.05396
G1 X98.635 Y109.320 E0.02199
G1 X98.248 Y109.255 E0.01897
G1 X97.868 Y109.516 E0.02228
G1 X96.749 Y109.626 E0.05436
G1 X95.649 Y109.148 E0.05794
G1 X94.480 Y108.531 E0.06386
G1 X93.861 Y107.575 E0.05502
G1 X93.832 Y107.108 E0.02264
G1 X93.541 Y106.844 E0.01896
G1 X93.074 Y106.859 E0.02258
G1 X92.063 Y106.333 E0.05508
G1 X91.337 Y105.224 E0.06406
G1 X90.758 Y104.177 E0.05781
G1 X90.762 Y103.052 E0.05438
G1 X90.986 Y102.650 E0.02222
G1 X90.885 Y102.271 E0.01898
G1 X90.487 Y102.033 E0.02241
G1 X89.920 Y101.048 E0.05492
G1 X89.904 Y99.768 E0.06183
G1 X89.985 Y98.527 E0.06012
G1 X90.596 Y97.581 E0.05442
G1 X91.004 Y97.362 E0.02238
G1 X91.123 Y96.988 E0.01896
G1 X90.917 Y96.573 E0.02238
G1 X90.971 Y95.442 E0.05472
G1 X91.671 Y94.323 E0.06379
G1 X92.387 Y93.354 E0.05823
G1 X93.415 Y92.885 E0.05458
G1 X93.803 Y92.916 E0.01884
G1 X94.306 Y93.442 F3600.000
G1 X94.609 Y93.192 E0.01899 F600.000
G1 X94.696 Y92.394 E0.03880
G1 X95.205 Y91.676 E0.04250
G1 X96.216 Y91.195 E0.05411
G1 X97.259 Y90.795 E0.05397
G1 X98.131 Y90.920 E0.04257
G1 X98.774 Y91.410 E0.03908
G1 X99.164 Y91.363 E0.01896
G1 X99.489 Y90.970 E0.02464
G1 X99.800 Y90.665 E0.02105
G1 X100.534 Y90.417 E0.03742
G1 X101.546 Y90.544 E0.04928
G1 X102.684 Y90.777 E0.05615
G1 X103.353 Y91.354 E0.04270
G1 X103.631 Y92.116 E0.03923
G1 X103.985 Y92.288 E0.01897
G1 X104.747 Y92.036 E0.03879
G1 X105.607 Y92.198 E0.04228
G1 X106.393 Y92.852 E0.04943
G1 X107.261 Y93.692 E0.05834
G1 X107.514 Y94.542 E0.04284
G1 X107.335 Y95.336 E0.03938
G1 X107.540 Y95.671 E0.01897
G1 X108.322 Y95.873 E0.03900
G1 X108.962 Y96.486 E0.04283
G1 X109.303 Y97.602 E0.05642
G1 X109.535 Y98.644 E0.05155
G1 X109.286 Y99.483 E0.04230
G1 X108.711 Y100.048 E0.03894
G1 X108.702 Y100.440 E0.01897
G1 X109.250 Y101.032 E0.03897
G1 X109.457 Y101.890 E0.04265
G1 X109.156 Y102.970 E0.05416
G1 X108.775 Y104.017 E0.05384
G1 X108.111 Y104.590 E0.04239
G1 X107.321 Y104.755 E0.03898
G1 X107.101 Y105.080 E0.01897
G1 X107.242 Y105.872 E0.03887
G1 X106.955 Y106.704 E0.04253
G1 X106.102 Y107.465 E0.05523
G1 X105.231 Y108.128 E0.05288
G1 X104.359 Y108.252 E0.04256
G1 X103.611 Y107.965 E0.03874
G1 X103.248 Y108.123 E0.01912
G1 X103.050 Y108.581 E0.02413
G1 X102.801 Y108.993 E0.02325
G1 X102.200 Y109.406 E0.03523
G1 X101.518 Y109.529 E0.03347
G1 X100.933 Y109.604 E0.02852
G1 X100.009 Y109.666 E0.04477
G1 X99.221 Y109.300 E0.04197
G1 X98.747 Y108.655 E0.03869
