; generated by Slic3r 1.0.0RC3 on 2014-03-16 at 18:14:17

; layer_height = 0.24
; perimeters = 2
; top_solid_layers = 4
; bottom_solid_layers = 3
; fill_density = 0.4
; perimeter_speed = 20
; infill_speed = 20
; travel_speed = 60
; nozzle_diameter = 0.5
; filament_diameter = 1.75
; extrusion_multiplier = 1
; perimeters extrusion width = 0.50mm
; infill extrusion width = 0.87mm
; solid infill extrusion width = 0.85mm
; top infill extrusion width = 0.85mm
; first layer extrusion width = 0.48mm

G21 ; set units to millimeters
M107
M104 S205 ; set temperature
G21 ; set units to millimeters
G90 ; use absolute coordinates
M83 ; use relative distances for extrusion
M140 S65; Set bed temperature
G1 Z5 F200 ; lift nozzle
G1 X2 Y50 F2000; Go to wait for warm position
M116; Wait for all temperatures
G10 P0 S205 R0 ; Set extruder temperature
T0; Select extruder
M116; Wait for all temperatures
M109 S205 ; wait for temperature to be reached
G90 ; use absolute coordinates
M83 ; use relative distances for extrusion
G1 F1800.000 E-1.00000
G1 Z0.240 F3600.000
G1 X99.399 Y70.160 F3600.000
G1 E1.00000 F1800.000
G1 X100.119 Y70.150 E0.03480 F600.000
G1 X101.129 Y70.180 E0.04883
G1 X104.169 Y70.450 E0.14748
G1 X104.829 Y70.540 E0.03219
G1 X106.069 Y70.780 E0.06103
G1 X106.579 Y70.900 E0.02532
G1 X109.519 Y71.720 E0.14749
G1 X110.069 Y71.900 E0.02796
G1 X110.889 Y72.210 E0.04236
G1 X111.819 Y72.610 E0.04892
G1 X114.549 Y73.950 E0.14696
G1 X115.109 Y74.260 E0.03093
G1 X116.189 Y74.930 E0.06142
G1 X116.659 Y75.250 E0.02748
G1 X119.099 Y77.080 E0.14738
G1 X119.559 Y77.460 E0.02883
G1 X120.499 Y78.310 E0.06124
G1 X120.939 Y78.750 E0.03007
G1 X122.989 Y81.000 E0.14709
G1 X123.339 Y81.410 E0.02605
G1 X124.109 Y82.410 E0.06099
G1 X124.479 Y82.950 E0.03163
G1 X126.089 Y85.540 E0.14737
G1 X126.369 Y86.040 E0.02769
G1 X126.939 Y87.170 E0.06116
G1 X127.189 Y87.730 E0.02963
G1 X128.299 Y90.570 E0.14735
G1 X128.489 Y91.140 E0.02903
G1 X128.839 Y92.360 E0.06133
G1 X128.979 Y92.940 E0.02883
G1 X129.549 Y95.930 E0.14709
G1 X129.639 Y96.530 E0.02932
G1 X129.759 Y97.790 E0.06116
G1 X129.779 Y98.380 E0.02853
G1 X129.789 Y101.430 E0.14739
G1 X129.769 Y102.060 E0.03046
G1 X129.649 Y103.320 E0.06116
G1 X129.569 Y103.880 E0.02734
G1 X129.019 Y106.880 E0.14738
G1 X128.889 Y107.450 E0.02825
G1 X128.549 Y108.670 E0.06120
G1 X128.349 Y109.250 E0.02965
G1 X127.259 Y112.090 E0.14700
G1 X126.999 Y112.700 E0.03204
G1 X126.459 Y113.790 E0.05878
G1 X126.169 Y114.320 E0.02919
G1 X124.569 Y116.910 E0.14711
G1 X124.249 Y117.370 E0.02708
G1 X123.489 Y118.390 E0.06147
G1 X123.079 Y118.890 E0.03125
G1 X120.829 Y121.360 E0.16145
G1 X120.579 Y121.610 E0.01708
G1 X119.639 Y122.460 E0.06124
G1 X119.219 Y122.800 E0.02611
G1 X116.789 Y124.640 E0.14729
G1 X116.359 Y124.940 E0.02534
G1 X115.289 Y125.620 E0.06126
G1 X114.699 Y125.950 E0.03267
G1 X111.569 Y127.500 E0.16878
G1 X110.269 Y128.020 E0.06766
G1 X109.699 Y128.210 E0.02903
G1 X106.769 Y129.050 E0.14729
G1 X106.149 Y129.200 E0.03082
G1 X104.899 Y129.430 E0.06142
G1 X104.349 Y129.500 E0.02679
G1 X101.319 Y129.790 E0.14709
G1 X100.789 Y129.820 E0.02565
G1 X99.429 Y129.830 E0.06572
G1 X98.829 Y129.810 E0.02901
G1 X95.799 Y129.530 E0.14704
G1 X95.229 Y129.450 E0.02781
G1 X93.979 Y129.220 E0.06142
G1 X93.399 Y129.080 E0.02883
G1 X90.469 Y128.260 E0.14703
G1 X89.929 Y128.090 E0.02736
G1 X89.109 Y127.780 E0.04236
G1 X88.589 Y127.570 E0.02710
G1 X88.159 Y127.370 E0.02292
G1 X85.429 Y126.020 E0.14717
G1 X84.919 Y125.740 E0.02811
G1 X83.839 Y125.080 E0.06116
G1 X83.319 Y124.730 E0.03029
G1 X80.889 Y122.900 E0.14700
G1 X80.489 Y122.570 E0.02506
G1 X79.409 Y121.610 E0.06983
G1 X77.009 Y119.000 E0.17134
G1 X76.649 Y118.580 E0.02673
G1 X75.879 Y117.580 E0.06099
G1 X75.509 Y117.040 E0.03163
G1 X73.899 Y114.450 E0.14737
G1 X73.619 Y113.950 E0.02769
G1 X73.049 Y112.820 E0.06116
G1 X72.799 Y112.260 E0.02963
G1 X71.689 Y109.420 E0.14735
G1 X71.499 Y108.850 E0.02903
G1 X71.149 Y107.630 E0.06133
G1 X71.009 Y107.050 E0.02883
G1 X70.439 Y104.060 E0.14709
G1 X70.349 Y103.460 E0.02932
G1 X70.229 Y102.200 E0.06116
G1 X70.209 Y101.610 E0.02853
G1 X70.199 Y98.560 E0.14739
G1 X70.219 Y97.930 E0.03046
G1 X70.339 Y96.670 E0.06116
G1 X70.419 Y96.110 E0.02734
G1 X70.969 Y93.110 E0.14738
G1 X71.099 Y92.540 E0.02825
G1 X71.439 Y91.320 E0.06120
G1 X71.639 Y90.740 E0.02965
G1 X72.729 Y87.900 E0.14700
G1 X72.979 Y87.320 E0.03052
G1 X73.549 Y86.180 E0.06159
G1 X73.819 Y85.690 E0.02703
G1 X75.409 Y83.100 E0.14686
G1 X75.739 Y82.620 E0.02815
G1 X76.499 Y81.600 E0.06147
G1 X76.909 Y81.100 E0.03125
G1 X78.959 Y78.850 E0.14709
G1 X79.349 Y78.460 E0.02665
G1 X80.279 Y77.600 E0.06121
G1 X80.749 Y77.200 E0.02982
G1 X83.179 Y75.350 E0.14758
G1 X83.669 Y75.010 E0.02882
G1 X84.739 Y74.340 E0.06101
G1 X85.289 Y74.040 E0.03027
G1 X88.019 Y72.680 E0.14738
G1 X88.509 Y72.460 E0.02596
G1 X89.689 Y71.990 E0.06138
G1 X90.299 Y71.780 E0.03117
G1 X93.229 Y70.940 E0.14729
G1 X93.839 Y70.790 E0.03036
G1 X95.079 Y70.560 E0.06094
G1 X95.639 Y70.490 E0.02727
G1 X98.679 Y70.200 E0.14757
G1 X99.326 Y70.160 E0.03134
G1 F1800.000 E-1.00000
G1 X97.349 Y72.532 F3600.000
G1 E1.00000 F1800.000
G1 X97.634 Y72.352 E0.01627 F600.000
G1 X99.216 Y72.292 E0.07653
G1 X100.036 Y72.279 E0.03964
G1 X101.911 Y72.309 E0.09058
G1 X102.224 Y72.498 E0.01769
G1 X102.448 Y72.517 E0.01085
G1 X102.812 Y72.376 E0.01886
G1 X105.126 Y72.758 E0.11334
G1 X106.977 Y73.139 E0.09131
G1 X107.241 Y73.375 E0.01712
G1 X107.458 Y73.435 E0.01086
G1 X107.847 Y73.363 E0.01912
G1 X110.135 Y74.199 E0.11771
G1 X111.805 Y74.888 E0.08734
G1 X112.007 Y75.151 E0.01599
G1 X112.211 Y75.251 E0.01099
G1 X112.550 Y75.249 E0.01638
G1 X114.172 Y76.176 E0.09027
G1 X116.180 Y77.434 E0.11451
G1 X116.361 Y77.783 E0.01898
G1 X116.541 Y77.916 E0.01085
G1 X116.899 Y77.982 E0.01755
G1 X118.380 Y79.249 E0.09422
G1 X120.055 Y80.798 E0.11022
G1 X120.166 Y81.169 E0.01872
G1 X120.319 Y81.333 E0.01084
G1 X120.669 Y81.468 E0.01812
G1 X121.938 Y83.055 E0.09818
G1 X123.242 Y84.813 E0.10577
G1 X123.284 Y85.197 E0.01864
G1 X123.403 Y85.386 E0.01083
G1 X123.732 Y85.589 E0.01866
G1 X124.721 Y87.457 E0.10212
G1 X125.639 Y89.347 E0.10155
G1 X125.609 Y89.729 E0.01853
G1 X125.691 Y89.938 E0.01084
G1 X125.975 Y90.196 E0.01856
G1 X126.606 Y92.218 E0.10235
G1 X127.160 Y94.239 E0.10122
G1 X127.060 Y94.611 E0.01864
G1 X127.103 Y94.831 E0.01083
G1 X127.335 Y95.139 E0.01864
G1 X127.601 Y97.419 E0.11095
G1 X127.752 Y99.341 E0.09312
G1 X127.590 Y99.677 E0.01804
G1 X127.591 Y99.901 E0.01084
G1 X127.764 Y100.250 E0.01880
G1 X127.604 Y102.543 E0.11111
G1 X127.394 Y104.463 E0.09332
G1 X127.180 Y104.753 E0.01742
G1 X127.139 Y104.974 E0.01086
G1 X127.247 Y105.352 E0.01899
G1 X126.640 Y107.664 E0.11552
G1 X126.098 Y109.432 E0.08932
G1 X125.850 Y109.662 E0.01634
G1 X125.770 Y109.874 E0.01098
G1 X125.803 Y110.208 E0.01621
G1 X125.051 Y111.870 E0.08814
G1 X123.965 Y114.026 E0.11667
G1 X123.633 Y114.240 E0.01906
G1 X123.517 Y114.432 E0.01086
G1 X123.486 Y114.787 E0.01722
G1 X122.386 Y116.349 E0.09230
G1 X120.974 Y118.194 E0.11231
G1 X120.612 Y118.341 E0.01886
G1 X120.463 Y118.509 E0.01085
G1 X120.363 Y118.864 E0.01784
G1 X118.932 Y120.249 E0.09623
G1 X117.267 Y121.742 E0.10805
G1 X116.889 Y121.819 E0.01862
G1 X116.712 Y121.955 E0.01084
G1 X116.542 Y122.297 E0.01844
G1 X114.809 Y123.433 E0.10013
G1 X112.974 Y124.546 E0.10371
G1 X112.590 Y124.552 E0.01855
G1 X112.390 Y124.653 E0.01084
G1 X112.159 Y124.960 E0.01856
G1 X110.244 Y125.758 E0.10024
G1 X108.242 Y126.513 E0.10341
G1 X107.863 Y126.448 E0.01856
G1 X107.648 Y126.511 E0.01084
G1 X107.364 Y126.769 E0.01856
G1 X105.248 Y127.219 E0.10455
G1 X103.224 Y127.574 E0.09930
G1 X102.868 Y127.442 E0.01832
G1 X102.645 Y127.464 E0.01084
G1 X102.316 Y127.668 E0.01869
G1 X100.062 Y127.721 E0.10894
G1 X98.089 Y127.691 E0.09536
G1 X97.776 Y127.502 E0.01769
G1 X97.552 Y127.483 E0.01085
G1 X97.188 Y127.624 E0.01886
G1 X94.874 Y127.242 E0.11334
G1 X93.023 Y126.861 E0.09131
G1 X92.759 Y126.625 E0.01712
G1 X92.542 Y126.565 E0.01086
G1 X92.153 Y126.637 E0.01912
G1 X89.865 Y125.801 E0.11771
G1 X88.195 Y125.112 E0.08734
G1 X87.993 Y124.849 E0.01599
G1 X87.789 Y124.749 E0.01099
G1 X87.450 Y124.751 E0.01638
G1 X85.828 Y123.824 E0.09027
G1 X83.820 Y122.566 E0.11451
G1 X83.635 Y122.208 E0.01945
G1 X83.456 Y122.076 E0.01074
G1 X83.042 Y121.996 E0.02039
G1 X81.085 Y120.265 E0.12626
G1 X79.941 Y119.159 E0.07690
G1 X79.840 Y118.832 E0.01654
G1 X79.688 Y118.669 E0.01076
G1 X79.331 Y118.532 E0.01849
G1 X78.062 Y116.945 E0.09818
G1 X76.758 Y115.187 E0.10577
G1 X76.715 Y114.795 E0.01906
G1 X76.598 Y114.606 E0.01073
G1 X76.226 Y114.372 E0.02124
G1 X74.957 Y111.886 E0.13488
G1 X74.352 Y110.553 E0.07074
G1 X74.379 Y110.264 E0.01403
G1 X74.297 Y110.051 E0.01101
G1 X74.025 Y109.803 E0.01779
G1 X73.394 Y107.782 E0.10235
G1 X72.840 Y105.761 E0.10122
G1 X72.940 Y105.389 E0.01864
G1 X72.897 Y105.169 E0.01083
G1 X72.665 Y104.861 E0.01864
G1 X72.399 Y102.581 E0.11095
G1 X72.248 Y100.659 E0.09312
G1 X72.410 Y100.323 E0.01804
G1 X72.409 Y100.099 E0.01084
G1 X72.236 Y99.750 E0.01880
G1 X72.396 Y97.457 E0.11111
G1 X72.606 Y95.537 E0.09332
G1 X72.820 Y95.247 E0.01742
G1 X72.861 Y95.026 E0.01086
G1 X72.753 Y94.648 E0.01899
G1 X73.360 Y92.336 E0.11552
G1 X73.902 Y90.568 E0.08932
G1 X74.150 Y90.338 E0.01634
G1 X74.230 Y90.126 E0.01098
G1 X74.197 Y89.792 E0.01621
G1 X74.949 Y88.130 E0.08814
G1 X76.035 Y85.974 E0.11667
G1 X76.367 Y85.760 E0.01906
G1 X76.483 Y85.568 E0.01086
G1 X76.514 Y85.213 E0.01722
G1 X77.614 Y83.651 E0.09230
G1 X79.026 Y81.806 E0.11231
G1 X79.388 Y81.659 E0.01886
G1 X79.537 Y81.491 E0.01085
G1 X79.637 Y81.136 E0.01784
G1 X81.068 Y79.751 E0.09623
G1 X82.733 Y78.258 E0.10805
G1 X83.111 Y78.181 E0.01862
G1 X83.288 Y78.045 E0.01084
G1 X83.458 Y77.703 E0.01844
G1 X85.191 Y76.567 E0.10013
G1 X87.026 Y75.454 E0.10371
G1 X87.393 Y75.449 E0.01774
G1 X87.596 Y75.344 E0.01102
G1 X87.765 Y75.112 E0.01386
G1 X89.078 Y74.522 E0.06954
G1 X91.700 Y73.488 E0.13623
G1 X92.133 Y73.559 E0.02116
G1 X92.346 Y73.495 E0.01074
G1 X92.636 Y73.231 E0.01899
G1 X94.752 Y72.781 E0.10455
G1 X96.776 Y72.426 E0.09930
G1 X97.124 Y72.555 E0.01791
G1 X97.276 Y72.539 E0.00742
G1 X97.404 Y73.069 F3600.000
G1 X97.782 Y72.831 E0.02157 F600.000
G1 X99.968 Y72.764 E0.10569
G1 X101.772 Y72.791 E0.08721
G1 X102.177 Y73.035 E0.02285
G1 X102.401 Y73.055 E0.01085
G1 X102.864 Y72.876 E0.02396
G1 X105.043 Y73.235 E0.10672
G1 X106.751 Y73.587 E0.08430
G1 X107.096 Y73.894 E0.02231
G1 X107.312 Y73.955 E0.01086
G1 X107.805 Y73.864 E0.02421
G1 X109.964 Y74.652 E0.11107
G1 X111.500 Y75.286 E0.08032
G1 X111.769 Y75.637 E0.02136
G1 X111.974 Y75.737 E0.01099
G1 X112.423 Y75.734 E0.02172
G1 X113.919 Y76.589 E0.08325
G1 X115.811 Y77.775 E0.10789
G1 X116.040 Y78.217 E0.02407
G1 X116.221 Y78.350 E0.01085
G1 X116.683 Y78.435 E0.02272
G1 X118.055 Y79.608 E0.08722
G1 X119.629 Y81.064 E0.10362
G1 X119.771 Y81.536 E0.02381
G1 X119.924 Y81.700 E0.01084
G1 X120.373 Y81.873 E0.02325
G1 X121.552 Y83.347 E0.09120
G1 X122.775 Y84.996 E0.09920
G1 X122.828 Y85.484 E0.02373
G1 X122.947 Y85.674 E0.01083
G1 X123.365 Y85.932 E0.02376
G1 X124.287 Y87.672 E0.09515
G1 X125.146 Y89.440 E0.09498
G1 X125.108 Y89.928 E0.02362
G1 X125.190 Y90.136 E0.01084
G1 X125.552 Y90.466 E0.02367
G1 X126.143 Y92.359 E0.09580
G1 X126.658 Y94.240 E0.09425
G1 X126.531 Y94.714 E0.02373
G1 X126.574 Y94.934 E0.01083
G1 X126.870 Y95.326 E0.02373
G1 X127.118 Y97.462 E0.10393
G1 X127.259 Y99.248 E0.08658
G1 X127.051 Y99.680 E0.02317
G1 X127.052 Y99.904 E0.01084
G1 X127.272 Y100.347 E0.02389
G1 X127.121 Y102.504 E0.10450
G1 X126.927 Y104.280 E0.08632
G1 X126.649 Y104.656 E0.02259
G1 X126.609 Y104.877 E0.01086
G1 X126.745 Y105.357 E0.02409
G1 X126.173 Y107.537 E0.10889
G1 X125.674 Y109.165 E0.08231
G1 X125.345 Y109.470 E0.02168
G1 X125.264 Y109.683 E0.01098
G1 X125.309 Y110.127 E0.02156
G1 X124.616 Y111.656 E0.08113
G1 X123.592 Y113.690 E0.11004
G1 X123.171 Y113.961 E0.02416
G1 X123.055 Y114.153 E0.01086
G1 X123.015 Y114.615 E0.02241
G1 X121.999 Y116.058 E0.08529
G1 X120.669 Y117.795 E0.10571
G1 X120.210 Y117.982 E0.02396
G1 X120.061 Y118.149 E0.01085
G1 X119.932 Y118.607 E0.02299
G1 X118.605 Y119.892 E0.08924
G1 X117.042 Y121.294 E0.10146
G1 X116.561 Y121.391 E0.02371
G1 X116.383 Y121.528 E0.01084
G1 X116.167 Y121.964 E0.02355
G1 X114.554 Y123.022 E0.09316
G1 X112.835 Y124.064 E0.09714
G1 X112.346 Y124.071 E0.02364
G1 X112.146 Y124.172 E0.01084
G1 X111.851 Y124.563 E0.02367
G1 X110.062 Y125.310 E0.09369
G1 X108.194 Y126.013 E0.09643
G1 X107.712 Y125.930 E0.02366
G1 X107.497 Y125.993 E0.01084
G1 X107.135 Y126.323 E0.02366
G1 X105.151 Y126.745 E0.09799
G1 X103.270 Y127.075 E0.09232
G1 X102.815 Y126.906 E0.02344
G1 X102.592 Y126.928 E0.01084
G1 X102.173 Y127.187 E0.02378
G1 X100.056 Y127.236 E0.10235
G1 X98.228 Y127.209 E0.08836
G1 X97.823 Y126.965 E0.02285
G1 X97.599 Y126.945 E0.01085
G1 X97.136 Y127.124 E0.02396
G1 X94.957 Y126.765 E0.10672
G1 X93.249 Y126.413 E0.08430
G1 X92.904 Y126.106 E0.02231
G1 X92.688 Y126.045 E0.01086
G1 X92.195 Y126.136 E0.02421
G1 X90.036 Y125.348 E0.11107
G1 X88.500 Y124.714 E0.08032
G1 X88.231 Y124.363 E0.02136
G1 X88.026 Y124.263 E0.01099
G1 X87.577 Y124.266 E0.02172
G1 X86.081 Y123.411 E0.08325
G1 X84.189 Y122.225 E0.10789
G1 X83.956 Y121.777 E0.02441
G1 X83.778 Y121.644 E0.01074
G1 X83.264 Y121.545 E0.02532
G1 X81.410 Y119.906 E0.11958
G1 X80.367 Y118.897 E0.07011
G1 X80.233 Y118.464 E0.02190
G1 X80.081 Y118.302 E0.01076
G1 X79.627 Y118.127 E0.02352
G1 X78.448 Y116.653 E0.09120
G1 X77.225 Y115.004 E0.09920
G1 X77.172 Y114.510 E0.02403
G1 X77.054 Y114.321 E0.01073
G1 X76.597 Y114.034 E0.02612
G1 X75.391 Y111.671 E0.12816
G1 X74.846 Y110.470 E0.06373
G1 X74.884 Y110.068 E0.01950
G1 X74.801 Y109.856 E0.01101
G1 X74.448 Y109.534 E0.02310
G1 X73.857 Y107.641 E0.09580
G1 X73.342 Y105.760 E0.09425
G1 X73.469 Y105.286 E0.02373
G1 X73.426 Y105.066 E0.01083
G1 X73.130 Y104.674 E0.02373
G1 X72.882 Y102.538 E0.10393
G1 X72.741 Y100.752 E0.08658
G1 X72.949 Y100.320 E0.02317
G1 X72.948 Y100.096 E0.01084
G1 X72.728 Y99.653 E0.02389
G1 X72.879 Y97.496 E0.10450
G1 X73.073 Y95.720 E0.08632
G1 X73.351 Y95.344 E0.02259
G1 X73.391 Y95.123 E0.01086
G1 X73.255 Y94.643 E0.02409
G1 X73.827 Y92.463 E0.10889
G1 X74.326 Y90.835 E0.08231
G1 X74.655 Y90.530 E0.02168
G1 X74.736 Y90.317 E0.01098
G1 X74.691 Y89.873 E0.02156
G1 X75.384 Y88.344 E0.08113
G1 X76.408 Y86.310 E0.11004
G1 X76.829 Y86.039 E0.02416
G1 X76.945 Y85.847 E0.01086
G1 X76.985 Y85.385 E0.02241
G1 X78.001 Y83.942 E0.08529
G1 X79.331 Y82.205 E0.10571
G1 X79.790 Y82.018 E0.02395
G1 X79.939 Y81.851 E0.01085
G1 X80.068 Y81.393 E0.02299
G1 X81.395 Y80.108 E0.08924
G1 X82.958 Y78.706 E0.10146
G1 X83.439 Y78.609 E0.02371
G1 X83.617 Y78.472 E0.01084
G1 X83.833 Y78.036 E0.02355
G1 X85.446 Y76.978 E0.09316
G1 X87.165 Y75.936 E0.09714
G1 X87.641 Y75.929 E0.02305
G1 X87.844 Y75.825 E0.01102
G1 X88.081 Y75.501 E0.01937
G1 X89.261 Y74.971 E0.06253
G1 X91.754 Y73.987 E0.12950
G1 X92.286 Y74.074 E0.02604
G1 X92.499 Y74.011 E0.01074
G1 X92.865 Y73.677 E0.02397
G1 X94.849 Y73.255 E0.09799
G1 X96.730 Y72.925 E0.09232
G1 X97.179 Y73.092 E0.02314
G1 X97.332 Y73.076 E0.00742
G1 X97.460 Y73.606 F3600.000
G1 X97.930 Y73.310 E0.02686 F600.000
G1 X99.972 Y73.248 E0.09870
G1 X101.634 Y73.273 E0.08035
G1 X102.131 Y73.572 E0.02801
G1 X102.354 Y73.592 E0.01085
G1 X102.915 Y73.375 E0.02905
G1 X104.959 Y73.712 E0.10010
G1 X106.526 Y74.034 E0.07730
G1 X106.950 Y74.414 E0.02751
G1 X107.167 Y74.474 E0.01086
G1 X107.763 Y74.364 E0.02930
G1 X109.793 Y75.105 E0.10443
G1 X111.195 Y75.684 E0.07330
G1 X111.532 Y76.123 E0.02672
G1 X111.736 Y76.222 E0.01099
G1 X112.296 Y76.219 E0.02707
G1 X113.666 Y77.002 E0.07624
G1 X115.442 Y78.115 E0.10127
G1 X115.720 Y78.650 E0.02916
G1 X115.900 Y78.784 E0.01085
G1 X116.468 Y78.888 E0.02788
G1 X117.730 Y79.967 E0.08022
G1 X119.203 Y81.330 E0.09702
G1 X119.376 Y81.903 E0.02890
G1 X119.529 Y82.067 E0.01084
G1 X120.077 Y82.278 E0.02839
G1 X121.166 Y83.639 E0.08421
G1 X122.307 Y85.179 E0.09263
G1 X122.372 Y85.772 E0.02882
G1 X122.491 Y85.961 E0.01083
G1 X122.999 Y86.275 E0.02886
