; generated by Slic3r 1.0.0RC3 on 2014-03-16 at 18:07:31

; layer_height = 0.24
; perimeters = 2
; top_solid_layers = 4
; bottom_solid_layers = 3
; fill_density = 0.4
; perimeter_speed = 20
; infill_speed = 20
; travel_speed = 60
; nozzle_diameter = 0.5
; filament_diameter = 1.75
; extrusion_multiplier = 1
; perimeters extrusion width = 0.50mm
; infill extrusion width = 0.87mm
; solid infill extrusion width = 0.85mm
; top infill extrusion width = 0.85mm
; first layer extrusion width = 0.48mm

G21 ; set units to millimeters
M107
M104 S205 ; set temperature
G21 ; set units to millimeters
G90 ; use absolute coordinates
M83 ; use relative distances for extrusion
M140 S65; Set bed temperature
G1 Z5 F200 ; lift nozzle
G1 X2 Y50 F2000; Go to wait for warm position
M116; Wait for all temperatures
G10 P0 S205 R0 ; Set extruder temperature
T0; Select extruder
M116; Wait for all temperatures
M109 S205 ; wait for temperature to be reached
G90 ; use absolute coordinates
M83 ; use relative distances for extrusion
G1 F1800.000 E-1.00000
G1 Z0.240 F3600.000
G1 X37.440 Y33.690 F3600.000
G1 E1.00000 F1800.000
G1 X37.990 Y33.100 E0.03898 F600.000
G1 X38.620 Y32.580 E0.03947
G1 X41.870 Y30.220 E0.19409
G1 X42.560 Y29.780 E0.03955
G1 X43.300 Y29.440 E0.03935
G1 X47.030 Y27.970 E0.19374
G1 X47.800 Y27.720 E0.03912
G1 X48.590 Y27.570 E0.03886
G1 X52.500 Y27.070 E0.19048
G1 X53.320 Y27.020 E0.03970
G1 X146.600 Y27.020 E4.50756
G1 X147.410 Y27.070 E0.03922
G1 X151.390 Y27.570 E0.19384
G1 X152.190 Y27.720 E0.03933
G1 X152.960 Y27.970 E0.03912
G1 X156.690 Y29.440 E0.19374
G1 X157.430 Y29.780 E0.03935
G1 X158.120 Y30.220 E0.03955
G1 X161.370 Y32.580 E0.19409
G1 X162.000 Y33.100 E0.03947
G1 X162.550 Y33.690 E0.03898
G1 X165.110 Y36.780 E0.19390
G1 X165.590 Y37.440 E0.03944
G1 X165.980 Y38.140 E0.03872
G1 X167.700 Y41.770 E0.19411
G1 X168.000 Y42.530 E0.03948
G1 X168.210 Y43.320 E0.03950
G1 X168.970 Y47.270 E0.19438
G1 X169.060 Y47.880 E0.02980
G1 X169.080 Y48.500 E0.02998
G1 X169.080 Y151.490 E4.97677
G1 X169.060 Y152.110 E0.02998
G1 X168.970 Y152.720 E0.02980
G1 X168.210 Y156.670 E0.19438
G1 X168.000 Y157.460 E0.03950
G1 X167.700 Y158.220 E0.03948
G1 X165.980 Y161.850 E0.19411
G1 X165.590 Y162.550 E0.03872
G1 X165.110 Y163.210 E0.03944
G1 X162.550 Y166.300 E0.19390
G1 X162.000 Y166.890 E0.03898
G1 X161.370 Y167.410 E0.03947
G1 X158.120 Y169.770 E0.19409
G1 X157.430 Y170.210 E0.03955
G1 X156.690 Y170.550 E0.03935
G1 X152.960 Y172.020 E0.19374
G1 X152.190 Y172.270 E0.03912
G1 X151.400 Y172.420 E0.03886
G1 X147.420 Y172.930 E0.19390
G1 X146.600 Y172.980 E0.03970
G1 X53.400 Y172.980 E4.50369
G1 X52.580 Y172.930 E0.03970
G1 X48.590 Y172.420 E0.19438
G1 X47.800 Y172.270 E0.03886
G1 X47.030 Y172.020 E0.03912
G1 X43.300 Y170.550 E0.19374
G1 X42.560 Y170.210 E0.03935
G1 X41.870 Y169.770 E0.03955
G1 X38.620 Y167.410 E0.19409
G1 X37.990 Y166.890 E0.03947
G1 X37.440 Y166.300 E0.03898
G1 X34.880 Y163.210 E0.19390
G1 X34.400 Y162.550 E0.03944
G1 X34.010 Y161.850 E0.03872
G1 X32.290 Y158.220 E0.19411
G1 X31.980 Y157.450 E0.04011
G1 X31.780 Y156.650 E0.03985
G1 X31.030 Y152.700 E0.19429
G1 X30.940 Y152.100 E0.02932
G1 X30.920 Y151.490 E0.02949
G1 X30.920 Y48.490 E4.97725
G1 X30.940 Y47.880 E0.02949
G1 X31.030 Y47.280 E0.02932
G1 X31.780 Y43.340 E0.19381
G1 X31.990 Y42.540 E0.03997
G1 X32.290 Y41.770 E0.03993
G1 X34.010 Y38.140 E0.19411
G1 X34.400 Y37.440 E0.03872
G1 X34.880 Y36.780 E0.03944
G1 X37.394 Y33.746 E0.19039
G1 F1800.000 E-1.00000
G1 X52.752 Y28.945 F3600.000
G1 E1.00000 F1800.000
G1 X53.111 Y28.899 E0.01751 F600.000
G1 X53.689 Y28.899 E0.02790
G1 X58.246 Y29.473 E0.22198
G1 X58.807 Y29.617 E0.02797
G1 X63.077 Y31.306 E0.22189
G1 X63.584 Y31.584 E0.02794
G1 X67.302 Y34.282 E0.22196
G1 X67.723 Y34.677 E0.02793
G1 X70.654 Y38.212 E0.22190
G1 X70.965 Y38.700 E0.02795
G1 X72.926 Y42.853 E0.22194
G1 X73.105 Y43.403 E0.02797
G1 X73.959 Y47.846 E0.21862
G1 X74.001 Y48.281 E0.02112
G1 X74.001 Y67.966 E0.95119
G1 X74.284 Y68.249 E0.01939
G1 X125.715 Y68.249 E2.48529
G1 X125.999 Y67.966 E0.01939
G1 X125.999 Y48.281 E0.95119
G1 X126.041 Y47.846 E0.02112
G1 X126.895 Y43.403 E0.21862
G1 X127.074 Y42.853 E0.02797
G1 X129.035 Y38.700 E0.22194
G1 X129.346 Y38.212 E0.02795
G1 X132.277 Y34.677 E0.22191
G1 X132.698 Y34.282 E0.02793
G1 X136.416 Y31.584 E0.22196
G1 X136.923 Y31.306 E0.02794
G1 X141.193 Y29.617 E0.22189
G1 X141.754 Y29.473 E0.02797
G1 X146.311 Y28.899 E0.22198
G1 X146.889 Y28.899 E0.02790
G1 X151.446 Y29.473 E0.22198
G1 X152.007 Y29.617 E0.02797
G1 X156.277 Y31.306 E0.22189
G1 X156.784 Y31.584 E0.02794
G1 X160.502 Y34.282 E0.22196
G1 X160.923 Y34.677 E0.02793
G1 X163.854 Y38.212 E0.22190
G1 X164.165 Y38.700 E0.02795
G1 X166.126 Y42.853 E0.22194
G1 X166.305 Y43.403 E0.02797
G1 X167.159 Y47.846 E0.21862
G1 X167.201 Y48.281 E0.02112
G1 X167.201 Y52.455 E0.20166
G1 X166.902 Y53.598 E0.05709
G1 X164.554 Y57.789 E0.23216
G1 X161.499 Y64.421 E0.35282
G1 X158.978 Y71.254 E0.35194
G1 X156.996 Y78.282 E0.35288
G1 X155.567 Y85.462 E0.35376
G1 X154.710 Y92.712 E0.35280
G1 X154.425 Y99.990 E0.35197
G1 X154.710 Y107.286 E0.35280
G1 X155.567 Y114.538 E0.35290
G1 X156.996 Y121.718 E0.35376
G1 X158.978 Y128.746 E0.35288
G1 X161.499 Y135.579 E0.35192
G1 X164.554 Y142.209 E0.35276
G1 X166.903 Y146.403 E0.23227
G1 X167.201 Y147.546 E0.05706
G1 X167.201 Y151.719 E0.20166
G1 X167.159 Y152.154 E0.02113
G1 X166.305 Y156.595 E0.21852
G1 X166.126 Y157.145 E0.02796
G1 X164.165 Y161.298 E0.22194
G1 X163.854 Y161.786 E0.02795
G1 X160.923 Y165.321 E0.22190
G1 X160.502 Y165.716 E0.02793
G1 X156.784 Y168.414 E0.22197
G1 X156.277 Y168.692 E0.02794
G1 X152.007 Y170.381 E0.22186
G1 X151.448 Y170.524 E0.02791
G1 X146.890 Y171.101 E0.22202
G1 X146.310 Y171.101 E0.02801
G1 X141.752 Y170.524 E0.22202
G1 X141.193 Y170.381 E0.02791
G1 X136.923 Y168.692 E0.22186
G1 X136.416 Y168.414 E0.02794
G1 X132.698 Y165.716 E0.22197
G1 X132.277 Y165.321 E0.02792
G1 X129.346 Y161.786 E0.22190
G1 X129.035 Y161.298 E0.02795
G1 X127.074 Y157.145 E0.22194
G1 X126.895 Y156.595 E0.02796
G1 X126.041 Y152.154 E0.21852
G1 X125.999 Y151.719 E0.02113
G1 X125.999 Y132.034 E0.95120
G1 X125.716 Y131.751 E0.01939
G1 X74.284 Y131.751 E2.48530
G1 X74.001 Y132.034 E0.01939
G1 X74.001 Y151.719 E0.95120
G1 X73.959 Y152.154 E0.02113
G1 X73.105 Y156.595 E0.21852
G1 X72.926 Y157.145 E0.02796
G1 X70.965 Y161.298 E0.22194
G1 X70.654 Y161.786 E0.02795
G1 X67.723 Y165.321 E0.22190
G1 X67.302 Y165.716 E0.02793
G1 X63.584 Y168.414 E0.22197
G1 X63.077 Y168.692 E0.02794
G1 X58.807 Y170.381 E0.22186
G1 X58.248 Y170.524 E0.02791
G1 X53.690 Y171.101 E0.22202
G1 X53.110 Y171.101 E0.02801
G1 X48.552 Y170.524 E0.22202
G1 X47.993 Y170.381 E0.02791
G1 X43.723 Y168.692 E0.22186
G1 X43.216 Y168.414 E0.02794
G1 X39.498 Y165.716 E0.22197
G1 X39.077 Y165.321 E0.02793
G1 X36.146 Y161.786 E0.22190
G1 X35.835 Y161.298 E0.02795
G1 X33.874 Y157.145 E0.22194
G1 X33.695 Y156.595 E0.02796
G1 X32.841 Y152.154 E0.21852
G1 X32.799 Y151.719 E0.02113
G1 X32.799 Y147.546 E0.20166
G1 X33.097 Y146.403 E0.05706
G1 X35.446 Y142.209 E0.23227
G1 X38.501 Y135.579 E0.35276
G1 X41.028 Y128.728 E0.35284
G1 X43.004 Y121.718 E0.35196
G1 X44.433 Y114.538 E0.35376
G1 X45.290 Y107.286 E0.35290
G1 X45.575 Y99.990 E0.35280
G1 X45.290 Y92.712 E0.35197
G1 X44.433 Y85.462 E0.35280
G1 X43.004 Y78.282 E0.35376
G1 X41.022 Y71.254 E0.35288
G1 X38.501 Y64.421 E0.35194
G1 X35.446 Y57.789 E0.35282
G1 X33.098 Y53.598 E0.23216
G1 X32.799 Y52.455 E0.05709
G1 X32.799 Y48.281 E0.20166
G1 X32.841 Y47.846 E0.02112
G1 X33.695 Y43.403 E0.21862
G1 X33.874 Y42.853 E0.02797
G1 X35.835 Y38.700 E0.22194
G1 X36.146 Y38.212 E0.02795
G1 X39.077 Y34.677 E0.22190
G1 X39.498 Y34.282 E0.02793
G1 X43.216 Y31.584 E0.22196
G1 X43.723 Y31.306 E0.02794
G1 X47.993 Y29.617 E0.22189
G1 X48.554 Y29.473 E0.02797
G1 X52.680 Y28.954 E0.20096
G1 X52.812 Y29.425 F3600.000
G1 X53.142 Y29.384 E0.01604 F600.000
G1 X53.658 Y29.384 E0.02496
G1 X58.156 Y29.950 E0.21904
G1 X58.657 Y30.079 E0.02503
G1 X62.871 Y31.745 E0.21895
G1 X63.324 Y31.994 E0.02500
G1 X66.993 Y34.656 E0.21902
G1 X67.370 Y35.010 E0.02499
G1 X70.262 Y38.498 E0.21896
G1 X70.540 Y38.934 E0.02501
G1 X72.475 Y43.033 E0.21900
G1 X72.636 Y43.525 E0.02502
G1 X73.479 Y47.915 E0.21603
G1 X73.516 Y48.304 E0.01890
G1 X73.516 Y68.450 E0.97348
G1 X73.800 Y68.734 E0.01939
G1 X126.200 Y68.734 E2.53210
G1 X126.483 Y68.450 E0.01939
G1 X126.484 Y48.304 E0.97348
G1 X126.521 Y47.915 E0.01890
G1 X127.364 Y43.525 E0.21603
G1 X127.525 Y43.033 E0.02502
G1 X129.460 Y38.934 E0.21900
G1 X129.738 Y38.498 E0.02501
G1 X132.630 Y35.010 E0.21896
G1 X133.007 Y34.656 E0.02499
G1 X136.676 Y31.994 E0.21902
G1 X137.129 Y31.745 E0.02500
G1 X141.343 Y30.079 E0.21895
G1 X141.844 Y29.950 E0.02503
G1 X146.342 Y29.384 E0.21904
G1 X146.858 Y29.384 E0.02497
G1 X151.356 Y29.950 E0.21904
G1 X151.857 Y30.079 E0.02503
G1 X156.071 Y31.745 E0.21895
G1 X156.524 Y31.994 E0.02500
G1 X160.193 Y34.656 E0.21902
G1 X160.570 Y35.010 E0.02499
G1 X163.462 Y38.498 E0.21896
G1 X163.740 Y38.934 E0.02501
G1 X165.675 Y43.033 E0.21900
G1 X165.836 Y43.525 E0.02502
G1 X166.679 Y47.915 E0.21603
G1 X166.716 Y48.304 E0.01890
G1 X166.716 Y52.393 E0.19755
G1 X166.449 Y53.415 E0.05108
G1 X164.122 Y57.569 E0.23008
G1 X161.051 Y64.235 E0.35467
G1 X158.517 Y71.104 E0.35378
G1 X156.524 Y78.169 E0.35472
G1 X155.088 Y85.386 E0.35560
G1 X154.227 Y92.674 E0.35464
G1 X153.940 Y99.990 E0.35381
G1 X154.227 Y107.324 E0.35463
G1 X155.088 Y114.614 E0.35474
G1 X156.524 Y121.831 E0.35560
G1 X158.517 Y128.896 E0.35472
G1 X161.051 Y135.765 E0.35376
G1 X164.123 Y142.429 E0.35460
G1 X166.450 Y146.585 E0.23019
G1 X166.716 Y147.608 E0.05106
G1 X166.716 Y151.696 E0.19754
G1 X166.679 Y152.085 E0.01891
G1 X165.836 Y156.473 E0.21594
G1 X165.675 Y156.966 E0.02501
G1 X163.740 Y161.064 E0.21899
G1 X163.462 Y161.500 E0.02501
G1 X160.570 Y164.988 E0.21896
G1 X160.193 Y165.342 E0.02499
G1 X156.524 Y168.004 E0.21902
G1 X156.071 Y168.253 E0.02500
G1 X151.858 Y169.919 E0.21892
G1 X151.357 Y170.047 E0.02498
G1 X146.859 Y170.616 E0.21907
G1 X146.341 Y170.616 E0.02506
G1 X141.843 Y170.047 E0.21907
G1 X141.342 Y169.919 E0.02498
G1 X137.129 Y168.253 E0.21892
G1 X136.676 Y168.004 E0.02500
G1 X133.007 Y165.342 E0.21902
G1 X132.630 Y164.988 E0.02499
G1 X129.738 Y161.500 E0.21896
G1 X129.460 Y161.064 E0.02501
G1 X127.525 Y156.966 E0.21899
G1 X127.364 Y156.473 E0.02501
G1 X126.521 Y152.085 E0.21594
G1 X126.484 Y151.696 E0.01891
G1 X126.484 Y131.550 E0.97349
G1 X126.200 Y131.267 E0.01939
G1 X73.800 Y131.267 E2.53210
G1 X73.516 Y131.550 E0.01939
G1 X73.516 Y151.696 E0.97349
G1 X73.479 Y152.085 E0.01891
G1 X72.636 Y156.473 E0.21594
G1 X72.475 Y156.966 E0.02501
G1 X70.540 Y161.064 E0.21899
G1 X70.262 Y161.500 E0.02501
G1 X67.370 Y164.988 E0.21896
G1 X66.993 Y165.342 E0.02499
G1 X63.324 Y168.004 E0.21902
G1 X62.870 Y168.253 E0.02500
G1 X58.658 Y169.919 E0.21892
G1 X58.157 Y170.047 E0.02498
G1 X53.659 Y170.616 E0.21907
G1 X53.141 Y170.616 E0.02506
G1 X48.643 Y170.047 E0.21907
G1 X48.142 Y169.919 E0.02498
G1 X43.929 Y168.253 E0.21892
G1 X43.476 Y168.004 E0.02500
G1 X39.807 Y165.342 E0.21902
G1 X39.430 Y164.988 E0.02499
G1 X36.538 Y161.500 E0.21896
G1 X36.260 Y161.064 E0.02501
G1 X34.325 Y156.966 E0.21899
G1 X34.164 Y156.473 E0.02501
G1 X33.321 Y152.085 E0.21594
G1 X33.284 Y151.696 E0.01891
G1 X33.284 Y147.608 E0.19754
G1 X33.550 Y146.585 E0.05106
G1 X35.877 Y142.429 E0.23019
G1 X38.949 Y135.765 E0.35460
G1 X41.483 Y128.896 E0.35376
G1 X43.476 Y121.831 E0.35472
G1 X44.912 Y114.614 E0.35560
G1 X45.773 Y107.324 E0.35474
G1 X46.060 Y99.990 E0.35463
G1 X45.773 Y92.674 E0.35381
G1 X44.912 Y85.386 E0.35464
G1 X43.476 Y78.169 E0.35560
G1 X41.483 Y71.104 E0.35472
G1 X38.949 Y64.235 E0.35378
G1 X35.878 Y57.569 E0.35467
G1 X33.551 Y53.415 E0.23008
G1 X33.284 Y52.393 E0.05108
G1 X33.284 Y48.304 E0.19755
G1 X33.321 Y47.915 E0.01890
G1 X34.164 Y43.525 E0.21603
G1 X34.325 Y43.033 E0.02502
G1 X36.260 Y38.934 E0.21900
G1 X36.538 Y38.498 E0.02501
G1 X39.430 Y35.010 E0.21896
G1 X39.807 Y34.656 E0.02499
G1 X43.476 Y31.994 E0.21902
G1 X43.929 Y31.745 E0.02500
G1 X48.143 Y30.079 E0.21895
G1 X48.644 Y29.950 E0.02503
G1 X52.740 Y29.434 E0.19949
G1 X52.873 Y29.906 F3600.000
G1 X53.172 Y29.868 E0.01457 F600.000
G1 X53.628 Y29.868 E0.02203
G1 X58.065 Y30.427 E0.21609
G1 X58.507 Y30.540 E0.02208
G1 X62.664 Y32.184 E0.21600
G1 X63.064 Y32.404 E0.02206
G1 X66.684 Y35.030 E0.21608
G1 X67.016 Y35.342 E0.02205
G1 X69.870 Y38.783 E0.21602
G1 X70.115 Y39.169 E0.02207
G1 X72.024 Y43.212 E0.21606
G1 X72.166 Y43.646 E0.02208
G1 X72.999 Y47.984 E0.21345
G1 X73.032 Y48.327 E0.01668
G1 X73.032 Y68.998 E0.99884
G1 X73.370 Y69.287 E0.02153
G1 X73.960 Y69.218 E0.02869
G1 X126.040 Y69.218 E2.51663
G1 X126.630 Y69.287 E0.02870
G1 X126.968 Y68.998 E0.02153
G1 X126.968 Y48.327 E0.99884
G1 X127.001 Y47.984 E0.01668
G1 X127.834 Y43.646 E0.21345
G1 X127.976 Y43.212 E0.02208
G1 X129.885 Y39.169 E0.21606
G1 X130.130 Y38.783 E0.02207
G1 X132.983 Y35.342 E0.21602
G1 X133.316 Y35.030 E0.02205
G1 X136.936 Y32.404 E0.21608
G1 X137.336 Y32.184 E0.02206
G1 X141.493 Y30.540 E0.21600
G1 X141.935 Y30.427 E0.02208
G1 X146.372 Y29.868 E0.21610
G1 X146.828 Y29.868 E0.02203
G1 X151.265 Y30.427 E0.21610
G1 X151.707 Y30.540 E0.02208
G1 X155.864 Y32.184 E0.21600
G1 X156.264 Y32.404 E0.02206
G1 X159.884 Y35.030 E0.21608
G1 X160.217 Y35.342 E0.02205
G1 X163.070 Y38.783 E0.21602
G1 X163.315 Y39.169 E0.02207
G1 X165.224 Y43.212 E0.21606
G1 X165.366 Y43.646 E0.02208
G1 X166.199 Y47.984 E0.21345
G1 X166.232 Y48.327 E0.01668
G1 X166.232 Y52.330 E0.19343
G1 X165.997 Y53.233 E0.04507
G1 X163.691 Y57.349 E0.22800
G1 X160.603 Y64.050 E0.35651
G1 X158.056 Y70.954 E0.35561
G1 X156.053 Y78.056 E0.35655
G1 X154.609 Y85.310 E0.35744
G1 X153.743 Y92.636 E0.35648
G1 X153.455 Y99.990 E0.35565
G1 X153.743 Y107.362 E0.35647
G1 X154.609 Y114.690 E0.35658
G1 X156.053 Y121.944 E0.35744
G1 X158.056 Y129.046 E0.35655
G1 X160.603 Y135.950 E0.35560
G1 X163.691 Y142.649 E0.35644
G1 X165.997 Y146.768 E0.22810
G1 X166.232 Y147.670 E0.04505
G1 X166.232 Y151.673 E0.19342
G1 X166.199 Y152.016 E0.01668
G1 X165.366 Y156.352 E0.21336
G1 X165.224 Y156.786 E0.02207
G1 X163.315 Y160.829 E0.21605
G1 X163.070 Y161.215 E0.02207
G1 X160.217 Y164.656 E0.21602
G1 X159.884 Y164.968 E0.02205
G1 X156.264 Y167.594 E0.21608
G1 X155.864 Y167.814 E0.02206
G1 X151.708 Y169.457 E0.21598
G1 X151.266 Y169.571 E0.02204
G1 X146.829 Y170.132 E0.21613
G1 X146.371 Y170.132 E0.02212
G1 X141.934 Y169.571 E0.21613
G1 X141.492 Y169.457 E0.02204
G1 X137.336 Y167.814 E0.21598
G1 X136.936 Y167.594 E0.02206
G1 X133.316 Y164.968 E0.21608
G1 X132.983 Y164.656 E0.02205
G1 X130.130 Y161.215 E0.21602
G1 X129.885 Y160.829 E0.02207
G1 X127.976 Y156.786 E0.21605
G1 X127.834 Y156.352 E0.02207
G1 X127.001 Y152.016 E0.21336
G1 X126.968 Y151.673 E0.01668
G1 X126.968 Y131.045 E0.99677
G1 X126.657 Y130.758 E0.02045
G1 X126.340 Y130.782 E0.01539
G1 X73.993 Y130.782 E2.52957
G1 X73.372 Y130.707 E0.03023
G1 X73.032 Y130.997 E0.02158
G1 X73.032 Y151.673 E0.99913
G1 X72.999 Y152.016 E0.01668
G1 X72.166 Y156.352 E0.21336
G1 X72.024 Y156.786 E0.02207
G1 X70.115 Y160.829 E0.21605
G1 X69.870 Y161.215 E0.02207
G1 X67.016 Y164.656 E0.21602
G1 X66.684 Y164.968 E0.02205
G1 X63.064 Y167.594 E0.21608
G1 X62.664 Y167.814 E0.02206
G1 X58.508 Y169.457 E0.21598
G1 X58.066 Y169.571 E0.02204
G1 X53.629 Y170.132 E0.21613
G1 X53.171 Y170.132 E0.02212
G1 X48.734 Y169.571 E0.21613
G1 X48.292 Y169.457 E0.02204
G1 X44.136 Y167.814 E0.21598
G1 X43.736 Y167.594 E0.02206
G1 X40.116 Y164.968 E0.21608
G1 X39.783 Y164.656 E0.02205
G1 X36.930 Y161.215 E0.21602
G1 X36.685 Y160.829 E0.02207
G1 X34.776 Y156.786 E0.21605
G1 X34.634 Y156.352 E0.02207
G1 X33.801 Y152.016 E0.21336
G1 X33.768 Y151.673 E0.01668
G1 X33.768 Y147.670 E0.19342
G1 X34.003 Y146.768 E0.04505
G1 X36.309 Y142.649 E0.22810
G1 X39.397 Y135.950 E0.35644
G1 X41.944 Y129.046 E0.35560
G1 X43.947 Y121.944 E0.35655
G1 X45.391 Y114.690 E0.35744
G1 X46.257 Y107.362 E0.35658
G1 X46.545 Y99.990 E0.35647
G1 X46.257 Y92.636 E0.35565
G1 X45.391 Y85.310 E0.35648
G1 X43.947 Y78.056 E0.35744
