; generated by Slic3r 1.0.0RC3 on 2014-03-24 at 19:03:19

; layer_height = 0.24
; perimeters = 2
; top_solid_layers = 4
; bottom_solid_layers = 3
; fill_density = 0.4
; perimeter_speed = 20
; infill_speed = 20
; travel_speed = 60
; nozzle_diameter = 0.5
; filament_diameter = 1.75
; extrusion_multiplier = 1
; perimeters extrusion width = 0.50mm
; infill extrusion width = 0.87mm
; solid infill extrusion width = 0.85mm
; top infill extrusion width = 0.85mm
; first layer extrusion width = 0.48mm

G21 ; set units to millimeters
M107
M104 S205 ; set temperature
G21 ; set units to millimeters
G90 ; use absolute coordinates
M83 ; use relative distances for extrusion
M140 S65; Set bed temperature
G1 Z5 F200 ; lift nozzle
G1 X2 Y50 F2000; Go to wait for warm position
M116; Wait for all temperatures
G10 P0 S205 R0 ; Set extruder temperature
T0; Select extruder
M116; Wait for all temperatures
M109 S205 ; wait for temperature to be reached
G90 ; use absolute coordinates
M83 ; use relative distances for extrusion
G1 F1800.000 E-1.00000
G1 Z0.240 F3600.000
G1 X26.789 Y40.939 F3600.000
G1 E3.00000 F1800.000
G1 X27.639 Y40.469 E0.04694 F600.000
G1 X28.269 Y40.179 E0.03351
G1 X29.169 Y39.839 E0.04649
G1 X30.109 Y39.639 E0.04644
G1 X30.629 Y39.569 E0.02535
G1 X31.499 Y39.519 E0.04211
G1 X158.499 Y39.519 E6.13700
G1 X159.379 Y39.579 E0.04262
G1 X159.889 Y39.649 E0.02488
G1 X160.629 Y39.789 E0.03639
G1 X161.349 Y40.019 E0.03652
G1 X161.839 Y40.209 E0.02540
G1 X162.739 Y40.649 E0.04841
G1 X163.569 Y41.209 E0.04838
G1 X163.979 Y41.539 E0.02543
G1 X164.649 Y42.169 E0.04444
G1 X165.229 Y42.879 E0.04430
G1 X165.619 Y43.439 E0.03298
G1 X166.089 Y44.219 E0.04401
G1 X166.439 Y45.059 E0.04397
G1 X166.609 Y45.559 E0.02552
G1 X166.789 Y46.189 E0.03166
G1 X166.899 Y46.819 E0.03090
G1 X176.849 Y124.299 E3.77480
G1 X176.959 Y125.409 E0.05390
G1 X176.979 Y125.999 E0.02853
G1 X176.959 Y126.599 E0.02901
G1 X176.879 Y127.459 E0.04174
G1 X176.679 Y128.549 E0.05355
G1 X176.449 Y129.399 E0.04255
G1 X176.219 Y130.079 E0.03469
G1 X166.329 Y155.209 E1.30501
G1 X165.819 Y156.249 E0.05597
G1 X165.119 Y157.169 E0.05586
G1 X164.319 Y158.059 E0.05783
G1 X163.179 Y159.069 E0.07360
G1 X161.839 Y159.779 E0.07328
G1 X161.349 Y159.969 E0.02540
G1 X160.689 Y160.179 E0.03347
G1 X160.009 Y160.329 E0.03365
G1 X159.499 Y160.409 E0.02495
G1 X158.499 Y160.479 E0.04844
G1 X31.499 Y160.479 E6.13700
G1 X30.509 Y160.409 E0.04796
G1 X29.989 Y160.329 E0.02542
G1 X29.109 Y160.129 E0.04361
G1 X28.269 Y159.809 E0.04344
G1 X27.639 Y159.519 E0.03351
G1 X26.189 Y158.599 E0.08298
G1 X25.029 Y157.339 E0.08276
G1 X24.249 Y156.219 E0.06595
G1 X23.529 Y154.869 E0.07393
G1 X23.149 Y153.389 E0.07384
G1 X23.079 Y152.879 E0.02488
G1 X23.019 Y151.999 E0.04262
G1 X23.019 Y47.999 E5.02558
G1 X23.069 Y47.099 E0.04356
G1 X23.169 Y46.379 E0.03513
G1 X23.349 Y45.669 E0.03539
G1 X23.509 Y45.169 E0.02537
G1 X23.799 Y44.449 E0.03751
G1 X24.159 Y43.759 E0.03761
G1 X24.429 Y43.319 E0.02495
G1 X24.979 Y42.559 E0.04533
G1 X25.629 Y41.879 E0.04546
G1 X26.019 Y41.529 E0.02532
G1 X26.731 Y40.983 E0.04337
G1 F1800.000 E-1.00000
G1 X30.828 Y46.591 F3600.000
G1 E3.00000 F1800.000
G1 X31.018 Y46.503 E0.01012 F420.000
G1 X31.518 Y46.420 E0.02447
G1 X158.482 Y46.420 E6.13530
G1 X158.643 Y46.444 E0.00782
G1 X159.368 Y46.691 E0.03702
G1 X159.483 Y46.781 E0.00707
G1 X159.760 Y47.078 E0.01964
G1 X159.892 Y47.268 E0.01116
G1 X160.032 Y47.647 E0.01955
G1 X160.080 Y48.017 E0.01803
G1 X160.080 Y118.010 E3.38226
G1 X160.099 Y118.235 E0.01091
G1 X160.178 Y118.778 E0.02649
G1 X160.537 Y119.715 E0.04848
G1 X161.216 Y120.539 E0.05160
G1 X161.890 Y121.010 E0.03974
G1 X162.725 Y121.321 E0.04307
G1 X163.264 Y121.401 E0.02634
G1 X163.489 Y121.420 E0.01092
G1 X165.490 Y121.420 E0.09665
G1 X166.295 Y121.491 E0.03907
G1 X167.066 Y121.697 E0.03855
G1 X167.789 Y122.034 E0.03858
G1 X168.443 Y122.492 E0.03856
G1 X169.007 Y123.056 E0.03855
G1 X169.465 Y123.711 E0.03860
G1 X169.802 Y124.434 E0.03856
G1 X169.887 Y124.749 E0.01577
G1 X170.009 Y125.204 E0.02277
G1 X170.079 Y126.000 E0.03860
G1 X170.009 Y126.795 E0.03856
G1 X169.887 Y127.250 E0.02278
G1 X169.802 Y127.566 E0.01579
G1 X169.465 Y128.289 E0.03858
G1 X169.007 Y128.943 E0.03857
G1 X168.674 Y129.276 E0.02278
G1 X168.443 Y129.507 E0.01577
G1 X167.789 Y129.965 E0.03856
G1 X167.066 Y130.302 E0.03858
G1 X166.295 Y130.509 E0.03857
G1 X165.489 Y130.580 E0.03907
G1 X163.490 Y130.580 E0.09663
G1 X163.123 Y130.611 E0.01778
G1 X162.675 Y130.690 E0.02201
G1 X162.439 Y130.800 E0.01255
G1 X162.269 Y130.919 E0.01003
G1 X161.309 Y131.367 E0.05119
G1 X160.601 Y132.194 E0.05261
G1 X160.282 Y132.832 E0.03450
G1 X160.080 Y133.979 E0.05627
G1 X160.080 Y151.983 E0.86998
G1 X160.032 Y152.353 E0.01803
G1 X159.898 Y152.718 E0.01881
G1 X159.596 Y153.052 E0.02175
G1 X159.503 Y153.184 E0.00781
G1 X159.285 Y153.367 E0.01374
G1 X159.154 Y153.419 E0.00684
G1 X158.962 Y153.447 E0.00935
G1 X158.468 Y153.580 E0.02471
G1 X147.239 Y153.580 E0.54264
G1 X147.239 Y150.761 E0.13622
G1 X40.761 Y150.761 E5.14532
G1 X40.761 Y153.580 E0.13622
G1 X31.511 Y153.580 E0.44701
G1 X31.176 Y153.540 E0.01626
G1 X30.663 Y153.332 E0.02677
G1 X30.440 Y153.144 E0.01409
G1 X30.068 Y152.614 E0.03130
G1 X29.946 Y152.157 E0.02285
G1 X29.920 Y151.982 E0.00853
G1 X29.920 Y48.011 E5.02421
G1 X29.965 Y47.654 E0.01737
G1 X30.019 Y47.494 E0.00815
G1 X30.285 Y46.998 E0.02719
G1 X30.774 Y46.639 E0.02932
G1 X31.008 Y46.699 F3600.000
G1 X31.165 Y46.968 F3600.000
G1 X31.553 Y46.904 E0.01902 F600.000
G1 X158.447 Y46.904 E6.13187
G1 X159.143 Y47.127 E0.03530
G1 X159.382 Y47.384 E0.01698
G1 X159.463 Y47.499 E0.00679
G1 X159.555 Y47.746 E0.01275
G1 X159.595 Y48.053 E0.01493
G1 X159.595 Y118.031 E3.38156
G1 X159.618 Y118.291 E0.01261
G1 X159.706 Y118.897 E0.02959
G1 X160.116 Y119.966 E0.05533
G1 X160.880 Y120.895 E0.05812
G1 X161.658 Y121.439 E0.04590
G1 X162.237 Y121.670 E0.03007
G1 X162.613 Y121.794 E0.01914
G1 X163.208 Y121.882 E0.02906
G1 X163.468 Y121.905 E0.01263
G1 X165.468 Y121.905 E0.09666
G1 X166.211 Y121.969 E0.03602
G1 X166.900 Y122.154 E0.03445
G1 X167.546 Y122.455 E0.03448
G1 X168.131 Y122.864 E0.03446
G1 X168.634 Y123.368 E0.03444
G1 X169.044 Y123.954 E0.03452
G1 X169.345 Y124.601 E0.03449
G1 X169.419 Y124.875 E0.01372
G1 X169.530 Y125.289 E0.02071
G1 X169.593 Y126.000 E0.03450
G1 X169.530 Y126.710 E0.03445
G1 X169.419 Y127.124 E0.02072
G1 X169.345 Y127.399 E0.01375
G1 X169.044 Y128.046 E0.03451
G1 X168.635 Y128.631 E0.03446
G1 X168.131 Y129.135 E0.03446
G1 X167.546 Y129.544 E0.03446
G1 X166.900 Y129.845 E0.03448
G1 X166.210 Y130.030 E0.03448
G1 X165.468 Y130.095 E0.03600
G1 X163.469 Y130.095 E0.09660
G1 X163.060 Y130.130 E0.01982
G1 X162.528 Y130.224 E0.02614
G1 X162.197 Y130.379 E0.01765
G1 X162.026 Y130.497 E0.01004
G1 X161.014 Y130.970 E0.05401
G1 X160.189 Y131.931 E0.06118
G1 X159.818 Y132.671 E0.04000
G1 X159.595 Y133.937 E0.06208
G1 X159.595 Y151.947 E0.87033
G1 X159.555 Y152.254 E0.01493
G1 X159.480 Y152.458 E0.01050
G1 X159.143 Y152.854 E0.02515
G1 X159.031 Y152.948 E0.00704
G1 X158.864 Y152.972 E0.00818
G1 X158.405 Y153.096 E0.02298
G1 X147.723 Y153.096 E0.51615
G1 X147.723 Y150.277 E0.13622
G1 X40.277 Y150.277 E5.19213
G1 X40.277 Y153.096 E0.13622
G1 X31.532 Y153.096 E0.42258
G1 X31.296 Y153.068 E0.01148
G1 X30.926 Y152.920 E0.01928
G1 X30.800 Y152.814 E0.00792
G1 X30.514 Y152.406 E0.02410
G1 X30.404 Y151.947 E0.02280
G1 X30.404 Y48.032 E5.02145
G1 X30.438 Y47.766 E0.01295
G1 X30.467 Y47.682 E0.00433
G1 X30.641 Y47.340 E0.01852
G1 X31.099 Y46.999 E0.02760
G1 F1800.000 E-1.00000
G1 X150.441 Y144.558 F3600.000
G1 E3.00000 F1800.000
G1 X150.938 Y144.026 E0.03518 F600.000
G1 X151.178 Y143.858 E0.01418
G1 X151.849 Y143.572 E0.03524
G1 X152.499 Y143.477 E0.03173
G1 X153.150 Y143.572 E0.03178
G1 X153.760 Y143.815 E0.03175
G1 X154.180 Y144.126 E0.02526
G1 X154.684 Y144.739 E0.03835
G1 X154.927 Y145.349 E0.03175
G1 X155.014 Y146.072 E0.03520
G1 X154.989 Y146.364 E0.01416
G1 X154.777 Y147.062 E0.03522
G1 X154.430 Y147.624 E0.03192
G1 X153.832 Y148.135 E0.03801
G1 X153.150 Y148.427 E0.03586
G1 X152.499 Y148.523 E0.03180
G1 X151.849 Y148.427 E0.03175
G1 X151.166 Y148.135 E0.03591
G1 X150.493 Y147.516 E0.04417
G1 X150.163 Y146.935 E0.03232
G1 X150.017 Y146.444 E0.02473
G1 X150.000 Y146.250 E0.00941
G1 X150.105 Y145.221 E0.05002
G1 X150.406 Y144.622 E0.03238
G1 X150.257 Y144.110 F3600.000
G1 X148.152 Y152.820 F3600.000
G1 X158.152 Y152.820 F3600.000
G1 X156.180 Y56.978 F3600.000
G1 X152.627 Y56.512 F3600.000
G1 X151.720 Y56.395 E0.04421 F600.000
G1 X151.416 Y56.253 E0.01622
G1 X150.946 Y55.981 E0.02624
G1 X150.712 Y55.746 E0.01602
G1 X150.358 Y55.325 E0.02660
G1 X150.209 Y54.951 E0.01943
G1 X150.099 Y54.748 E0.01117
G1 X150.047 Y54.553 E0.00974
G1 X150.040 Y54.322 E0.01118
G1 X149.982 Y53.924 E0.01945
G1 X150.078 Y53.382 E0.02657
G1 X150.163 Y53.062 E0.01603
G1 X150.569 Y52.376 E0.03850
G1 X151.166 Y51.865 E0.03796
G1 X151.717 Y51.608 E0.02939
G1 X152.499 Y51.477 E0.03832
G1 X153.150 Y51.573 E0.03180
G1 X153.829 Y51.863 E0.03569
G1 X154.432 Y52.379 E0.03834
G1 X154.718 Y52.811 E0.02503
G1 X154.951 Y53.441 E0.03247
G1 X154.993 Y54.349 E0.04392
G1 X154.835 Y54.939 E0.02951
G1 X154.563 Y55.410 E0.02626
G1 X154.373 Y55.681 E0.01602
G1 X153.760 Y56.185 E0.03835
G1 X153.516 Y56.283 E0.01269
G1 X152.893 Y56.473 E0.03147
G1 X152.699 Y56.501 E0.00948
G1 X152.370 Y56.922 F3600.000
G1 X152.257 Y57.658 F3600.000
G1 X152.509 Y57.680 E0.01225 F420.000
G1 X155.420 Y57.680 E0.14067
G1 X155.420 Y142.320 E4.09009
G1 X152.509 Y142.320 E0.14067
G1 X152.257 Y142.342 E0.01225
G1 X151.992 Y142.413 E0.01325
G1 X151.232 Y142.547 E0.03731
G1 X151.026 Y142.643 E0.01094
G1 X149.739 Y143.626 E0.07829
G1 X149.567 Y143.798 E0.01173
G1 X149.424 Y144.003 E0.01209
G1 X149.151 Y144.509 E0.02778
G1 X149.042 Y144.741 E0.01240
G1 X148.977 Y144.986 E0.01226
G1 X148.843 Y145.748 E0.03735
G1 X148.819 Y146.011 E0.01276
G1 X148.819 Y147.239 E0.05936
G1 X89.261 Y147.239 E2.87803
G1 X89.261 Y51.080 E4.64670
G1 X148.819 Y51.080 E2.87803
G1 X148.819 Y53.989 E0.14061
G1 X148.842 Y54.242 E0.01225
G1 X148.905 Y54.477 E0.01176
G1 X149.023 Y54.729 E0.01347
G1 X149.436 Y56.015 E0.06528
G1 X149.567 Y56.202 E0.01101
G1 X150.298 Y56.932 E0.04993
G1 X150.484 Y57.063 E0.01100
G1 X151.770 Y57.477 E0.06525
G1 X152.022 Y57.595 E0.01348
G1 X152.187 Y57.639 E0.00822
G1 X152.414 Y57.459 F3600.000
G1 X153.195 Y57.195 F3600.000
G1 X155.905 Y57.195 E0.13093 F600.000
G1 X155.905 Y142.805 E4.13689
G1 X153.195 Y142.805 E0.13093
G1 X153.148 Y143.050 E0.01207
G1 X154.005 Y143.391 E0.04455
G1 X154.510 Y143.765 E0.03041
G1 X155.108 Y144.494 E0.04555
G1 X155.398 Y145.223 E0.03791
G1 X155.500 Y146.072 E0.04133
G1 X155.467 Y146.449 E0.01825
G1 X155.219 Y147.268 E0.04138
G1 X154.801 Y147.945 E0.03843
G1 X154.101 Y148.544 E0.04452
G1 X153.724 Y148.720 E0.02013
G1 X153.277 Y148.898 E0.02326
G1 X152.499 Y149.012 E0.03798
G1 X151.723 Y148.898 E0.03792
G1 X151.275 Y148.720 E0.02327
G1 X150.896 Y148.544 E0.02018
G1 X150.116 Y147.826 E0.05126
G1 X149.938 Y147.540 E0.01627
G1 X149.490 Y146.709 E0.04563
G1 X149.304 Y146.756 E0.00931
G1 X149.304 Y147.723 E0.04676
G1 X88.777 Y147.723 E2.92484
G1 X88.777 Y50.595 E4.69350
G1 X149.304 Y50.595 E2.92484
G1 X149.304 Y53.236 E0.12761
G1 X149.477 Y53.283 E0.00866
G1 X150.198 Y52.055 E0.06880
G1 X150.896 Y51.456 E0.04446
G1 X151.570 Y51.142 E0.03590
G1 X152.499 Y50.987 E0.04551
G1 X153.277 Y51.102 E0.03799
G1 X153.724 Y51.280 E0.02326
G1 X154.092 Y51.451 E0.01961
G1 X154.807 Y52.064 E0.04553
G1 X155.147 Y52.580 E0.02983
G1 X155.433 Y53.356 E0.04000
G1 X155.481 Y54.400 E0.05051
G1 X155.287 Y55.126 E0.03629
G1 X154.972 Y55.670 E0.03036
G1 X154.734 Y56.011 E0.02012
G1 X154.005 Y56.609 E0.04556
G1 X153.148 Y56.950 E0.04455
G1 X153.182 Y57.124 E0.00856
G1 X156.180 Y56.978 F3600.000
G1 X158.152 Y152.820 F3600.000
G1 X140.822 Y147.999 F3600.000
G1 X40.971 Y150.001 F3600.000
G1 X39.495 Y144.470 F3600.000
G1 X39.616 Y144.642 E0.01016 F600.000
G1 X39.702 Y144.857 E0.01121
G1 X39.892 Y145.210 E0.01938
G1 X39.988 Y145.752 E0.02660
G1 X40.016 Y146.073 E0.01553
G1 X39.990 Y146.365 E0.01417
G1 X39.907 Y146.675 E0.01551
G1 X39.721 Y147.186 E0.02628
G1 X39.376 Y147.678 E0.02902
G1 X38.871 Y148.108 E0.03208
G1 X38.364 Y148.370 E0.02759
G1 X38.112 Y148.423 E0.01241
G1 X37.584 Y148.516 E0.02593
G1 X36.982 Y148.463 E0.02922
G1 X36.236 Y148.183 E0.03847
G1 X35.494 Y147.516 E0.04822
G1 X35.164 Y146.935 E0.03230
G1 X35.009 Y146.354 E0.02903
G1 X35.009 Y145.811 E0.02623
G1 X35.038 Y145.477 E0.01621
G1 X35.311 Y144.748 E0.03763
G1 X35.575 Y144.370 E0.02227
G1 X36.168 Y143.864 E0.03767
G1 X36.471 Y143.722 E0.01619
G1 X36.982 Y143.536 E0.02625
G1 X37.584 Y143.484 E0.02921
G1 X38.364 Y143.628 E0.03831
G1 X38.612 Y143.762 E0.01362
G1 X39.438 Y144.425 E0.05118
G1 X39.702 Y144.431 F3600.000
G1 X40.971 Y150.001 F3600.000
G1 X43.428 Y147.999 F3600.000
G1 X33.790 Y152.820 F3600.000
G1 X30.680 Y55.541 F3600.000
G1 X37.762 Y56.499 F3600.000
G1 X37.233 Y56.499 E0.02555 F600.000
G1 X36.979 Y56.462 E0.01241
G1 X36.360 Y56.241 E0.03175
G1 X35.922 Y55.935 E0.02580
G1 X35.723 Y55.778 E0.01224
G1 X35.280 Y55.186 E0.03572
G1 X35.018 Y54.445 E0.03799
G1 X34.986 Y53.910 E0.02590
G1 X35.079 Y53.382 E0.02588
G1 X35.166 Y53.058 E0.01621
G1 X35.565 Y52.381 E0.03798
G1 X36.171 Y51.863 E0.03851
G1 X36.471 Y51.723 E0.01602
G1 X36.982 Y51.537 E0.02624
G1 X37.584 Y51.484 E0.02922
G1 X38.112 Y51.577 E0.02593
G1 X38.364 Y51.630 E0.01241
G1 X38.942 Y51.942 E0.03176
G1 X39.428 Y52.374 E0.03142
G1 X39.592 Y52.608 E0.01382
G1 X39.722 Y52.818 E0.01190
G1 X39.948 Y53.428 E0.03145
G1 X40.008 Y53.834 E0.01984
G1 X40.016 Y54.087 E0.01224
G1 X39.905 Y54.735 E0.03177
G1 X39.685 Y55.261 E0.02756
G1 X39.181 Y55.874 E0.03835
G1 X38.913 Y56.062 E0.01585
G1 X38.563 Y56.278 E0.01985
G1 X37.945 Y56.483 E0.03145
G1 X37.834 Y56.492 E0.00539
G1 X37.532 Y56.925 F3600.000
G1 X37.491 Y57.680 F3600.000
G1 X37.743 Y57.658 E0.01225 F420.000
G1 X38.944 Y57.371 E0.05964
G1 X39.160 Y57.270 E0.01154
G1 X40.006 Y56.677 E0.04991
G1 X40.177 Y56.506 E0.01173
G1 X40.690 Y55.833 E0.04087
G1 X40.789 Y55.619 E0.01138
G1 X40.852 Y55.384 E0.01176
G1 X40.877 Y55.101 E0.01377
G1 X41.181 Y53.968 E0.05664
G1 X41.181 Y51.080 E0.13960
G1 X79.740 Y51.080 E1.86330
G1 X79.740 Y147.239 E4.64670
G1 X41.181 Y147.239 E1.86330
G1 X41.181 Y146.011 E0.05936
G1 X41.157 Y145.748 E0.01275
G1 X41.023 Y144.986 E0.03736
G1 X40.957 Y144.741 E0.01227
G1 X40.687 Y144.161 E0.03095
G1 X40.547 Y143.961 E0.01175
G1 X40.376 Y143.790 E0.01173
G1 X40.147 Y143.630 E0.01347
G1 X39.146 Y142.723 E0.06526
G1 X38.940 Y142.627 E0.01101
G1 X38.133 Y142.376 E0.04083
G1 X37.491 Y142.320 E0.03115
G1 X35.080 Y142.320 E0.11651
G1 X35.080 Y57.680 E4.09009
G1 X37.418 Y57.680 E0.11299
G1 X37.604 Y57.453 F3600.000
G1 X36.785 Y57.195 F3600.000
G1 X36.832 Y56.950 E0.01207 F600.000
G1 X36.128 Y56.670 E0.03661
G1 X35.633 Y56.324 E0.02920
G1 X35.379 Y56.123 E0.01567
G1 X35.079 Y55.744 E0.02333
G1 X34.847 Y55.412 E0.01961
G1 X34.541 Y54.543 E0.04449
G1 X34.501 Y53.875 E0.03235
G1 X34.606 Y53.278 E0.02930
G1 X34.716 Y52.864 E0.02067
G1 X35.185 Y52.072 E0.04451
G1 X35.908 Y51.451 E0.04605
G1 X36.286 Y51.275 E0.02012
G1 X36.876 Y51.061 E0.03033
G1 X37.605 Y50.996 E0.03539
G1 X38.204 Y51.102 E0.02937
G1 X38.532 Y51.170 E0.01619
G1 X39.222 Y51.542 E0.03792
G1 X39.792 Y52.050 E0.03688
G1 X39.996 Y52.342 E0.01720
G1 X40.156 Y52.599 E0.01464
G1 X40.451 Y53.342 E0.03861
G1 X40.696 Y53.295 E0.01208
G1 X40.696 Y50.595 E0.13044
G1 X80.224 Y50.595 E1.91011
G1 X80.224 Y147.723 E4.69350
G1 X40.696 Y147.723 E1.91011
G1 X40.696 Y146.686 E0.05012
G1 X40.435 Y146.640 E0.01283
G1 X40.154 Y147.411 E0.03966
G1 X39.740 Y148.002 E0.03485
G1 X39.381 Y148.322 E0.02327
G1 X39.127 Y148.523 E0.01564
G1 X38.532 Y148.830 E0.03237
G1 X37.605 Y149.004 E0.04556
G1 X36.876 Y148.939 E0.03538
G1 X35.985 Y148.604 E0.04600
G1 X35.658 Y148.330 E0.02061
G1 X35.116 Y147.826 E0.03577
G1 X34.711 Y147.115 E0.03957
G1 X34.524 Y146.418 E0.03484
G1 X34.524 Y145.790 E0.03033
G1 X34.561 Y145.364 E0.02066
G1 X34.878 Y144.523 E0.04346
G1 X35.215 Y144.040 E0.02844
