; generated by Slic3r 1.0.0RC3 on 2014-03-24 at 20:27:50

; layer_height = 0.24
; perimeters = 2
; top_solid_layers = 4
; bottom_solid_layers = 3
; fill_density = 0.4
; perimeter_speed = 20
; infill_speed = 20
; travel_speed = 60
; nozzle_diameter = 0.5
; filament_diameter = 1.75
; extrusion_multiplier = 1
; perimeters extrusion width = 0.50mm
; infill extrusion width = 0.87mm
; solid infill extrusion width = 0.85mm
; top infill extrusion width = 0.85mm
; first layer extrusion width = 0.48mm

G21 ; set units to millimeters
M107
M104 S205 ; set temperature
G21 ; set units to millimeters
G90 ; use absolute coordinates
M83 ; use relative distances for extrusion
M140 S65; Set bed temperature
G1 Z5 F200 ; lift nozzle
G1 X2 Y50 F2000; Go to wait for warm position
M116; Wait for all temperatures
G10 P0 S205 R0 ; Set extruder temperature
T0; Select extruder
M116; Wait for all temperatures
M109 S205 ; wait for temperature to be reached
G90 ; use absolute coordinates
M83 ; use relative distances for extrusion
G1 F1800.000 E-1.00000
G1 Z0.240 F3600.000
G1 X88.410 Y84.410 F3600.000
G1 E3.00000 F1800.000
G1 X89.400 Y83.610 E0.06151 F600.000
G1 X90.520 Y83.010 E0.06140
G1 X91.730 Y82.640 E0.06114
G1 X93.000 Y82.520 E0.06164
G1 X107.000 Y82.520 E0.67652
G1 X108.270 Y82.640 E0.06164
G1 X109.480 Y83.010 E0.06114
G1 X110.600 Y83.610 E0.06140
G1 X111.590 Y84.410 E0.06151
G1 X112.390 Y85.400 E0.06151
G1 X112.990 Y86.520 E0.06140
G1 X113.360 Y87.730 E0.06114
G1 X113.480 Y89.000 E0.06164
G1 X113.480 Y103.600 E0.70551
G1 X113.330 Y105.020 E0.06900
G1 X112.860 Y106.370 E0.06908
G1 X112.120 Y107.590 E0.06895
G1 X111.120 Y108.610 E0.06903
G1 X109.920 Y109.390 E0.06916
G1 X99.920 Y114.440 E0.54135
G1 X98.500 Y114.960 E0.07307
G1 X97.000 Y115.130 E0.07295
G1 X93.000 Y115.130 E0.19329
G1 X91.730 Y115.010 E0.06164
G1 X90.520 Y114.640 E0.06114
G1 X89.400 Y114.040 E0.06140
G1 X88.410 Y113.240 E0.06151
G1 X87.610 Y112.250 E0.06151
G1 X87.010 Y111.130 E0.06140
G1 X86.640 Y109.920 E0.06114
G1 X86.520 Y108.650 E0.06164
G1 X86.520 Y89.000 E0.94954
G1 X86.640 Y87.730 E0.06164
G1 X87.010 Y86.520 E0.06114
G1 X87.610 Y85.400 E0.06140
G1 X88.364 Y84.467 E0.05800
G1 F1800.000 E-1.00000
G1 X93.240 Y89.240 F3600.000
G1 E3.00000 F1800.000
G1 X95.788 Y89.240 E0.12313 F420.000
G1 X96.760 Y97.015 E0.37863
G1 X96.760 Y99.720 E0.13071
G1 X96.539 Y99.947 E0.01532
G1 X96.431 Y100.140 E0.01068
G1 X96.363 Y100.426 E0.01421
G1 X96.371 Y100.647 E0.01068
G1 X96.431 Y100.860 E0.01068
G1 X96.498 Y100.991 E0.00713
G1 X96.689 Y101.215 E0.01421
G1 X96.940 Y101.369 E0.01421
G1 X97.081 Y101.414 E0.00713
G1 X97.300 Y101.440 E0.01068
G1 X97.591 Y101.394 E0.01421
G1 X97.853 Y101.261 E0.01422
G1 X98.015 Y101.111 E0.01068
G1 X98.186 Y100.840 E0.01548
G1 X104.740 Y100.840 E0.31669
G1 X104.740 Y89.240 E0.56055
G1 X106.760 Y89.240 E0.09761
G1 X106.760 Y103.360 E0.68232
G1 X96.760 Y103.360 E0.48323
G1 X96.760 Y107.727 E0.21105
G1 X93.240 Y107.727 E0.17010
G1 X93.240 Y89.313 E0.88985
G1 X93.659 Y89.482 F3600.000
G1 X93.724 Y89.724 F3600.000
G1 X95.361 Y89.724 E0.07907 F600.000
G1 X96.276 Y97.045 E0.35652
G1 X96.276 Y99.511 E0.11914
G1 X96.085 Y99.756 E0.01500
G1 X95.945 Y100.060 E0.01619
G1 X95.880 Y100.388 E0.01618
G1 X95.893 Y100.723 E0.01619
G1 X95.984 Y101.045 E0.01619
G1 X96.085 Y101.244 E0.01080
G1 X96.217 Y101.425 E0.01081
G1 X96.375 Y101.583 E0.01080
G1 X96.556 Y101.715 E0.01081
G1 X96.755 Y101.816 E0.01080
G1 X96.967 Y101.885 E0.01081
G1 X97.300 Y101.925 E0.01619
G1 X97.633 Y101.885 E0.01619
G1 X97.947 Y101.770 E0.01619
G1 X98.225 Y101.583 E0.01618
G1 X98.463 Y101.324 E0.01700
G1 X105.224 Y101.324 E0.32672
G1 X105.224 Y89.724 E0.56055
G1 X106.276 Y89.724 E0.05081
G1 X106.276 Y102.876 E0.63551
G1 X96.276 Y102.876 E0.48323
G1 X96.276 Y107.243 E0.21105
G1 X93.724 Y107.243 E0.12329
G1 X93.724 Y89.797 E0.84305
G1 X95.062 Y90.087 F3600.000
G1 X95.041 Y90.065 E0.00153 F600.000
G1 X94.329 Y90.065 E0.03574
G1 X95.164 Y90.900 E0.05928
G1 X95.266 Y91.714 E0.04116
G1 X94.065 Y90.513 E0.08522
G1 X94.065 Y91.225 E0.03574
G1 X95.367 Y92.527 E0.09244
G1 X95.469 Y93.340 E0.04116
G1 X94.065 Y91.937 E0.09966
G1 X94.065 Y92.648 E0.03574
G1 X95.571 Y94.154 E0.10688
G1 X95.672 Y94.967 E0.04116
G1 X94.065 Y93.360 E0.11410
G1 X94.065 Y94.072 E0.03574
G1 X95.774 Y95.780 E0.12132
G1 X95.876 Y96.594 E0.04116
G1 X94.065 Y94.784 E0.12854
G1 X94.065 Y95.495 E0.03574
G1 X95.935 Y97.364 E0.13274
G1 X95.935 Y98.076 E0.03574
G1 X94.065 Y96.207 E0.13274
G1 X94.065 Y96.919 E0.03574
G1 X95.935 Y98.788 E0.13274
G1 X95.888 Y99.453 E0.03349
G1 X94.065 Y97.630 E0.12944
G1 X94.065 Y98.342 E0.03574
G1 X95.637 Y99.913 E0.11159
G1 X95.544 Y100.532 E0.03142
G1 X94.065 Y99.054 E0.10499
G1 X94.065 Y99.765 E0.03574
G1 X95.219 Y100.919 E0.08191
G1 X96.123 Y102.535 F3600.000
G1 X94.065 Y100.477 E0.14612 F600.000
G1 X94.065 Y101.189 E0.03574
G1 X95.935 Y103.058 E0.13274
G1 X95.935 Y103.770 E0.03574
G1 X94.065 Y101.900 E0.13274
G1 X94.065 Y102.612 E0.03574
G1 X95.935 Y104.481 E0.13274
G1 X95.935 Y105.193 E0.03574
G1 X94.065 Y103.324 E0.13274
G1 X94.065 Y104.035 E0.03574
G1 X95.935 Y105.905 E0.13274
G1 X95.935 Y106.616 E0.03574
G1 X94.065 Y104.747 E0.13274
G1 X94.065 Y105.459 E0.03574
G1 X95.509 Y106.902 E0.10249
G1 X94.797 Y106.902 E0.03574
G1 X94.065 Y106.170 E0.05196
G1 X94.065 Y106.882 E0.03574
G1 X94.085 Y106.902 E0.00142
G1 X96.955 Y102.404 F3600.000
G1 X96.939 Y102.387 E0.00112 F300.000
G1 X97.517 Y102.394 F3600.000
G1 X97.527 Y102.404 E0.00068 F300.000
G1 X105.696 Y101.316 F3600.000
G1 X105.804 Y100.723 E0.02980 F300.000
G1 X105.696 Y100.616 E0.00749 F300.000
G1 X105.804 Y100.023 E0.02980 F300.000
G1 X105.696 Y99.916 E0.00749 F300.000
G1 X105.804 Y99.322 E0.02980 F300.000
G1 X105.696 Y99.215 E0.00749 F300.000
G1 X105.804 Y98.622 E0.02980 F300.000
G1 X105.696 Y98.515 E0.00749 F300.000
G1 X105.804 Y97.921 E0.02980 F300.000
G1 X105.696 Y97.814 E0.00749 F300.000
G1 X105.804 Y97.221 E0.02980 F300.000
G1 X105.696 Y97.114 E0.00749 F300.000
G1 X105.804 Y96.520 E0.02980 F300.000
G1 X105.696 Y96.413 E0.00749 F300.000
G1 X105.804 Y95.820 E0.02980 F300.000
G1 X105.696 Y95.713 E0.00749 F300.000
G1 X105.804 Y95.120 E0.02980 F300.000
G1 X105.696 Y95.012 E0.00749 F300.000
G1 X105.804 Y94.419 E0.02980 F300.000
G1 X105.696 Y94.312 E0.00749 F300.000
G1 X105.804 Y93.719 E0.02980 F300.000
G1 X105.696 Y93.612 E0.00749 F300.000
G1 X105.804 Y93.018 E0.02980 F300.000
G1 X105.696 Y92.911 E0.00749 F300.000
G1 X105.804 Y92.318 E0.02980 F300.000
G1 X105.696 Y92.211 E0.00749 F300.000
G1 X105.804 Y91.617 E0.02980 F300.000
G1 X105.696 Y91.510 E0.00749 F300.000
G1 X105.804 Y90.917 E0.02980 F300.000
G1 X105.696 Y90.810 E0.00749 F300.000
G1 X105.804 Y90.216 E0.02980 F300.000
G1 X105.784 Y90.196 E0.00140 F300.000
G1 X105.696 Y101.316 F3600.000
G1 X105.716 Y101.336 E0.00140 F300.000
G1 X104.926 Y101.665 F3600.000
G1 X105.125 Y101.864 E0.01480 F600.000
G1 X105.915 Y101.908 E0.04161
G1 X105.935 Y101.928 E0.00149
G1 X105.796 Y102.535 E0.03278
G1 X105.169 Y101.908 E0.04668
G1 X105.050 Y102.535 E0.03359
G1 X104.180 Y101.665 E0.06470
G1 X103.434 Y101.665 E0.03927
G1 X104.304 Y102.535 E0.06470
G1 X103.558 Y102.535 E0.03927
G1 X102.688 Y101.665 E0.06470
G1 X101.942 Y101.665 E0.03927
G1 X102.812 Y102.535 E0.06470
G1 X102.066 Y102.535 E0.03927
G1 X101.196 Y101.665 E0.06470
G1 X100.450 Y101.665 E0.03927
G1 X101.320 Y102.535 E0.06470
G1 X100.574 Y102.535 E0.03927
G1 X99.704 Y101.665 E0.06470
G1 X99.005 Y101.712 E0.03691
G1 X99.828 Y102.535 E0.06126
G1 X99.082 Y102.535 E0.03927
G1 X98.588 Y102.041 E0.03677
G1 X98.309 Y102.508 E0.02865
G1 X98.336 Y102.535 E0.00195
G1 F1800.000 E-1.00000
G1 Z0.480 F3600.000
G1 X99.920 Y114.440 F3600.000
G1 E3.00000 F1800.000
G1 X98.500 Y114.960 E0.07307 F1200
G1 X97.000 Y115.130 E0.07295
G1 X93.000 Y115.130 E0.19329
G1 X91.730 Y115.010 E0.06164
G1 X90.520 Y114.640 E0.06114
G1 X89.400 Y114.040 E0.06140
G1 X88.410 Y113.240 E0.06151
G1 X87.610 Y112.250 E0.06151
G1 X87.010 Y111.130 E0.06140
G1 X86.640 Y109.920 E0.06114
G1 X86.520 Y108.650 E0.06164
G1 X86.520 Y89.000 E0.94954
G1 X86.640 Y87.730 E0.06164
G1 X87.010 Y86.520 E0.06114
G1 X87.610 Y85.400 E0.06140
G1 X88.410 Y84.410 E0.06151
G1 X89.400 Y83.610 E0.06151
G1 X90.520 Y83.010 E0.06140
G1 X91.730 Y82.640 E0.06114
G1 X93.000 Y82.520 E0.06164
G1 X107.000 Y82.520 E0.67652
G1 X108.270 Y82.640 E0.06164
G1 X109.480 Y83.010 E0.06114
G1 X110.600 Y83.610 E0.06140
G1 X111.590 Y84.410 E0.06151
G1 X112.390 Y85.400 E0.06151
G1 X112.990 Y86.520 E0.06140
G1 X113.360 Y87.730 E0.06114
G1 X113.480 Y89.000 E0.06164
G1 X113.480 Y103.600 E0.70551
G1 X113.330 Y105.020 E0.06900
G1 X112.860 Y106.370 E0.06908
G1 X112.120 Y107.590 E0.06895
G1 X111.120 Y108.610 E0.06903
G1 X109.920 Y109.390 E0.06916
G1 X99.985 Y114.407 E0.53784
G1 F1800.000 E-1.00000
G1 X96.750 Y108.401 F3600.000
G1 E3.00000 F1800.000
G1 X93.250 Y108.401 E0.28571 F1200
G1 X93.250 Y107.967 E0.03541
G1 X93.250 Y89.250 E0.93382 F840
G1 X95.779 Y89.250 E0.12619
G1 X96.750 Y97.016 E0.39044
G1 X96.750 Y99.715 E0.13470
G1 X96.531 Y99.941 E0.01569
G1 X96.422 Y100.136 E0.01115
G1 X96.361 Y100.351 E0.01115
G1 X96.362 Y100.649 E0.01483
G1 X96.422 Y100.864 E0.01114
G1 X96.490 Y100.996 E0.00744
G1 X96.683 Y101.223 E0.01483
G1 X96.936 Y101.378 E0.01483
G1 X97.078 Y101.424 E0.00744
G1 X97.300 Y101.450 E0.01114
G1 X97.594 Y101.404 E0.01483
G1 X97.859 Y101.269 E0.01483
G1 X98.023 Y101.117 E0.01114
G1 X98.192 Y100.850 E0.01579
G1 X104.750 Y100.850 E0.32717
G1 X104.750 Y89.250 E0.57873
G1 X106.750 Y89.250 E0.09978
G1 X106.750 Y103.350 E0.70345
G1 X96.750 Y103.350 E0.49890
G1 X96.750 Y107.967 E0.23036
G1 X96.750 Y108.326 E0.02929 F1200
G1 X96.317 Y108.151 F3600.000
G1 X96.250 Y107.901 F3600.000
G1 X93.750 Y107.901 E0.12473 F1200
G1 X93.750 Y89.750 E0.90556
G1 X95.338 Y89.750 E0.07922
G1 X96.250 Y97.047 E0.36687
G1 X96.250 Y99.491 E0.12194
G1 X96.063 Y99.742 E0.01562
G1 X95.920 Y100.052 E0.01701
G1 X95.854 Y100.386 E0.01701
G1 X95.867 Y100.727 E0.01702
G1 X95.920 Y100.948 E0.01136
G1 X96.008 Y101.159 E0.01137
G1 X96.126 Y101.353 E0.01135
G1 X96.358 Y101.603 E0.01701
G1 X96.542 Y101.737 E0.01136
G1 X96.745 Y101.840 E0.01135
G1 X96.961 Y101.911 E0.01136
G1 X97.300 Y101.951 E0.01701
G1 X97.639 Y101.910 E0.01701
G1 X97.958 Y101.793 E0.01701
G1 X98.242 Y101.603 E0.01701
G1 X98.476 Y101.350 E0.01718
G1 X105.250 Y101.350 E0.33798
G1 X105.250 Y89.750 E0.57873
G1 X106.250 Y89.750 E0.04989
G1 X106.250 Y102.850 E0.65356
G1 X96.250 Y102.850 E0.49890
G1 X96.250 Y107.826 E0.24826
G1 X95.830 Y107.462 F3600.000
G1 X95.810 Y107.482 E0.00236 F1200
G1 X94.627 Y107.482 E0.09879
G1 X95.830 Y106.278 E0.14207
G1 X95.830 Y105.095 E0.09879
G1 X94.170 Y106.756 E0.19608
G1 X94.170 Y105.572 E0.09879
G1 X95.830 Y103.912 E0.19608
G1 X95.830 Y102.728 E0.09879
G1 X94.170 Y104.389 E0.19608
G1 X94.170 Y103.206 E0.09879
G1 X95.583 Y101.793 E0.16686
G1 X94.970 Y101.223 E0.06990
G1 X94.170 Y102.023 E0.09444
G1 X94.170 Y100.839 E0.09879
G1 X95.830 Y99.179 E0.19608
G1 X95.830 Y97.995 E0.09879
G1 X94.170 Y99.656 E0.19608
G1 X94.170 Y98.473 E0.09879
G1 X95.801 Y96.841 E0.19266
G1 X95.670 Y95.789 E0.08850
G1 X94.170 Y97.289 E0.17713
G1 X94.170 Y96.106 E0.09879
G1 X95.538 Y94.737 E0.16161
G1 X95.407 Y93.685 E0.08850
G1 X94.170 Y94.923 E0.14609
G1 X94.170 Y93.739 E0.09879
G1 X95.275 Y92.634 E0.13056
G1 X95.144 Y91.582 E0.08850
G1 X94.170 Y92.556 E0.11504
G1 X94.170 Y91.373 E0.09879
G1 X95.013 Y90.530 E0.09952
G1 X94.190 Y90.170 E0.07500
G1 X94.170 Y90.190 E0.00236
G1 X96.196 Y102.363 F3600.000
G1 X96.128 Y102.430 E0.00800 F1200
G1 X98.359 Y102.420 F3600.000
G1 X98.539 Y102.241 E0.02407 F1200
G1 X99.691 Y102.430 E0.11062
G1 X100.352 Y101.770 E0.08849
G1 X101.034 Y102.430 E0.08990
G1 X101.694 Y101.770 E0.08849
G1 X102.376 Y102.430 E0.08990
G1 X103.037 Y101.770 E0.08849
G1 X103.718 Y102.430 E0.08990
G1 X104.379 Y101.770 E0.08849
G1 X105.060 Y102.430 E0.08990
G1 X105.080 Y102.410 E0.00268
G1 X105.750 Y101.350 F3600.000
G1 X105.740 Y100.620 E0.03812 F600
G1 X105.760 Y100.600 E0.00148 F600
G1 X105.740 Y99.880 E0.03761 F600
G1 X105.760 Y99.860 E0.00148 F600
G1 X105.740 Y99.140 E0.03761 F600
G1 X105.760 Y99.120 E0.00148 F600
G1 X105.740 Y98.400 E0.03761 F600
G1 X105.760 Y98.380 E0.00148 F600
G1 X105.740 Y97.660 E0.03761 F600
G1 X105.760 Y97.640 E0.00148 F600
G1 X105.740 Y96.920 E0.03761 F600
G1 X105.760 Y96.900 E0.00148 F600
G1 X105.740 Y96.180 E0.03761 F600
G1 X105.760 Y96.160 E0.00148 F600
G1 X105.740 Y95.440 E0.03761 F600
G1 X105.760 Y95.420 E0.00148 F600
G1 X105.740 Y94.700 E0.03761 F600
G1 X105.760 Y94.680 E0.00148 F600
G1 X105.740 Y93.960 E0.03761 F600
G1 X105.760 Y93.940 E0.00148 F600
G1 X105.740 Y93.220 E0.03761 F600
G1 X105.760 Y93.200 E0.00148 F600
G1 X105.740 Y92.480 E0.03761 F600
G1 X105.760 Y92.460 E0.00148 F600
G1 X105.740 Y91.740 E0.03761 F600
G1 X105.760 Y91.720 E0.00148 F600
G1 X105.740 Y91.000 E0.03761 F600
G1 X105.760 Y90.980 E0.00148 F600
G1 X105.740 Y90.260 E0.03761 F600
G1 X105.750 Y90.250 E0.00074 F600
G1 X105.760 Y101.340 F3600.000
G1 X105.750 Y101.350 E0.00074 F600
G1 X97.780 Y102.234 F3600.000
G1 X97.600 Y102.414 E0.00861 F600
G1 X97.245 Y102.289 E0.01275 F600
G1 X97.062 Y102.472 E0.00878 F600
G1 X96.820 Y102.234 E0.01151 F600
G1 X96.828 Y102.226 E0.00039 F600
G1 F1800.000 E-1.00000
G1 Z0.720 F3600.000
G1 X97.078 Y101.424 F3600.000
G1 E3.00000 F1800.000
G1 X97.300 Y101.450 E0.01114 F819.622
G1 X97.449 Y101.438 E0.00744
G1 X97.731 Y101.347 E0.01483
G1 X97.972 Y101.172 E0.01483
G1 X98.069 Y101.059 E0.00744
G1 X98.192 Y100.850 E0.01209
G1 X104.750 Y100.850 E0.32717
G1 X104.750 Y89.250 E0.57873
G1 X106.750 Y89.250 E0.09978
G1 X106.750 Y103.350 E0.70345
G1 X96.750 Y103.350 E0.49890
G1 X96.750 Y108.651 E0.26448
G1 X96.750 Y108.856 E0.01671 F1200
G1 X93.250 Y108.856 E0.28571
G1 X93.250 Y108.651 E0.01671
G1 X93.250 Y89.250 E0.96793 F819.622
G1 X95.779 Y89.250 E0.12619
G1 X96.750 Y97.016 E0.39044
G1 X96.750 Y99.715 E0.13470
G1 X96.577 Y99.883 E0.01199
G1 X96.453 Y100.069 E0.01114
G1 X96.376 Y100.278 E0.01114
G1 X96.353 Y100.575 E0.01483
G1 X96.422 Y100.864 E0.01483
G1 X96.531 Y101.059 E0.01115
G1 X96.741 Y101.269 E0.01483
G1 X97.006 Y101.404 E0.01481
G1 X97.082 Y101.437 F3600.000
G1 X96.994 Y101.917 F3600.000
G1 X97.186 Y101.946 E0.00968 F1170.888
G1 X97.414 Y101.946 E0.01136
G1 X97.639 Y101.911 E0.01135
G1 X97.855 Y101.840 E0.01136
G1 X98.058 Y101.737 E0.01135
G1 X98.242 Y101.603 E0.01136
G1 X98.476 Y101.350 E0.01718
G1 X105.250 Y101.350 E0.33798
G1 X105.250 Y89.750 E0.57873
G1 X106.250 Y89.750 E0.04989
G1 X106.250 Y102.850 E0.65356
G1 X96.250 Y102.850 E0.49890
G1 X96.250 Y108.356 E0.27469
G1 X93.750 Y108.356 E0.12473
G1 X93.750 Y89.750 E0.92825
G1 X95.338 Y89.750 E0.07922
G1 X96.250 Y97.047 E0.36687
G1 X96.250 Y99.491 E0.12193
G1 X96.063 Y99.742 E0.01562
G1 X95.920 Y100.052 E0.01702
G1 X95.854 Y100.386 E0.01701
G1 X95.867 Y100.727 E0.01701
G1 X95.974 Y101.086 E0.01867
G1 X96.063 Y101.258 E0.00968
G1 X96.197 Y101.442 E0.01136
G1 X96.358 Y101.603 E0.01136
G1 X96.542 Y101.737 E0.01136
G1 X96.745 Y101.840 E0.01135
G1 X96.922 Y101.899 E0.00930
G1 X94.190 Y107.936 F3600.000
G1 X94.170 Y107.916 E0.00231 F1170.888
G1 X94.170 Y106.758 E0.09459
G1 X95.347 Y107.936 E0.13608
G1 X95.830 Y107.261 E0.06780
G1 X94.170 Y105.600 E0.19186
G1 X94.170 Y104.443 E0.09459
G1 X95.830 Y106.103 E0.19186
G1 X95.830 Y104.945 E0.09459
G1 X94.170 Y103.285 E0.19186
G1 X94.170 Y102.127 E0.09459
G1 X95.830 Y103.788 E0.19186
G1 X95.820 Y102.620 E0.09540
G1 X94.170 Y100.969 E0.19072
G1 X94.898 Y100.540 E0.06908
G1 X94.170 Y99.811 E0.08417
G1 X94.997 Y99.481 E0.07278
G1 X94.170 Y98.653 E0.09559
G1 X94.170 Y97.496 E0.09459
G1 X95.573 Y98.899 E0.16213
G1 X95.830 Y97.998 E0.07651
G1 X94.170 Y96.338 E0.19186
G1 X94.170 Y95.180 E0.09459
G1 X95.797 Y96.807 E0.18803
G1 X95.632 Y95.484 E0.10894
G1 X94.170 Y94.022 E0.16892
G1 X94.170 Y92.864 E0.09459
G1 X95.466 Y94.161 E0.14981
G1 X95.301 Y92.838 E0.10894
G1 X94.170 Y91.706 E0.13070
G1 X95.136 Y91.514 E0.08045
G1 X94.170 Y90.548 E0.11159
G1 X94.949 Y90.170 E0.07076
G1 X94.970 Y90.191 E0.00248
G1 X94.000 Y102.024 F3600.000
G1 X98.369 Y102.430 F3600.000
