; generated by Slic3r 1.0.0RC3 on 2014-03-24 at 20:28:35

; layer_height = 0.24
; perimeters = 2
; top_solid_layers = 4
; bottom_solid_layers = 3
; fill_density = 0.4
; perimeter_speed = 20
; infill_speed = 20
; travel_speed = 60
; nozzle_diameter = 0.5
; filament_diameter = 1.75
; extrusion_multiplier = 1
; perimeters extrusion width = 0.50mm
; infill extrusion width = 0.87mm
; solid infill extrusion width = 0.85mm
; top infill extrusion width = 0.85mm
; first layer extrusion width = 0.48mm

G21 ; set units to millimeters
M107
M104 S205 ; set temperature
G21 ; set units to millimeters
G90 ; use absolute coordinates
M83 ; use relative distances for extrusion
M140 S65; Set bed temperature
G1 Z5 F200 ; lift nozzle
G1 X2 Y50 F2000; Go to wait for warm position
M116; Wait for all temperatures
G10 P0 S205 R0 ; Set extruder temperature
T0; Select extruder
M116; Wait for all temperatures
M109 S205 ; wait for temperature to be reached
G90 ; use absolute coordinates
M83 ; use relative distances for extrusion
G1 F1800.000 E-1.00000
G1 Z0.240 F3600.000
G1 X77.928 Y80.410 F3600.000
G1 E3.00000 F1800.000
G1 X78.918 Y79.610 E0.06151 F600.000
G1 X80.038 Y79.010 E0.06140
G1 X81.248 Y78.640 E0.06114
G1 X82.518 Y78.520 E0.06164
G1 X102.658 Y78.520 E0.97322
G1 X103.598 Y78.540 E0.04543
G1 X104.078 Y78.570 E0.02324
G1 X104.898 Y78.650 E0.03981
G1 X105.738 Y78.760 E0.04094
G1 X106.678 Y78.920 E0.04608
G1 X107.588 Y79.120 E0.04502
G1 X108.408 Y79.340 E0.04103
G1 X109.318 Y79.620 E0.04601
G1 X110.688 Y80.130 E0.07064
G1 X111.798 Y80.620 E0.05863
G1 X112.518 Y80.980 E0.03890
G1 X113.448 Y81.500 E0.05149
G1 X114.118 Y81.920 E0.03821
G1 X114.938 Y82.470 E0.04771
G1 X116.068 Y83.330 E0.06862
G1 X116.978 Y84.110 E0.05792
G1 X117.438 Y84.540 E0.03043
G1 X118.238 Y85.360 E0.05536
G1 X118.888 Y86.090 E0.04723
G1 X119.948 Y87.440 E0.08294
G1 X120.308 Y87.950 E0.03017
G1 X120.808 Y88.720 E0.04437
G1 X121.418 Y89.790 E0.05952
G1 X122.058 Y91.070 E0.06915
G1 X122.538 Y92.200 E0.05933
G1 X122.758 Y92.790 E0.03043
G1 X123.108 Y93.890 E0.05578
G1 X123.278 Y94.490 E0.03014
G1 X123.568 Y95.730 E0.06154
G1 X123.858 Y97.530 E0.08810
G1 X123.938 Y98.410 E0.04270
G1 X123.958 Y99.000 E0.02853
G1 X123.958 Y101.000 E0.09665
G1 X123.938 Y101.590 E0.02853
G1 X123.858 Y102.460 E0.04222
G1 X123.568 Y104.260 E0.08810
G1 X123.278 Y105.500 E0.06154
G1 X123.108 Y106.100 E0.03014
G1 X122.758 Y107.200 E0.05578
G1 X122.538 Y107.790 E0.03043
G1 X122.058 Y108.920 E0.05933
G1 X121.418 Y110.200 E0.06915
G1 X120.998 Y110.950 E0.04154
G1 X120.468 Y111.800 E0.04840
G1 X119.948 Y112.550 E0.04410
G1 X119.288 Y113.410 E0.05239
G1 X118.658 Y114.170 E0.04770
G1 X118.088 Y114.790 E0.04070
G1 X117.438 Y115.450 E0.04476
G1 X116.338 Y116.440 E0.07151
G1 X115.568 Y117.050 E0.04747
G1 X114.938 Y117.520 E0.03798
G1 X114.118 Y118.070 E0.04771
G1 X113.448 Y118.490 E0.03821
G1 X112.518 Y119.010 E0.05149
G1 X111.798 Y119.370 E0.03890
G1 X110.928 Y119.760 E0.04607
G1 X110.098 Y120.090 E0.04316
G1 X109.318 Y120.370 E0.04005
G1 X108.198 Y120.710 E0.05656
G1 X107.288 Y120.940 E0.04536
G1 X106.358 Y121.130 E0.04587
G1 X105.528 Y121.260 E0.04060
G1 X104.078 Y121.420 E0.07049
G1 X102.728 Y121.480 E0.06530
G1 X82.518 Y121.480 E0.97660
G1 X81.248 Y121.360 E0.06164
G1 X80.038 Y120.990 E0.06114
G1 X78.918 Y120.390 E0.06140
G1 X77.928 Y119.590 E0.06151
G1 X77.128 Y118.600 E0.06151
G1 X76.528 Y117.480 E0.06140
G1 X76.158 Y116.270 E0.06114
G1 X76.038 Y115.000 E0.06164
G1 X76.038 Y85.000 E1.44969
G1 X76.158 Y83.730 E0.06164
G1 X76.528 Y82.520 E0.06114
G1 X77.128 Y81.400 E0.06140
G1 X77.883 Y80.467 E0.05800
G1 F1800.000 E-1.00000
G1 X82.758 Y85.240 F3600.000
G1 E3.00000 F1800.000
G1 X102.278 Y85.240 E0.94326 F420.000
G1 X103.445 Y85.269 E0.05640
G1 X104.061 Y85.321 E0.02987
G1 X104.674 Y85.398 E0.02987
G1 X105.284 Y85.501 E0.02988
G1 X105.889 Y85.630 E0.02988
G1 X106.488 Y85.784 E0.02987
G1 X107.070 Y85.960 E0.02939
G1 X107.663 Y86.166 E0.03036
G1 X108.238 Y86.393 E0.02987
G1 X108.803 Y86.645 E0.02988
G1 X109.356 Y86.920 E0.02987
G1 X109.898 Y87.218 E0.02988
G1 X110.427 Y87.538 E0.02987
G1 X110.942 Y87.880 E0.02987
G1 X111.442 Y88.243 E0.02988
G1 X111.927 Y88.627 E0.02987
G1 X112.395 Y89.031 E0.02987
G1 X112.845 Y89.454 E0.02987
G1 X113.278 Y89.896 E0.02988
G1 X113.691 Y90.356 E0.02987
G1 X114.086 Y90.832 E0.02987
G1 X114.459 Y91.324 E0.02988
G1 X114.812 Y91.832 E0.02987
G1 X115.143 Y92.354 E0.02988
G1 X115.453 Y92.889 E0.02987
G1 X115.739 Y93.437 E0.02987
G1 X116.002 Y93.997 E0.02987
G1 X116.242 Y94.566 E0.02987
G1 X116.457 Y95.146 E0.02988
G1 X116.648 Y95.734 E0.02987
G1 X116.814 Y96.329 E0.02988
G1 X116.956 Y96.931 E0.02987
G1 X117.072 Y97.539 E0.02988
G1 X117.162 Y98.150 E0.02987
G1 X117.226 Y98.760 E0.02963
G1 X109.012 Y98.760 E0.39693
G1 X108.816 Y98.558 E0.01357
G1 X108.626 Y98.407 E0.01177
G1 X108.417 Y98.281 E0.01177
G1 X108.195 Y98.182 E0.01178
G1 X107.961 Y98.111 E0.01178
G1 X107.721 Y98.071 E0.01178
G1 X107.478 Y98.060 E0.01177
G1 X107.235 Y98.081 E0.01177
G1 X106.842 Y98.182 E0.01960
G1 X106.548 Y98.320 E0.01568
G1 X106.282 Y98.505 E0.01570
G1 X105.998 Y98.795 E0.01960
G1 X105.781 Y99.137 E0.01960
G1 X105.639 Y99.517 E0.01959
G1 X105.580 Y99.919 E0.01961
G1 X105.594 Y100.243 E0.01569
G1 X105.661 Y100.561 E0.01570
G1 X105.781 Y100.863 E0.01568
G1 X105.949 Y101.140 E0.01569
G1 X106.161 Y101.386 E0.01569
G1 X106.411 Y101.593 E0.01569
G1 X106.692 Y101.755 E0.01568
G1 X106.996 Y101.869 E0.01569
G1 X107.316 Y101.929 E0.01570
G1 X107.559 Y101.940 E0.01177
G1 X107.802 Y101.919 E0.01176
G1 X108.040 Y101.869 E0.01179
G1 X108.270 Y101.788 E0.01177
G1 X108.488 Y101.680 E0.01176
G1 X108.691 Y101.545 E0.01178
G1 X109.012 Y101.240 E0.02140
G1 X117.226 Y101.240 E0.39693
G1 X117.162 Y101.850 E0.02963
G1 X117.072 Y102.461 E0.02987
G1 X116.956 Y103.069 E0.02988
G1 X116.814 Y103.671 E0.02987
G1 X116.648 Y104.266 E0.02988
G1 X116.457 Y104.854 E0.02987
G1 X116.242 Y105.434 E0.02988
G1 X116.002 Y106.003 E0.02987
G1 X115.739 Y106.563 E0.02987
G1 X115.453 Y107.111 E0.02988
G1 X115.143 Y107.646 E0.02987
G1 X114.812 Y108.168 E0.02988
G1 X114.459 Y108.676 E0.02987
G1 X114.086 Y109.168 E0.02987
G1 X113.691 Y109.644 E0.02988
G1 X113.278 Y110.104 E0.02987
G1 X112.845 Y110.546 E0.02988
G1 X112.395 Y110.969 E0.02987
G1 X111.927 Y111.373 E0.02987
G1 X111.442 Y111.757 E0.02987
G1 X110.942 Y112.120 E0.02988
G1 X110.427 Y112.462 E0.02988
G1 X109.898 Y112.783 E0.02987
G1 X109.356 Y113.080 E0.02988
G1 X108.803 Y113.355 E0.02987
G1 X108.238 Y113.607 E0.02988
G1 X107.663 Y113.834 E0.02987
G1 X107.079 Y114.037 E0.02987
G1 X106.488 Y114.216 E0.02988
G1 X105.889 Y114.370 E0.02987
G1 X105.284 Y114.498 E0.02988
G1 X104.674 Y114.602 E0.02988
G1 X104.061 Y114.679 E0.02987
G1 X103.445 Y114.731 E0.02987
G1 X102.827 Y114.757 E0.02988
G1 X82.758 Y114.760 E0.96979
G1 X82.758 Y85.313 E1.42298
G1 X83.178 Y85.482 F3600.000
G1 X83.243 Y85.724 F3600.000
G1 X102.817 Y85.728 E0.94590 F600.000
G1 X103.415 Y85.753 E0.02890
G1 X104.010 Y85.803 E0.02889
G1 X104.604 Y85.878 E0.02890
G1 X105.193 Y85.977 E0.02889
G1 X105.778 Y86.102 E0.02889
G1 X106.357 Y86.250 E0.02889
G1 X106.930 Y86.423 E0.02890
G1 X107.494 Y86.620 E0.02889
G1 X108.050 Y86.840 E0.02889
G1 X108.597 Y87.083 E0.02889
G1 X109.656 Y87.637 E0.05778
G1 X110.168 Y87.947 E0.02889
G1 X110.666 Y88.278 E0.02889
G1 X111.149 Y88.629 E0.02890
G1 X111.618 Y89.001 E0.02889
G1 X112.071 Y89.391 E0.02889
G1 X112.925 Y90.228 E0.05777
G1 X113.325 Y90.672 E0.02889
G1 X113.706 Y91.133 E0.02889
G1 X114.068 Y91.609 E0.02889
G1 X114.729 Y92.605 E0.05777
G1 X115.028 Y93.123 E0.02889
G1 X115.305 Y93.653 E0.02889
G1 X115.560 Y94.194 E0.02889
G1 X116.000 Y95.305 E0.05778
G1 X116.185 Y95.874 E0.02889
G1 X116.482 Y97.032 E0.05778
G1 X116.594 Y97.619 E0.02890
G1 X116.691 Y98.276 E0.03206
G1 X109.223 Y98.276 E0.36087
G1 X109.064 Y98.132 E0.01037
G1 X108.817 Y97.953 E0.01473
G1 X108.551 Y97.807 E0.01467
G1 X108.267 Y97.694 E0.01475
G1 X107.973 Y97.618 E0.01471
G1 X107.670 Y97.580 E0.01471
G1 X107.366 Y97.580 E0.01469
G1 X107.064 Y97.618 E0.01472
G1 X106.658 Y97.734 E0.02040
G1 X106.220 Y97.953 E0.02368
G1 X105.973 Y98.132 E0.01474
G1 X105.822 Y98.268 E0.00981
G1 X105.557 Y98.575 E0.01961
G1 X105.340 Y98.937 E0.02039
G1 X105.170 Y99.397 E0.02368
G1 X105.125 Y99.612 E0.01062
G1 X105.096 Y99.898 E0.01394
G1 X105.113 Y100.304 E0.01960
G1 X105.198 Y100.701 E0.01964
G1 X105.347 Y101.078 E0.01958
G1 X105.557 Y101.425 E0.01960
G1 X105.822 Y101.732 E0.01961
G1 X106.134 Y101.991 E0.01960
G1 X106.485 Y102.193 E0.01959
G1 X106.866 Y102.335 E0.01962
G1 X107.265 Y102.411 E0.01964
G1 X107.569 Y102.424 E0.01470
G1 X107.872 Y102.399 E0.01468
G1 X108.154 Y102.339 E0.01394
G1 X108.363 Y102.273 E0.01059
G1 X108.551 Y102.194 E0.00984
G1 X108.817 Y102.047 E0.01467
G1 X109.064 Y101.868 E0.01474
G1 X109.223 Y101.724 E0.01037
G1 X116.691 Y101.724 E0.36087
G1 X116.594 Y102.381 E0.03206
G1 X116.482 Y102.968 E0.02890
G1 X116.345 Y103.550 E0.02889
G1 X116.185 Y104.126 E0.02890
G1 X115.791 Y105.255 E0.05778
G1 X115.560 Y105.806 E0.02889
G1 X115.305 Y106.347 E0.02889
G1 X115.028 Y106.877 E0.02889
G1 X114.729 Y107.395 E0.02890
G1 X114.068 Y108.391 E0.05777
G1 X113.706 Y108.867 E0.02889
G1 X113.325 Y109.328 E0.02889
G1 X112.925 Y109.772 E0.02889
G1 X112.071 Y110.609 E0.05778
G1 X111.618 Y110.999 E0.02889
G1 X111.149 Y111.371 E0.02889
G1 X110.666 Y111.722 E0.02890
G1 X110.167 Y112.053 E0.02890
G1 X109.656 Y112.363 E0.02889
G1 X109.132 Y112.651 E0.02890
G1 X108.597 Y112.917 E0.02889
G1 X107.494 Y113.380 E0.05778
G1 X106.930 Y113.577 E0.02889
G1 X106.357 Y113.750 E0.02890
G1 X105.778 Y113.898 E0.02889
G1 X105.193 Y114.023 E0.02889
G1 X104.604 Y114.122 E0.02890
G1 X104.010 Y114.197 E0.02889
G1 X103.415 Y114.247 E0.02889
G1 X102.817 Y114.272 E0.02890
G1 X83.243 Y114.276 E0.94590
G1 X83.243 Y85.797 E1.37618
G1 X90.294 Y86.065 F3600.000
G1 X104.822 Y100.592 E1.00191 F600.000
G1 X104.760 Y99.840 E0.03682
G1 X90.986 Y86.065 E0.95001
G1 X91.677 Y86.065 E0.03371
G1 X104.861 Y99.250 E0.90931
G1 X105.052 Y98.750 E0.02611
G1 X92.368 Y86.065 E0.87481
G1 X93.059 Y86.065 E0.03371
G1 X105.322 Y98.328 E0.84571
G1 X105.650 Y97.965 E0.02386
G1 X93.750 Y86.065 E0.82072
G1 X94.442 Y86.065 E0.03371
G1 X106.039 Y97.663 E0.79985
G1 X106.499 Y97.431 E0.02510
G1 X95.133 Y86.065 E0.78387
G1 X95.824 Y86.065 E0.03371
G1 X107.037 Y97.278 E0.77335
G1 X107.694 Y97.244 E0.03208
G1 X96.515 Y86.065 E0.77098
G1 X97.207 Y86.065 E0.03371
G1 X108.592 Y97.451 E0.78522
G1 X109.767 Y97.935 F3600.000
G1 X97.898 Y86.065 E0.81860 F600.000
G1 X98.589 Y86.065 E0.03371
G1 X110.458 Y97.935 E0.81860
G1 X111.149 Y97.935 E0.03371
G1 X99.280 Y86.065 E0.81860
G1 X99.971 Y86.065 E0.03371
G1 X111.841 Y97.935 E0.81860
G1 X112.532 Y97.935 E0.03371
G1 X100.663 Y86.065 E0.81860
G1 X101.354 Y86.065 E0.03371
G1 X113.223 Y97.935 E0.81860
G1 X113.914 Y97.935 E0.03371
G1 X102.046 Y86.066 E0.81854
G1 X102.739 Y86.068 E0.03382
G1 X114.605 Y97.935 E0.81839
G1 X115.297 Y97.935 E0.03371
G1 X103.461 Y86.099 E0.81630
G1 X104.227 Y86.174 E0.03755
G1 X115.988 Y97.935 E0.81112
G1 X115.742 Y95.615 F3600.000
G1 X106.901 Y86.774 E0.60973 F600.000
G1 X105.928 Y86.492 E0.04942
G1 X116.013 Y96.578 E0.69557
G1 X116.219 Y97.475 E0.04489
G1 X105.042 Y86.298 E0.77087
G1 X108.016 Y87.198 F3600.000
G1 X115.312 Y94.494 E0.50317 F600.000
G1 X114.637 Y93.128 F3600.000
G1 X109.394 Y87.885 E0.36163 F600.000
G1 X111.994 Y89.793 F3600.000
G1 X112.806 Y90.606 E0.05604 F600.000
G1 F1800.000 E-1.00000
G1 X115.971 Y102.065 F3600.000
G1 E3.00000 F1800.000
G1 X116.253 Y102.347 E0.01943 F600.000
G1 X116.141 Y102.926 E0.02875
G1 X115.280 Y102.065 E0.05934
G1 X114.589 Y102.065 E0.03371
G1 X115.999 Y103.476 E0.09728
G1 X115.858 Y104.026 E0.02769
G1 X113.898 Y102.065 E0.13521
G1 X113.207 Y102.065 E0.03371
G1 X115.680 Y104.539 E0.17057
G1 X115.501 Y105.051 E0.02647
G1 X112.515 Y102.065 E0.20593
G1 X111.824 Y102.065 E0.03371
G1 X115.301 Y105.542 E0.23978
G1 X115.084 Y106.016 E0.02544
G1 X111.133 Y102.065 E0.27249
G1 X110.442 Y102.065 E0.03371
G1 X114.853 Y106.476 E0.30422
G1 X114.608 Y106.923 E0.02483
G1 X109.750 Y102.065 E0.33501
G1 X109.194 Y102.200 E0.02791
G1 X114.347 Y107.353 E0.35540
G1 X114.071 Y107.769 E0.02432
G1 X108.766 Y102.463 E0.36593
G1 X108.272 Y102.661 E0.02592
G1 X113.796 Y108.184 E0.38092
G1 X113.498 Y108.577 E0.02406
G1 X107.673 Y102.753 E0.40172
G1 X106.926 Y102.696 E0.03656
G1 X113.188 Y108.959 E0.43189
G1 X112.866 Y109.328 E0.02389
G1 X89.603 Y86.065 E1.60438
G1 X88.912 Y86.065 E0.03371
G1 X112.528 Y109.681 E1.62875
G1 X112.182 Y110.027 E0.02384
G1 X88.221 Y86.065 E1.65258
G1 X87.530 Y86.065 E0.03371
G1 X111.830 Y110.366 E1.67596
G1 X111.459 Y110.686 E0.02390
G1 X86.838 Y86.065 E1.69804
G1 X86.147 Y86.065 E0.03371
G1 X111.069 Y110.988 E1.71884
G1 X110.676 Y111.286 E0.02406
G1 X85.456 Y86.065 E1.73941
G1 X84.765 Y86.065 E0.03371
G1 X110.273 Y111.574 E1.75926
G1 X109.853 Y111.845 E0.02438
G1 X84.074 Y86.065 E1.77797
G1 X83.584 Y86.267 E0.02583
G1 X109.420 Y112.103 E1.78192
G1 X108.974 Y112.349 E0.02482
G1 X83.584 Y86.958 E1.75116
G1 X83.584 Y87.649 E0.03371
G1 X108.513 Y112.578 E1.71930
G1 X108.029 Y112.785 E0.02566
G1 X83.584 Y88.340 E1.68595
G1 X83.584 Y89.031 E0.03371
G1 X107.542 Y112.990 E1.65239
G1 X107.039 Y113.178 E0.02621
G1 X83.584 Y89.723 E1.61766
G1 X83.584 Y90.414 E0.03371
G1 X106.510 Y113.340 E1.58118
G1 X105.970 Y113.491 E0.02736
G1 X83.584 Y91.105 E1.54391
G1 X83.584 Y91.796 E0.03371
G1 X105.409 Y113.622 E1.50526
G1 X104.829 Y113.732 E0.02882
G1 X83.584 Y92.487 E1.46522
G1 X83.584 Y93.179 E0.03371
G1 X104.224 Y113.819 E1.42356
G1 X103.599 Y113.885 E0.03067
G1 X83.584 Y93.870 E1.38042
G1 X83.584 Y94.561 E0.03371
G1 X102.948 Y113.926 E1.33554
G1 X102.265 Y113.933 E0.03334
G1 X83.584 Y95.252 E1.28839
G1 X83.584 Y95.943 E0.03371
G1 X101.575 Y113.935 E1.24082
G1 X100.884 Y113.935 E0.03371
G1 X83.584 Y96.635 E1.19315
G1 X83.584 Y97.326 E0.03371
G1 X100.193 Y113.935 E1.14548
G1 X99.501 Y113.935 E0.03371
G1 X83.584 Y98.017 E1.09781
G1 X83.584 Y98.708 E0.03371
G1 X98.810 Y113.935 E1.05014
G1 X98.119 Y113.935 E0.03371
G1 X83.584 Y99.399 E1.00247
G1 X83.584 Y100.091 E0.03371
G1 X97.428 Y113.935 E0.95480
G1 X96.736 Y113.935 E0.03371
G1 X83.584 Y100.782 E0.90713
G1 X83.584 Y101.473 E0.03371
G1 X96.045 Y113.935 E0.85946
G1 X95.354 Y113.935 E0.03371
G1 X83.584 Y102.164 E0.81179
G1 X83.584 Y102.855 E0.03371
G1 X94.663 Y113.935 E0.76411
G1 X93.972 Y113.935 E0.03371
G1 X83.584 Y103.547 E0.71644
G1 X83.584 Y104.238 E0.03371
G1 X93.280 Y113.935 E0.66877
G1 X92.589 Y113.935 E0.03371
G1 X83.584 Y104.929 E0.62110
G1 X83.584 Y105.620 E0.03371
G1 X91.898 Y113.935 E0.57343
G1 X91.207 Y113.935 E0.03371
G1 X83.584 Y106.311 E0.52576
G1 X83.584 Y107.003 E0.03371
G1 X90.516 Y113.935 E0.47809
G1 X89.824 Y113.935 E0.03371
G1 X83.584 Y107.694 E0.43042
G1 X83.584 Y108.385 E0.03371
G1 X89.133 Y113.935 E0.38275
G1 X88.442 Y113.935 E0.03371
G1 X83.584 Y109.076 E0.33508
G1 X83.584 Y109.767 E0.03371
G1 X87.751 Y113.935 E0.28741
G1 X87.060 Y113.935 E0.03371
G1 X83.584 Y110.459 E0.23973
G1 X83.584 Y111.150 E0.03371
G1 X86.368 Y113.935 E0.19206
G1 X85.677 Y113.935 E0.03371
G1 X83.584 Y111.841 E0.14439
G1 X83.584 Y112.532 E0.03371
G1 X84.986 Y113.935 E0.09672
G1 X84.295 Y113.935 E0.03371
G1 X83.584 Y113.223 E0.04905
G1 X83.584 Y113.915 E0.03371
G1 X83.604 Y113.935 E0.00138
G1 F1800.000 E-1.00000
G1 Z0.480 F3600.000
G1 X89.040 Y114.000 F3600.000
G1 X86.270 Y117.000 F3600.000
G1 X82.518 Y121.480 F3600.000
G1 E3.00000 F1800.000
G1 X81.248 Y121.360 E0.06164 F1200
G1 X80.038 Y120.990 E0.06114
G1 X78.918 Y120.390 E0.06140
G1 X77.928 Y119.590 E0.06151
G1 X77.128 Y118.600 E0.06151
G1 X76.528 Y117.480 E0.06140
G1 X76.158 Y116.270 E0.06114
G1 X76.038 Y115.000 E0.06164
G1 X76.038 Y85.000 E1.44969
G1 X76.158 Y83.730 E0.06164
G1 X76.528 Y82.520 E0.06114
G1 X77.128 Y81.400 E0.06140
G1 X77.928 Y80.410 E0.06151
G1 X78.918 Y79.610 E0.06151
G1 X80.038 Y79.010 E0.06140
G1 X81.248 Y78.640 E0.06114
G1 X82.518 Y78.520 E0.06164
G1 X102.658 Y78.520 E0.97322
G1 X103.598 Y78.540 E0.04543
G1 X104.078 Y78.570 E0.02324
G1 X104.898 Y78.650 E0.03981
G1 X105.738 Y78.760 E0.04094
