; generated by Slic3r 1.0.0RC3 on 2014-03-24 at 20:38:53

; layer_height = 0.12
; perimeters = 2
; top_solid_layers = 4
; bottom_solid_layers = 3
; fill_density = 0.4
; perimeter_speed = 20
; infill_speed = 20
; travel_speed = 60
; nozzle_diameter = 0.5
; filament_diameter = 1.75
; extrusion_multiplier = 1
; perimeters extrusion width = 0.50mm
; infill extrusion width = 1.66mm
; solid infill extrusion width = 0.85mm
; top infill extrusion width = 0.85mm
; first layer extrusion width = 0.24mm

G21 ; set units to millimeters
M107
M104 S205 ; set temperature
G21 ; set units to millimeters
G90 ; use absolute coordinates
M83 ; use relative distances for extrusion
M140 S65; Set bed temperature
G1 Z5 F200 ; lift nozzle
G1 X2 Y50 F2000; Go to wait for warm position
M116; Wait for all temperatures
G10 P0 S205 R0 ; Set extruder temperature
T0; Select extruder
M116; Wait for all temperatures
M109 S205 ; wait for temperature to be reached
G90 ; use absolute coordinates
M83 ; use relative distances for extrusion
G1 F1800.000 E-1.00000
G1 Z0.120 F3600.000
G1 X89.122 Y90.805 F3600.000
G1 E3.00000 F1800.000
G1 X89.672 Y90.285 E0.01117 F600.000
G1 X92.292 Y88.105 E0.05030
G1 X92.922 Y87.645 E0.01151
G1 X93.602 Y87.265 E0.01150
G1 X94.102 Y87.025 E0.00818
G1 X95.132 Y86.615 E0.01636
G1 X95.842 Y86.395 E0.01097
G1 X96.582 Y86.255 E0.01111
G1 X99.972 Y85.835 E0.05041
G1 X100.732 Y85.785 E0.01124
G1 X101.492 Y85.835 E0.01124
G1 X102.472 Y85.975 E0.01461
G1 X103.072 Y86.095 E0.00903
G1 X103.842 Y86.295 E0.01174
G1 X104.572 Y86.595 E0.01165
G1 X107.642 Y88.075 E0.05029
G1 X108.322 Y88.455 E0.01150
G1 X108.942 Y88.905 E0.01131
G1 X109.302 Y89.205 E0.00692
G1 X110.092 Y89.945 E0.01597
G1 X110.642 Y90.535 E0.01190
G1 X111.102 Y91.195 E0.01187
G1 X112.892 Y94.105 E0.05042
G1 X113.282 Y94.835 E0.01221
G1 X113.572 Y95.615 E0.01228
G1 X113.862 Y96.645 E0.01579
G1 X113.962 Y97.085 E0.00666
G1 X114.082 Y97.845 E0.01135
G1 X114.112 Y98.615 E0.01137
G1 X114.042 Y102.025 E0.05033
G1 X113.982 Y102.825 E0.01184
G1 X113.812 Y103.615 E0.01193
G1 X113.532 Y104.565 E0.01462
G1 X113.372 Y105.025 E0.00719
G1 X113.052 Y105.765 E0.01190
G1 X112.642 Y106.465 E0.01197
G1 X110.732 Y109.305 E0.05051
G1 X110.252 Y109.945 E0.01181
G1 X109.682 Y110.515 E0.01190
G1 X109.252 Y110.895 E0.00847
G1 X108.482 Y111.495 E0.01441
G1 X107.842 Y111.925 E0.01138
G1 X107.162 Y112.275 E0.01129
G1 X104.032 Y113.635 E0.05036
G1 X103.262 Y113.915 E0.01209
G1 X102.462 Y114.095 E0.01210
G1 X101.932 Y114.175 E0.00791
G1 X100.952 Y114.265 E0.01452
G1 X100.172 Y114.285 E0.01151
G1 X99.402 Y114.205 E0.01142
G1 X96.032 Y113.655 E0.05039
G1 X95.212 Y113.475 E0.01239
G1 X94.432 Y113.175 E0.01233
G1 X93.702 Y112.835 E0.01188
G1 X93.142 Y112.545 E0.00931
G1 X92.462 Y112.135 E0.01172
G1 X91.832 Y111.645 E0.01178
G1 X89.292 Y109.365 E0.05037
G1 X88.712 Y108.765 E0.01232
G1 X88.222 Y108.105 E0.01213
G1 X87.982 Y107.735 E0.00651
G1 X87.492 Y106.905 E0.01422
G1 X87.122 Y106.165 E0.01221
G1 X86.852 Y105.385 E0.01218
G1 X85.952 Y102.085 E0.05048
G1 X85.782 Y101.265 E0.01236
G1 X85.722 Y100.425 E0.01243
G1 X85.742 Y99.365 E0.01565
G1 X85.772 Y98.905 E0.00680
G1 X85.862 Y98.165 E0.01100
G1 X86.042 Y97.435 E0.01110
G1 X87.062 Y94.175 E0.05041
G1 X87.352 Y93.425 E0.01187
G1 X87.742 Y92.705 E0.01208
G1 X88.322 Y91.805 E0.01580
G1 X88.632 Y91.385 E0.00770
G1 X89.093 Y90.839 E0.01055
G1 F1800.000 E-1.00000
G1 X93.954 Y95.203 F3600.000
G1 E3.00000 F1800.000
G1 X94.521 Y95.258 E0.00840 F420.000
G1 X95.009 Y95.383 E0.00743
G1 X95.335 Y95.522 E0.00524
G1 X95.558 Y95.671 E0.00395
G1 X96.036 Y96.153 E0.01002
G1 X96.272 Y95.896 E0.00516
G1 X96.974 Y95.371 E0.01293
G1 X96.597 Y94.815 E0.00992
G1 X96.497 Y94.568 E0.00393
G1 X96.426 Y94.221 E0.00523
G1 X96.399 Y93.717 E0.00744
G1 X96.460 Y93.151 E0.00840
G1 X96.926 Y92.931 E0.00762
G1 X97.526 Y92.701 E0.00947
G1 X97.974 Y93.053 E0.00840
G1 X98.316 Y93.423 E0.00744
G1 X98.516 Y93.717 E0.00524
G1 X98.622 Y93.961 E0.00394
G1 X98.763 Y94.626 E0.01003
G1 X99.101 Y94.538 E0.00516
G1 X99.976 Y94.476 E0.01293
G1 X99.959 Y93.804 E0.00991
G1 X100.009 Y93.541 E0.00394
G1 X100.136 Y93.211 E0.00523
G1 X100.386 Y92.773 E0.00744
G1 X100.742 Y92.330 E0.00839
G1 X101.211 Y92.390 E0.00697
G1 X101.883 Y92.527 E0.01012
G1 X102.069 Y93.066 E0.00842
G1 X102.158 Y93.561 E0.00742
G1 X102.167 Y93.916 E0.00524
G1 X102.124 Y94.180 E0.00394
G1 X101.884 Y94.815 E0.01003
G1 X102.215 Y94.924 E0.00515
G1 X102.985 Y95.344 E0.01294
G1 X103.334 Y94.770 E0.00991
G1 X103.517 Y94.577 E0.00393
G1 X103.804 Y94.367 E0.00524
G1 X104.250 Y94.135 E0.00743
G1 X104.789 Y93.955 E0.00839
G1 X105.299 Y94.392 E0.00991
G1 X105.642 Y94.736 E0.00717
G1 X105.508 Y95.290 E0.00842
G1 X105.314 Y95.756 E0.00744
G1 X105.130 Y96.059 E0.00524
G1 X104.952 Y96.258 E0.00395
G1 X104.407 Y96.662 E0.01000
G1 X104.627 Y96.933 E0.00515
G1 X105.047 Y97.703 E0.01295
G1 X105.651 Y97.408 E0.00993
G1 X105.909 Y97.345 E0.00392
G1 X106.264 Y97.323 E0.00523
G1 X106.766 Y97.369 E0.00744
G1 X107.316 Y97.509 E0.00838
G1 X107.497 Y98.109 E0.00926
G1 X107.612 Y98.627 E0.00783
G1 X107.198 Y99.022 E0.00844
G1 X106.784 Y99.308 E0.00743
G1 X106.465 Y99.464 E0.00523
G1 X106.208 Y99.535 E0.00394
G1 X105.530 Y99.580 E0.01003
G1 X105.569 Y99.927 E0.00514
G1 X105.507 Y100.801 E0.01294
G1 X106.174 Y100.880 E0.00992
G1 X106.426 Y100.966 E0.00393
G1 X106.735 Y101.140 E0.00524
G1 X107.133 Y101.449 E0.00743
G1 X107.520 Y101.865 E0.00838
G1 X107.361 Y102.426 E0.00860
G1 X107.163 Y102.966 E0.00849
G1 X106.603 Y103.074 E0.00841
G1 X106.100 Y103.091 E0.00743
G1 X105.747 Y103.049 E0.00524
G1 X105.492 Y102.970 E0.00394
G1 X104.898 Y102.641 E0.01002
G1 X104.743 Y102.954 E0.00516
G1 X104.217 Y103.655 E0.01294
G1 X104.736 Y104.083 E0.00994
G1 X104.902 Y104.292 E0.00393
G1 X105.068 Y104.605 E0.00523
G1 X105.235 Y105.080 E0.00743
G1 X105.337 Y105.642 E0.00842
G1 X104.934 Y105.998 E0.00794
G1 X104.440 Y106.373 E0.00915
G1 X103.912 Y106.161 E0.00840
G1 X103.479 Y105.903 E0.00744
G1 X103.205 Y105.677 E0.00523
G1 X103.034 Y105.473 E0.00393
G1 X102.711 Y104.876 E0.01001
G1 X102.412 Y105.055 E0.00515
G1 X101.590 Y105.361 E0.01294
G1 X101.795 Y106.001 E0.00991
G1 X101.821 Y106.266 E0.00394
G1 X101.793 Y106.620 E0.00524
G1 X101.676 Y107.110 E0.00744
G1 X101.458 Y107.636 E0.00840
G1 X100.970 Y107.713 E0.00728
G1 X100.309 Y107.767 E0.00980
G1 X99.978 Y107.303 E0.00841
G1 X99.754 Y106.852 E0.00743
G1 X99.645 Y106.514 E0.00524
G1 X99.611 Y106.249 E0.00394
G1 X99.663 Y105.573 E0.01001
G1 X99.315 Y105.562 E0.00514
G1 X98.457 Y105.375 E0.01295
G1 X98.284 Y106.025 E0.00992
G1 X98.163 Y106.262 E0.00393
G1 X97.948 Y106.544 E0.00524
G1 X97.585 Y106.893 E0.00742
G1 X97.118 Y107.217 E0.00840
G1 X96.486 Y106.931 E0.01023
G1 X96.079 Y106.707 E0.00686
G1 X96.052 Y106.138 E0.00841
G1 X96.107 Y105.636 E0.00744
G1 X96.198 Y105.294 E0.00523
G1 X96.313 Y105.052 E0.00395
G1 X96.723 Y104.510 E0.01002
G1 X96.435 Y104.313 E0.00514
G1 X95.814 Y103.693 E0.01295
G1 X95.318 Y104.146 E0.00991
G1 X95.089 Y104.280 E0.00393
G1 X94.754 Y104.400 E0.00524
G1 X94.260 Y104.498 E0.00744
G1 X93.693 Y104.518 E0.00838
G1 X93.338 Y103.974 E0.00959
G1 X93.093 Y103.528 E0.00751
G1 X93.380 Y103.034 E0.00843
G1 X93.697 Y102.642 E0.00744
G1 X93.958 Y102.403 E0.00523
G1 X94.185 Y102.263 E0.00394
G1 X94.823 Y102.028 E0.01003
G1 X94.688 Y101.707 E0.00514
G1 X94.502 Y100.849 E0.01295
G1 X93.839 Y100.961 E0.00993
G1 X93.572 Y100.951 E0.00393
G1 X93.226 Y100.871 E0.00524
G1 X92.758 Y100.686 E0.00743
G1 X92.270 Y100.396 E0.00838
G1 X92.264 Y99.791 E0.00893
G1 X92.300 Y99.241 E0.00814
G1 X92.809 Y98.978 E0.00845
G1 X93.287 Y98.820 E0.00743
G1 X93.636 Y98.760 E0.00523
G1 X93.904 Y98.765 E0.00396
G1 X94.568 Y98.913 E0.01003
G1 X94.627 Y98.569 E0.00515
G1 X94.934 Y97.747 E0.01295
G1 X94.316 Y97.484 E0.00992
G1 X94.097 Y97.329 E0.00395
G1 X93.850 Y97.076 E0.00523
G1 X93.555 Y96.667 E0.00743
G1 X93.300 Y96.157 E0.00843
G1 X93.599 Y95.684 E0.00825
G1 X93.926 Y95.238 E0.00816
G1 X94.160 Y95.416 F3600.000
G1 X94.087 Y95.514 F3600.000
G1 X94.473 Y95.551 E0.00574 F600.000
G1 X94.917 Y95.665 E0.00676
G1 X95.201 Y95.787 E0.00457
G1 X95.356 Y95.888 E0.00273
G1 X96.048 Y96.576 E0.01440
G1 X96.473 Y96.116 E0.00924
G1 X97.373 Y95.434 E0.01666
G1 X96.849 Y94.658 E0.01381
G1 X96.781 Y94.483 E0.00277
G1 X96.720 Y94.179 E0.00458
G1 X96.696 Y93.721 E0.00677
G1 X96.736 Y93.345 E0.00559
G1 X97.469 Y93.034 E0.01175
G1 X97.775 Y93.274 E0.00574
G1 X98.086 Y93.611 E0.00676
G1 X98.260 Y93.868 E0.00457
G1 X98.329 Y94.015 E0.00241
G1 X98.544 Y94.989 E0.01471
G1 X99.151 Y94.831 E0.00925
G1 X100.277 Y94.744 E0.01667
G1 X100.255 Y93.810 E0.01379
G1 X100.294 Y93.624 E0.00279
G1 X100.406 Y93.335 E0.00458
G1 X100.634 Y92.937 E0.00677
G1 X100.873 Y92.640 E0.00562
G1 X101.655 Y92.776 E0.01172
G1 X101.783 Y93.145 E0.00577
G1 X101.863 Y93.595 E0.00675
G1 X101.870 Y93.905 E0.00458
G1 X101.849 Y94.065 E0.00238
G1 X101.504 Y95.002 E0.01474
G1 X102.099 Y95.198 E0.00924
G1 X103.094 Y95.732 E0.01667
G1 X103.594 Y94.917 E0.01411
G1 X103.712 Y94.801 E0.00245
G1 X103.964 Y94.617 E0.00459
G1 X104.370 Y94.406 E0.00675
G1 X104.731 Y94.286 E0.00561
G1 X105.096 Y94.608 E0.00718
G1 X105.317 Y94.821 E0.00453
G1 X105.225 Y95.201 E0.00577
G1 X105.048 Y95.624 E0.00676
G1 X104.886 Y95.889 E0.00458
G1 X104.782 Y96.013 E0.00239
G1 X103.987 Y96.613 E0.01470
G1 X104.380 Y97.100 E0.00922
G1 X104.928 Y98.089 E0.01669
G1 X105.779 Y97.675 E0.01397
G1 X105.953 Y97.638 E0.00261
G1 X106.263 Y97.620 E0.00458
G1 X106.719 Y97.663 E0.00677
G1 X107.087 Y97.756 E0.00560
G1 X107.289 Y98.526 E0.01174
G1 X107.008 Y98.794 E0.00573
G1 X106.630 Y99.054 E0.00676
G1 X106.352 Y99.189 E0.00457
G1 X106.175 Y99.240 E0.00272
G1 X105.202 Y99.313 E0.01440
G1 X105.272 Y99.934 E0.00923
G1 X105.198 Y101.061 E0.01667
G1 X106.127 Y101.173 E0.01381
G1 X106.303 Y101.237 E0.00276
G1 X106.574 Y101.389 E0.00459
G1 X106.935 Y101.671 E0.00676
G1 X107.193 Y101.948 E0.00559
G1 X106.948 Y102.705 E0.01174
G1 X106.566 Y102.779 E0.00573
G1 X106.108 Y102.794 E0.00676
G1 X105.801 Y102.757 E0.00457
G1 X105.644 Y102.713 E0.00240
G1 X104.768 Y102.239 E0.01470
G1 X104.489 Y102.799 E0.00924
G1 X103.816 Y103.708 E0.01668
G1 X104.539 Y104.304 E0.01383
G1 X104.652 Y104.453 E0.00276
G1 X104.798 Y104.728 E0.00459
G1 X104.949 Y105.160 E0.00676
G1 X105.017 Y105.533 E0.00559
G1 X104.401 Y106.038 E0.01174
G1 X104.041 Y105.893 E0.00574
G1 X103.646 Y105.658 E0.00677
G1 X103.408 Y105.461 E0.00457
G1 X103.300 Y105.339 E0.00241
G1 X102.819 Y104.468 E0.01468
G1 X102.282 Y104.788 E0.00923
G1 X101.225 Y105.189 E0.01668
G1 X101.514 Y106.101 E0.01412
G1 X101.525 Y106.267 E0.00245
G1 X101.499 Y106.577 E0.00459
G1 X101.392 Y107.023 E0.00676
G1 X101.246 Y107.375 E0.00563
G1 X100.933 Y107.420 E0.00466
G1 X100.457 Y107.465 E0.00706
G1 X100.231 Y107.147 E0.00575
G1 X100.027 Y106.737 E0.00675
G1 X99.933 Y106.441 E0.00458
G1 X99.908 Y106.281 E0.00239
G1 X99.975 Y105.287 E0.01471
G1 X99.350 Y105.266 E0.00923
G1 X98.244 Y105.033 E0.01669
G1 X97.998 Y105.949 E0.01400
G1 X97.913 Y106.102 E0.00258
G1 X97.724 Y106.349 E0.00459
G1 X97.394 Y106.665 E0.00675
G1 X97.080 Y106.883 E0.00563
G1 X96.367 Y106.533 E0.01172
G1 X96.349 Y106.143 E0.00576
G1 X96.400 Y105.687 E0.00677
G1 X96.480 Y105.389 E0.00457
G1 X96.558 Y105.219 E0.00275
G1 X97.140 Y104.438 E0.01438
G1 X96.624 Y104.084 E0.00923
G1 X95.819 Y103.289 E0.01669
G1 X95.128 Y103.918 E0.01380
G1 X94.964 Y104.010 E0.00276
G1 X94.671 Y104.115 E0.00459
G1 X94.222 Y104.204 E0.00676
G1 X93.843 Y104.217 E0.00560
G1 X93.432 Y103.535 E0.01174
G1 X93.626 Y103.200 E0.00573
G1 X93.915 Y102.843 E0.00677
G1 X94.144 Y102.635 E0.00456
G1 X94.280 Y102.545 E0.00241
G1 X95.213 Y102.193 E0.01471
G1 X94.971 Y101.616 E0.00922
G1 X94.725 Y100.512 E0.01669
G1 X93.800 Y100.667 E0.01383
G1 X93.613 Y100.656 E0.00276
G1 X93.311 Y100.586 E0.00458
G1 X92.885 Y100.417 E0.00676
G1 X92.559 Y100.224 E0.00559
G1 X92.582 Y99.429 E0.01174
G1 X92.927 Y99.251 E0.00573
G1 X93.362 Y99.107 E0.00676
G1 X93.667 Y99.056 E0.00456
G1 X93.832 Y99.054 E0.00243
G1 X94.807 Y99.262 E0.01472
G1 X94.914 Y98.646 E0.00924
G1 X95.304 Y97.584 E0.01669
G1 X94.425 Y97.205 E0.01411
G1 X94.291 Y97.104 E0.00248
G1 X94.075 Y96.882 E0.00457
G1 X93.808 Y96.510 E0.00676
G1 X93.638 Y96.171 E0.00559
G1 X94.060 Y95.549 E0.01109
G1 X97.890 Y98.317 F3600.000
G1 X98.144 Y98.046 E0.00548 F600.000
G1 X98.432 Y97.812 E0.00548
G1 X98.749 Y97.619 E0.00548
G1 X99.089 Y97.471 E0.00548
G1 X99.447 Y97.371 E0.00548
G1 X99.815 Y97.320 E0.00548
G1 X100.186 Y97.320 E0.00548
G1 X100.554 Y97.371 E0.00548
G1 X100.911 Y97.471 E0.00548
G1 X101.252 Y97.619 E0.00548
G1 X101.569 Y97.812 E0.00548
G1 X101.857 Y98.046 E0.00548
G1 X102.110 Y98.317 E0.00548
G1 X102.325 Y98.621 E0.00548
G1 X102.495 Y98.950 E0.00548
G1 X102.620 Y99.300 E0.00548
G1 X102.695 Y99.664 E0.00548
G1 X102.721 Y100.034 E0.00548
G1 X102.695 Y100.405 E0.00548
G1 X102.620 Y100.768 E0.00548
G1 X102.495 Y101.118 E0.00548
G1 X102.325 Y101.448 E0.00548
G1 X102.110 Y101.751 E0.00548
G1 X101.857 Y102.022 E0.00548
G1 X101.569 Y102.257 E0.00548
G1 X101.252 Y102.450 E0.00548
G1 X100.911 Y102.597 E0.00548
G1 X100.554 Y102.698 E0.00548
G1 X100.186 Y102.748 E0.00548
G1 X99.815 Y102.748 E0.00548
G1 X99.447 Y102.698 E0.00548
G1 X99.089 Y102.597 E0.00548
G1 X98.749 Y102.450 E0.00548
G1 X98.432 Y102.257 E0.00548
G1 X98.144 Y102.022 E0.00548
G1 X97.890 Y101.751 E0.00548
G1 X97.680 Y101.454 E0.00537
G1 X97.680 Y98.615 E0.04189
G1 X97.865 Y98.354 E0.00472
G1 X97.791 Y98.039 F3600.000
G1 X97.660 Y98.130 F3600.000
G1 X97.941 Y97.829 E0.00608 F600.000
G1 X98.261 Y97.570 E0.00608
G1 X98.612 Y97.356 E0.00608
G1 X98.990 Y97.192 E0.00608
G1 X99.387 Y97.081 E0.00608
G1 X99.794 Y97.024 E0.00608
G1 X100.206 Y97.024 E0.00608
G1 X100.614 Y97.081 E0.00608
G1 X101.011 Y97.192 E0.00608
G1 X101.388 Y97.356 E0.00608
G1 X101.740 Y97.570 E0.00608
G1 X102.059 Y97.829 E0.00608
G1 X102.340 Y98.130 E0.00608
G1 X102.578 Y98.467 E0.00608
G1 X102.767 Y98.832 E0.00608
G1 X102.905 Y99.220 E0.00608
G1 X102.989 Y99.623 E0.00608
G1 X103.017 Y100.034 E0.00608
G1 X102.989 Y100.445 E0.00608
G1 X102.905 Y100.848 E0.00608
G1 X102.767 Y101.236 E0.00608
G1 X102.578 Y101.602 E0.00608
G1 X102.340 Y101.938 E0.00608
G1 X102.059 Y102.239 E0.00608
G1 X101.740 Y102.499 E0.00608
G1 X101.388 Y102.713 E0.00608
G1 X101.011 Y102.877 E0.00608
G1 X100.614 Y102.988 E0.00608
G1 X100.206 Y103.044 E0.00608
G1 X99.794 Y103.044 E0.00608
G1 X99.387 Y102.988 E0.00608
G1 X98.990 Y102.877 E0.00608
G1 X98.612 Y102.713 E0.00608
G1 X98.261 Y102.499 E0.00608
G1 X97.941 Y102.239 E0.00608
G1 X97.660 Y101.938 E0.00608
G1 X97.385 Y101.548 E0.00705
G1 X97.385 Y98.521 E0.04467
G1 X97.635 Y98.167 E0.00640
G1 X95.416 Y97.871 F3600.000
G1 X97.180 Y99.634 E0.03707 F600.000
G1 X97.180 Y100.056 E0.00626
G1 X95.303 Y98.179 E0.03944
G1 X95.190 Y98.487 E0.00488
G1 X97.180 Y100.477 E0.04182
G1 X97.180 Y100.898 E0.00626
G1 X95.093 Y98.811 E0.04386
G1 X95.031 Y99.170 E0.00541
G1 X97.180 Y101.319 E0.04518
G1 X97.488 Y102.049 F3600.000
G1 X94.939 Y99.499 E0.05358 F600.000
G1 X95.126 Y101.372 F3600.000
G1 X98.668 Y104.913 E0.07443 F600.000
G1 X99.202 Y105.026 E0.00811
G1 X95.005 Y100.829 E0.08821
G1 X94.884 Y100.287 E0.00826
G1 X99.669 Y105.072 E0.10058
G1 X100.105 Y105.087 E0.00648
G1 X94.403 Y99.385 E0.11984
G1 X93.868 Y99.271 E0.00814
G1 X94.877 Y100.280 E0.02120
G1 X94.516 Y100.340 E0.00544
G1 X93.472 Y99.296 E0.02194
G1 X93.147 Y99.393 E0.00503
G1 X94.155 Y100.401 E0.02117
G1 X93.794 Y100.461 E0.00544
G1 X92.852 Y99.519 E0.01980
G1 X92.768 Y99.857 E0.00517
G1 X93.257 Y100.345 E0.01026
G1 F1800.000 E-1.00000
G1 X95.368 Y102.035 F3600.000
G1 E3.00000 F1800.000
G1 X98.134 Y104.801 E0.05812 F600.000
G1 X98.013 Y105.102 E0.00482
G1 X95.293 Y102.381 E0.05718
G1 X95.654 Y103.163 F3600.000
G1 X94.987 Y102.497 E0.01401 F600.000
G1 X94.681 Y102.612 E0.00486
G1 X95.433 Y103.364 E0.01580
G1 X95.213 Y103.565 E0.00443
G1 X94.376 Y102.728 E0.01759
G1 X94.141 Y102.914 E0.00446
G1 X94.989 Y103.762 E0.01782
G1 X94.695 Y103.889 E0.00476
G1 X93.941 Y103.136 E0.01584
G1 X93.760 Y103.376 E0.00447
G1 X94.353 Y103.969 E0.01247
G1 X93.932 Y103.969 E0.00627
