; generated by Slic3r 1.0.0RC3 on 2014-03-24 at 20:30:33

; layer_height = 0.12
; perimeters = 2
; top_solid_layers = 4
; bottom_solid_layers = 3
; fill_density = 0.4
; perimeter_speed = 20
; infill_speed = 20
; travel_speed = 60
; nozzle_diameter = 0.5
; filament_diameter = 1.75
; extrusion_multiplier = 1
; perimeters extrusion width = 0.50mm
; infill extrusion width = 1.66mm
; solid infill extrusion width = 0.85mm
; top infill extrusion width = 0.85mm
; first layer extrusion width = 0.24mm

G21 ; set units to millimeters
M107
M104 S205 ; set temperature
G21 ; set units to millimeters
G90 ; use absolute coordinates
M83 ; use relative distances for extrusion
M140 S65; Set bed temperature
G1 Z5 F200 ; lift nozzle
G1 X2 Y50 F2000; Go to wait for warm position
M116; Wait for all temperatures
G10 P0 S205 R0 ; Set extruder temperature
T0; Select extruder
M116; Wait for all temperatures
M109 S205 ; wait for temperature to be reached
G90 ; use absolute coordinates
M83 ; use relative distances for extrusion
G1 F1800.000 E-1.00000
G1 Z0.120 F3600.000
G1 X79.389 Y78.920 F3600.000
G1 E3.00000 F1800.000
G1 X80.569 Y77.820 E0.02381 F600.000
G1 X80.989 Y77.470 E0.00807
G1 X83.209 Y75.770 E0.04126
G1 X83.619 Y75.490 E0.00733
G1 X85.019 Y74.610 E0.02440
G1 X85.469 Y74.360 E0.00760
G1 X87.969 Y73.100 E0.04131
G1 X88.449 Y72.880 E0.00779
G1 X89.819 Y72.330 E0.02179
G1 X90.419 Y72.120 E0.00938
G1 X93.109 Y71.340 E0.04133
G1 X94.539 Y71.030 E0.02159
G1 X95.209 Y70.910 E0.01004
G1 X95.689 Y70.850 E0.00714
G1 X98.469 Y70.570 E0.04123
G1 X99.209 Y70.530 E0.01094
G1 X100.109 Y70.520 E0.01328
G1 X101.129 Y70.550 E0.01506
G1 X103.909 Y70.790 E0.04118
G1 X104.459 Y70.860 E0.00818
G1 X105.599 Y71.060 E0.01708
G1 X106.519 Y71.260 E0.01389
G1 X109.219 Y72.010 E0.04135
G1 X110.659 Y72.520 E0.02254
G1 X111.309 Y72.780 E0.01033
G1 X111.689 Y72.950 E0.00614
G1 X114.539 Y74.350 E0.04686
G1 X114.909 Y74.560 E0.00628
G1 X116.089 Y75.310 E0.02063
G1 X116.439 Y75.550 E0.00626
G1 X119.009 Y77.470 E0.04734
G1 X119.619 Y78.000 E0.01193
G1 X120.659 Y78.990 E0.02119
G1 X122.559 Y81.040 E0.04125
G1 X123.359 Y82.020 E0.01867
G1 X123.889 Y82.730 E0.01308
G1 X124.169 Y83.150 E0.00745
G1 X125.889 Y85.910 E0.04799
G1 X126.209 Y86.510 E0.01003
G1 X126.859 Y87.880 E0.02238
G1 X127.889 Y90.490 E0.04141
G1 X128.079 Y91.050 E0.00873
G1 X128.489 Y92.470 E0.02181
G1 X128.619 Y93.010 E0.00820
G1 X129.159 Y95.760 E0.04136
G1 X129.239 Y96.300 E0.00806
G1 X129.399 Y97.940 E0.02432
G1 X129.419 Y98.400 E0.00679
G1 X129.439 Y101.200 E0.04132
G1 X129.349 Y102.650 E0.02144
G1 X129.269 Y103.420 E0.01142
G1 X128.719 Y106.570 E0.04719
G1 X128.609 Y107.070 E0.00756
G1 X128.259 Y108.370 E0.01987
G1 X128.009 Y109.130 E0.01181
G1 X127.019 Y111.750 E0.04133
G1 X126.829 Y112.200 E0.00721
G1 X126.089 Y113.690 E0.02455
G1 X125.849 Y114.120 E0.00727
G1 X124.399 Y116.510 E0.04125
G1 X124.149 Y116.890 E0.00671
G1 X123.749 Y117.450 E0.01016
G1 X123.129 Y118.260 E0.01505
G1 X122.809 Y118.640 E0.00733
G1 X120.939 Y120.720 E0.04128
G1 X120.599 Y121.070 E0.00720
G1 X119.419 Y122.170 E0.02381
G1 X118.999 Y122.520 E0.00807
G1 X116.779 Y124.220 E0.04126
G1 X115.889 Y124.820 E0.01584
G1 X114.529 Y125.630 E0.02336
G1 X112.039 Y126.890 E0.04118
G1 X110.959 Y127.360 E0.01738
G1 X109.589 Y127.850 E0.02147
G1 X106.899 Y128.640 E0.04137
G1 X106.379 Y128.770 E0.00791
G1 X105.589 Y128.930 E0.01190
G1 X104.309 Y129.140 E0.01914
G1 X101.519 Y129.420 E0.04138
G1 X100.959 Y129.460 E0.00829
G1 X99.409 Y129.470 E0.02287
G1 X98.849 Y129.440 E0.00828
G1 X96.059 Y129.190 E0.04134
G1 X94.629 Y128.970 E0.02135
G1 X93.899 Y128.830 E0.01097
G1 X93.469 Y128.730 E0.00651
G1 X90.769 Y127.980 E0.04135
G1 X89.329 Y127.470 E0.02254
G1 X88.639 Y127.190 E0.01099
G1 X88.319 Y127.050 E0.00515
G1 X85.799 Y125.820 E0.04138
G1 X85.029 Y125.390 E0.01301
G1 X83.929 Y124.700 E0.01916
G1 X83.549 Y124.440 E0.00679
G1 X81.299 Y122.770 E0.04135
G1 X80.859 Y122.410 E0.00839
G1 X79.939 Y121.590 E0.01819
G1 X79.329 Y121.000 E0.01252
G1 X77.429 Y118.950 E0.04125
G1 X76.629 Y117.970 E0.01867
G1 X76.099 Y117.260 E0.01308
G1 X74.329 Y114.470 E0.04876
G1 X74.049 Y113.970 E0.00846
G1 X73.389 Y112.680 E0.02138
G1 X73.129 Y112.110 E0.00925
G1 X72.099 Y109.500 E0.04141
G1 X71.909 Y108.940 E0.00873
G1 X71.499 Y107.520 E0.02181
G1 X71.369 Y106.960 E0.00848
G1 X70.839 Y104.210 E0.04133
G1 X70.639 Y102.680 E0.02277
G1 X70.569 Y101.590 E0.01612
G1 X70.549 Y98.790 E0.04132
G1 X70.639 Y97.340 E0.02144
G1 X70.719 Y96.570 E0.01142
G1 X71.289 Y93.390 E0.04768
G1 X71.389 Y92.920 E0.00709
G1 X71.699 Y91.750 E0.01786
G1 X71.989 Y90.840 E0.01409
G1 X72.989 Y88.220 E0.04138
G1 X73.209 Y87.710 E0.00820
G1 X73.859 Y86.380 E0.02185
G1 X74.139 Y85.870 E0.00859
G1 X75.589 Y83.480 E0.04125
G1 X75.839 Y83.100 E0.00671
G1 X76.239 Y82.540 E0.01016
G1 X76.859 Y81.730 E0.01505
G1 X77.179 Y81.350 E0.00733
G1 X79.049 Y79.270 E0.04128
G1 X79.358 Y78.952 E0.00655
G1 F1800.000 E-1.00000
G1 X83.857 Y83.703 F3600.000
G1 E3.00000 F1800.000
G1 X84.296 Y83.277 E0.00902 F420.000
G1 X84.948 Y82.691 E0.01294
G1 X85.600 Y82.920 E0.01020
G1 X86.079 Y83.119 E0.00765
G1 X86.949 Y83.564 E0.01443
G1 X87.457 Y83.160 E0.00957
G1 X87.250 Y82.222 E0.01418
G1 X87.180 Y81.708 E0.00765
G1 X87.126 Y81.013 E0.01029
G1 X88.382 Y80.218 E0.02193
G1 X88.984 Y80.565 E0.01025
G1 X89.417 Y80.849 E0.00764
G1 X90.191 Y81.447 E0.01444
G1 X90.764 Y81.144 E0.00957
G1 X90.735 Y80.181 E0.01422
G1 X90.759 Y79.664 E0.00764
G1 X90.835 Y78.969 E0.01032
G1 X91.555 Y78.671 E0.01150
G1 X92.216 Y78.421 E0.01042
G1 X92.742 Y78.871 E0.01022
G1 X93.117 Y79.230 E0.00765
G1 X93.768 Y79.961 E0.01445
G1 X94.386 Y79.766 E0.00956
G1 X94.534 Y78.816 E0.01418
G1 X94.653 Y78.312 E0.00764
G1 X94.854 Y77.647 E0.01026
G1 X95.702 Y77.466 E0.01279
G1 X96.314 Y77.359 E0.00917
G1 X96.748 Y77.898 E0.01021
G1 X97.050 Y78.319 E0.00764
G1 X97.556 Y79.156 E0.01443
G1 X98.199 Y79.080 E0.00955
G1 X98.520 Y78.173 E0.01421
G1 X98.730 Y77.699 E0.00764
G1 X99.049 Y77.082 E0.01025
G1 X100.000 Y77.060 E0.01404
G1 X100.537 Y77.068 E0.00793
G1 X100.866 Y77.677 E0.01020
G1 X101.084 Y78.146 E0.00764
G1 X101.427 Y79.062 E0.01443
G1 X102.074 Y79.105 E0.00956
G1 X102.555 Y78.272 E0.01420
G1 X102.849 Y77.845 E0.00765
G1 X103.275 Y77.298 E0.01024
G1 X104.298 Y77.466 E0.01530
G1 X104.742 Y77.558 E0.00668
G1 X104.953 Y78.216 E0.01020
G1 X105.081 Y78.717 E0.00764
G1 X105.250 Y79.681 E0.01443
G1 X105.878 Y79.843 E0.00958
G1 X106.505 Y79.112 E0.01421
G1 X106.872 Y78.746 E0.00764
G1 X107.391 Y78.286 E0.01024
G1 X108.445 Y78.671 E0.01655
G1 X108.785 Y78.812 E0.00544
G1 X108.871 Y79.497 E0.01018
G1 X108.906 Y80.013 E0.00764
G1 X108.895 Y80.991 E0.01443
G1 X109.481 Y81.265 E0.00955
G1 X110.232 Y80.663 E0.01420
G1 X110.660 Y80.371 E0.00765
G1 X111.255 Y80.014 E0.01025
G1 X111.677 Y80.255 E0.00717
G1 X112.529 Y80.787 E0.01481
G1 X112.488 Y81.476 E0.01018
G1 X112.427 Y81.990 E0.00765
G1 X112.236 Y82.949 E0.01443
G1 X112.764 Y83.326 E0.00957
G1 X113.611 Y82.872 E0.01419
G1 X114.085 Y82.664 E0.00763
G1 X114.737 Y82.423 E0.01027
G1 X115.170 Y82.792 E0.00841
G1 X115.846 Y83.416 E0.01357
G1 X115.679 Y84.086 E0.01019
G1 X115.525 Y84.580 E0.00765
G1 X115.160 Y85.488 E0.01444
G1 X115.609 Y85.956 E0.00957
G1 X116.527 Y85.665 E0.01421
G1 X117.031 Y85.547 E0.00765
G1 X117.717 Y85.430 E0.01027
G1 X118.126 Y85.940 E0.00965
G1 X118.624 Y86.609 E0.01230
G1 X118.336 Y87.238 E0.01021
G1 X118.094 Y87.695 E0.00763
G1 X117.569 Y88.521 E0.01444
G1 X117.926 Y89.064 E0.00958
G1 X118.415 Y88.990 E0.00730
G1 X118.880 Y88.946 E0.00689
G1 X119.397 Y88.923 E0.00764
G1 X120.094 Y88.933 E0.01030
G1 X120.769 Y90.257 E0.02192
G1 X120.369 Y90.824 E0.01024
G1 X120.046 Y91.230 E0.00764
G1 X119.379 Y91.944 E0.01442
G1 X119.628 Y92.543 E0.00957
G1 X120.124 Y92.561 E0.00732
G1 X120.589 Y92.603 E0.00689
G1 X121.102 Y92.675 E0.00765
G1 X121.784 Y92.814 E0.01027
G1 X122.029 Y93.600 E0.01216
G1 X122.204 Y94.240 E0.00979
G1 X121.708 Y94.723 E0.01022
G1 X121.316 Y95.062 E0.00764
G1 X120.529 Y95.643 E0.01444
G1 X120.665 Y96.277 E0.00957
G1 X121.598 Y96.512 E0.01420
G1 X122.089 Y96.677 E0.00764
G1 X122.732 Y96.938 E0.01025
G1 X122.838 Y97.841 E0.01342
G1 X122.884 Y98.419 E0.00855
G1 X122.308 Y98.802 E0.01020
G1 X121.861 Y99.063 E0.00764
G1 X120.980 Y99.489 E0.01444
G1 X120.997 Y100.137 E0.00957
G1 X121.453 Y100.334 E0.00732
G1 X121.871 Y100.540 E0.00688
G1 X122.323 Y100.793 E0.00764
G1 X122.908 Y101.167 E0.01025
G1 X122.838 Y102.159 E0.01467
G1 X122.784 Y102.651 E0.00731
G1 X122.149 Y102.922 E0.01019
G1 X121.661 Y103.096 E0.00765
G1 X120.717 Y103.353 E0.01443
G1 X120.614 Y103.993 E0.00957
G1 X121.399 Y104.549 E0.01420
G1 X121.797 Y104.881 E0.00764
G1 X122.303 Y105.356 E0.01024
G1 X121.908 Y106.792 E0.02198
G1 X121.235 Y106.941 E0.01018
G1 X120.723 Y107.023 E0.00764
G1 X119.749 Y107.103 E0.01443
G1 X119.530 Y107.713 E0.00957
G1 X120.199 Y108.404 E0.01420
G1 X120.529 Y108.803 E0.00763
G1 X120.939 Y109.364 E0.01025
G1 X120.757 Y109.767 E0.00654
G1 X120.287 Y110.703 E0.01544
G1 X119.598 Y110.725 E0.01018
G1 X119.080 Y110.711 E0.00765
G1 X118.107 Y110.610 E0.01443
G1 X117.779 Y111.170 E0.00957
G1 X118.311 Y111.972 E0.01421
G1 X118.562 Y112.426 E0.00765
G1 X118.862 Y113.052 E0.01025
G1 X118.559 Y113.484 E0.00779
G1 X117.976 Y114.248 E0.01419
G1 X117.293 Y114.144 E0.01019
G1 X116.787 Y114.035 E0.00763
G1 X115.849 Y113.758 E0.01444
G1 X115.424 Y114.248 E0.00957
G1 X115.629 Y114.699 E0.00731
G1 X115.799 Y115.133 E0.00688
G1 X115.963 Y115.625 E0.00765
G1 X116.143 Y116.297 E0.01027
G1 X115.704 Y116.723 E0.00903
G1 X115.052 Y117.309 E0.01294
G1 X114.400 Y117.080 E0.01020
G1 X113.921 Y116.881 E0.00765
G1 X113.051 Y116.436 E0.01443
G1 X112.543 Y116.840 E0.00957
G1 X112.750 Y117.778 E0.01418
G1 X112.820 Y118.292 E0.00765
G1 X112.874 Y118.987 E0.01029
G1 X111.618 Y119.782 E0.02193
G1 X111.016 Y119.435 E0.01025
G1 X110.583 Y119.151 E0.00764
G1 X109.809 Y118.553 E0.01444
G1 X109.236 Y118.856 E0.00957
G1 X109.265 Y119.819 E0.01422
G1 X109.241 Y120.336 E0.00764
G1 X109.165 Y121.031 E0.01032
G1 X108.445 Y121.329 E0.01150
G1 X107.784 Y121.579 E0.01042
G1 X107.258 Y121.129 E0.01022
G1 X106.883 Y120.770 E0.00765
G1 X106.232 Y120.039 E0.01445
G1 X105.614 Y120.234 E0.00956
G1 X105.466 Y121.184 E0.01418
G1 X105.347 Y121.688 E0.00764
G1 X105.146 Y122.353 E0.01026
G1 X104.299 Y122.534 E0.01279
G1 X103.686 Y122.641 E0.00917
G1 X103.252 Y122.102 E0.01021
G1 X102.950 Y121.681 E0.00764
G1 X102.444 Y120.844 E0.01443
G1 X101.801 Y120.920 E0.00955
G1 X101.480 Y121.827 E0.01421
G1 X101.270 Y122.301 E0.00764
G1 X100.951 Y122.918 E0.01025
G1 X100.000 Y122.940 E0.01404
G1 X99.462 Y122.932 E0.00793
G1 X99.134 Y122.323 E0.01020
G1 X98.916 Y121.854 E0.00764
G1 X98.573 Y120.938 E0.01443
G1 X97.926 Y120.895 E0.00956
G1 X97.445 Y121.728 E0.01420
G1 X97.151 Y122.155 E0.00765
G1 X96.725 Y122.702 E0.01024
G1 X95.702 Y122.534 E0.01530
G1 X95.258 Y122.442 E0.00668
G1 X95.047 Y121.784 E0.01020
G1 X94.919 Y121.283 E0.00764
G1 X94.750 Y120.319 E0.01443
G1 X94.122 Y120.157 E0.00958
G1 X93.495 Y120.888 E0.01421
G1 X93.128 Y121.253 E0.00764
G1 X92.609 Y121.714 E0.01024
G1 X91.555 Y121.329 E0.01655
G1 X91.215 Y121.188 E0.00544
G1 X91.129 Y120.503 E0.01018
G1 X91.094 Y119.987 E0.00764
G1 X91.105 Y119.009 E0.01443
G1 X90.519 Y118.735 E0.00955
G1 X89.768 Y119.337 E0.01420
G1 X89.340 Y119.629 E0.00765
G1 X88.745 Y119.986 E0.01025
G1 X88.323 Y119.745 E0.00717
G1 X87.471 Y119.213 E0.01481
G1 X87.512 Y118.524 E0.01018
G1 X87.573 Y118.010 E0.00765
G1 X87.764 Y117.051 E0.01443
G1 X87.236 Y116.674 E0.00957
G1 X86.389 Y117.128 E0.01419
G1 X85.915 Y117.336 E0.00763
G1 X85.263 Y117.577 E0.01027
G1 X84.830 Y117.208 E0.00841
G1 X84.154 Y116.584 E0.01357
G1 X84.321 Y115.914 E0.01019
G1 X84.475 Y115.420 E0.00765
G1 X84.840 Y114.512 E0.01444
G1 X84.391 Y114.044 E0.00957
G1 X83.473 Y114.335 E0.01421
G1 X82.969 Y114.453 E0.00765
G1 X82.283 Y114.570 E0.01027
G1 X81.874 Y114.060 E0.00965
G1 X81.376 Y113.391 E0.01230
G1 X81.664 Y112.762 E0.01021
G1 X81.906 Y112.305 E0.00763
G1 X82.431 Y111.479 E0.01444
G1 X82.074 Y110.936 E0.00958
G1 X81.585 Y111.010 E0.00730
G1 X81.120 Y111.054 E0.00689
G1 X80.603 Y111.077 E0.00764
G1 X79.906 Y111.067 E0.01030
G1 X79.231 Y109.743 E0.02192
G1 X79.631 Y109.176 E0.01024
G1 X79.954 Y108.770 E0.00764
G1 X80.621 Y108.056 E0.01442
G1 X80.372 Y107.457 E0.00957
G1 X79.876 Y107.439 E0.00732
G1 X79.411 Y107.397 E0.00689
G1 X78.898 Y107.325 E0.00765
G1 X78.216 Y107.186 E0.01027
G1 X77.971 Y106.400 E0.01216
G1 X77.796 Y105.760 E0.00979
G1 X78.292 Y105.277 E0.01022
G1 X78.684 Y104.938 E0.00764
G1 X79.471 Y104.357 E0.01444
G1 X79.335 Y103.723 E0.00957
G1 X78.402 Y103.488 E0.01420
G1 X77.911 Y103.323 E0.00764
G1 X77.268 Y103.062 E0.01025
G1 X77.162 Y102.159 E0.01342
G1 X77.116 Y101.581 E0.00855
G1 X77.692 Y101.198 E0.01020
G1 X78.139 Y100.937 E0.00764
G1 X79.020 Y100.511 E0.01444
G1 X79.003 Y99.862 E0.00957
G1 X78.547 Y99.666 E0.00732
G1 X78.129 Y99.460 E0.00688
G1 X77.677 Y99.207 E0.00764
G1 X77.092 Y98.833 E0.01025
G1 X77.162 Y97.841 E0.01467
G1 X77.216 Y97.349 E0.00731
G1 X77.851 Y97.078 E0.01019
G1 X78.339 Y96.904 E0.00765
G1 X79.283 Y96.647 E0.01443
G1 X79.386 Y96.007 E0.00957
G1 X78.601 Y95.451 E0.01420
G1 X78.203 Y95.119 E0.00764
G1 X77.697 Y94.644 E0.01024
G1 X78.092 Y93.208 E0.02198
G1 X78.765 Y93.059 E0.01018
G1 X79.277 Y92.977 E0.00764
G1 X80.251 Y92.897 E0.01443
G1 X80.470 Y92.287 E0.00957
G1 X79.801 Y91.596 E0.01420
G1 X79.471 Y91.197 E0.00763
G1 X79.061 Y90.636 E0.01025
G1 X79.243 Y90.233 E0.00654
G1 X79.713 Y89.297 E0.01544
G1 X80.402 Y89.275 E0.01018
G1 X80.920 Y89.289 E0.00765
G1 X81.893 Y89.390 E0.01443
G1 X82.221 Y88.830 E0.00957
G1 X81.689 Y88.028 E0.01421
G1 X81.438 Y87.574 E0.00765
G1 X81.138 Y86.948 E0.01025
G1 X81.441 Y86.516 E0.00779
G1 X82.024 Y85.752 E0.01419
G1 X82.707 Y85.856 E0.01019
G1 X83.213 Y85.965 E0.00763
G1 X84.151 Y86.242 E0.01444
G1 X84.576 Y85.752 E0.00957
G1 X84.371 Y85.301 E0.00731
G1 X84.201 Y84.867 E0.00688
G1 X84.037 Y84.375 E0.00765
G1 X83.867 Y83.746 E0.00961
G1 X84.152 Y83.680 F3600.000
G1 X84.184 Y83.799 F3600.000
G1 X85.015 Y83.023 E0.01678 F600.000
G1 X85.953 Y83.388 E0.01485
G1 X86.361 Y83.583 E0.00667
G1 X86.981 Y83.917 E0.01040
G1 X87.789 Y83.273 E0.01525
G1 X87.629 Y82.621 E0.00991
G1 X87.543 Y82.178 E0.00666
G1 X87.430 Y81.168 E0.01500
G1 X88.391 Y80.559 E0.01679
G1 X89.244 Y81.089 E0.01482
G1 X89.609 Y81.356 E0.00666
G1 X90.156 Y81.800 E0.01040
G1 X91.070 Y81.317 E0.01525
G1 X91.033 Y80.644 E0.00996
G1 X91.030 Y80.193 E0.00665
G1 X91.054 Y79.691 E0.00742
G1 X91.105 Y79.178 E0.00761
G1 X91.664 Y78.946 E0.00894
G1 X92.162 Y78.758 E0.00785
G1 X92.903 Y79.434 E0.01481
G1 X93.211 Y79.764 E0.00666
G1 X93.670 Y80.302 E0.01044
G1 X94.655 Y79.991 E0.01523
G1 X94.742 Y79.326 E0.00990
G1 X94.823 Y78.882 E0.00666
G1 X94.938 Y78.392 E0.00742
G1 X95.082 Y77.897 E0.00762
G1 X96.198 Y77.680 E0.01678
G1 X96.802 Y78.481 E0.01480
G1 X97.046 Y78.861 E0.00667
G1 X97.397 Y79.472 E0.01039
G1 X98.421 Y79.352 E0.01522
G1 X98.630 Y78.712 E0.00993
G1 X98.792 Y78.290 E0.00667
G1 X98.996 Y77.830 E0.00742
G1 X99.228 Y77.368 E0.00763
G1 X100.000 Y77.356 E0.01139
G1 X100.364 Y77.362 E0.00538
G1 X100.599 Y77.804 E0.00738
G1 X100.811 Y78.259 E0.00742
G1 X100.980 Y78.678 E0.00667
G1 X101.213 Y79.344 E0.01041
G1 X102.242 Y79.413 E0.01523
G1 X102.566 Y78.822 E0.00994
G1 X102.801 Y78.437 E0.00666
G1 X103.397 Y77.614 E0.01500
G1 X104.517 Y77.814 E0.01679
G1 X104.667 Y78.292 E0.00739
G1 X104.792 Y78.779 E0.00742
G1 X104.881 Y79.221 E0.00665
G1 X104.987 Y79.918 E0.01041
G1 X105.988 Y80.176 E0.01526
G1 X106.413 Y79.655 E0.00993
G1 X106.716 Y79.320 E0.00666
G1 X107.452 Y78.620 E0.01499
G1 X108.336 Y78.946 E0.01390
G1 X108.518 Y79.021 E0.00290
G1 X108.576 Y79.519 E0.00739
G1 X108.610 Y80.021 E0.00742
G1 X108.616 Y80.472 E0.00667
G1 X108.593 Y81.177 E0.01040
G1 X109.527 Y81.613 E0.01522
G1 X110.042 Y81.180 E0.00993
G1 X110.401 Y80.906 E0.00667
G1 X111.254 Y80.353 E0.01499
G1 X112.227 Y80.943 E0.01679
G1 X112.193 Y81.443 E0.00741
G1 X112.135 Y81.943 E0.00743
G1 X112.058 Y82.388 E0.00665
G1 X111.904 Y83.076 E0.01041
G1 X112.745 Y83.677 E0.01525
