; generated by Slic3r 1.0.0RC3 on 2014-03-24 at 20:43:48

; layer_height = 0.12
; perimeters = 2
; top_solid_layers = 4
; bottom_solid_layers = 3
; fill_density = 0.4
; perimeter_speed = 20
; infill_speed = 20
; travel_speed = 60
; nozzle_diameter = 0.5
; filament_diameter = 1.75
; extrusion_multiplier = 1
; perimeters extrusion width = 0.50mm
; infill extrusion width = 1.66mm
; solid infill extrusion width = 0.85mm
; top infill extrusion width = 0.85mm
; first layer extrusion width = 0.24mm

G21 ; set units to millimeters
M107
M104 S205 ; set temperature
G21 ; set units to millimeters
G90 ; use absolute coordinates
M83 ; use relative distances for extrusion
M140 S65; Set bed temperature
G1 Z5 F200 ; lift nozzle
G1 X2 Y50 F2000; Go to wait for warm position
M116; Wait for all temperatures
G10 P0 S205 R0 ; Set extruder temperature
T0; Select extruder
M116; Wait for all temperatures
M109 S205 ; wait for temperature to be reached
G90 ; use absolute coordinates
M83 ; use relative distances for extrusion
G1 F1800.000 E-1.00000
G1 Z0.120 F3600.000
G1 X77.870 Y77.860 F3600.000
G1 E3.00000 F1800.000
G1 X78.820 Y77.080 E0.01814 F600.000
G1 X79.910 Y76.490 E0.01829
G1 X81.090 Y76.140 E0.01816
G1 X82.320 Y76.010 E0.01825
G1 X101.180 Y76.010 E0.27832
G1 X102.460 Y76.150 E0.01900
G1 X103.680 Y76.530 E0.01886
G1 X118.190 Y82.820 E0.23338
G1 X119.450 Y83.550 E0.02149
G1 X120.510 Y84.550 E0.02151
G1 X121.310 Y85.760 E0.02141
G1 X121.810 Y87.130 E0.02152
G1 X121.990 Y88.570 E0.02142
G1 X122.030 Y96.610 E0.11865
G1 X122.030 Y100.860 E0.06272
G1 X121.910 Y102.040 E0.01750
G1 X121.580 Y103.180 E0.01751
G1 X118.750 Y110.310 E0.11321
G1 X118.180 Y111.420 E0.01841
G1 X117.400 Y112.400 E0.01848
G1 X116.440 Y113.200 E0.01844
G1 X115.340 Y113.790 E0.01842
G1 X114.140 Y114.160 E0.01853
G1 X112.900 Y114.290 E0.01840
G1 X83.000 Y114.290 E0.44124
G1 X81.770 Y114.160 E0.01825
G1 X80.590 Y113.810 E0.01816
G1 X79.500 Y113.220 E0.01829
G1 X78.550 Y112.440 E0.01814
G1 X77.870 Y111.760 E0.01419
G1 X77.090 Y110.810 E0.01814
G1 X76.500 Y109.720 E0.01829
G1 X76.150 Y108.540 E0.01816
G1 X76.020 Y107.310 E0.01825
G1 X76.020 Y82.310 E0.36893
G1 X76.150 Y81.080 E0.01825
G1 X76.500 Y79.900 E0.01816
G1 X77.090 Y78.810 E0.01829
G1 X77.842 Y77.894 E0.01748
G1 F1800.000 E-1.00000
G1 X82.560 Y82.560 F3600.000
G1 E3.00000 F1800.000
G1 X100.940 Y82.560 E0.27124 F420.000
G1 X100.940 Y85.140 E0.03807
G1 X93.940 Y85.140 E0.10330
G1 X93.940 Y88.260 E0.04604
G1 X101.380 Y88.260 E0.10979
G1 X101.380 Y88.720 E0.00679
G1 X107.347 Y88.720 E0.08806
G1 X107.347 Y93.681 E0.07322
G1 X107.295 Y93.695 E0.00080
G1 X107.347 Y93.890 E0.00298
G1 X107.347 Y94.200 E0.00457
G1 X107.430 Y94.200 E0.00123
G1 X108.586 Y98.515 E0.06593
G1 X108.547 Y98.780 E0.00395
G1 X108.592 Y99.064 E0.00425
G1 X108.690 Y99.273 E0.00340
G1 X108.837 Y99.451 E0.00340
G1 X109.075 Y99.612 E0.00425
G1 X109.295 Y99.684 E0.00340
G1 X109.467 Y99.700 E0.00256
G1 X109.696 Y99.671 E0.00340
G1 X109.910 Y99.586 E0.00340
G1 X110.097 Y99.451 E0.00340
G1 X110.244 Y99.273 E0.00340
G1 X110.323 Y99.118 E0.00256
G1 X110.380 Y98.895 E0.00340
G1 X110.380 Y98.665 E0.00340
G1 X110.323 Y98.441 E0.00340
G1 X110.244 Y98.287 E0.00256
G1 X110.097 Y98.109 E0.00341
G1 X109.910 Y97.974 E0.00340
G1 X109.696 Y97.889 E0.00340
G1 X109.525 Y97.862 E0.00256
G1 X109.295 Y97.876 E0.00340
G1 X109.092 Y97.931 E0.00309
G1 X107.937 Y93.619 E0.06588
G1 X107.937 Y88.720 E0.07230
G1 X108.050 Y88.720 E0.00166
G1 X108.110 Y88.660 E0.00125
G1 X114.495 Y88.660 E0.09423
G1 X115.067 Y88.710 E0.00848
G1 X115.102 Y91.360 E0.03911
G1 X115.056 Y102.240 E0.16056
G1 X112.824 Y107.880 E0.08951
G1 X106.479 Y107.880 E0.09365
G1 X106.846 Y107.254 E0.01071
G1 X107.472 Y105.858 E0.02259
G1 X107.902 Y104.387 E0.02261
G1 X108.126 Y102.871 E0.02261
G1 X108.141 Y101.339 E0.02261
G1 X107.945 Y99.819 E0.02261
G1 X107.543 Y98.340 E0.02261
G1 X106.943 Y96.931 E0.02261
G1 X106.154 Y95.616 E0.02261
G1 X105.194 Y94.423 E0.02261
G1 X104.079 Y93.372 E0.02261
G1 X102.830 Y92.483 E0.02261
G1 X101.471 Y91.775 E0.02261
G1 X100.029 Y91.259 E0.02261
G1 X98.529 Y90.945 E0.02261
G1 X97.000 Y90.840 E0.02261
G1 X95.471 Y90.945 E0.02261
G1 X93.971 Y91.259 E0.02261
G1 X92.529 Y91.775 E0.02261
G1 X91.170 Y92.483 E0.02261
G1 X89.974 Y93.335 E0.02167
G1 X88.806 Y94.423 E0.02355
G1 X87.846 Y95.616 E0.02261
G1 X87.058 Y96.931 E0.02261
G1 X86.971 Y97.133 E0.00324
G1 X86.457 Y98.340 E0.01937
G1 X86.055 Y99.819 E0.02261
G1 X85.859 Y101.339 E0.02261
G1 X85.874 Y102.871 E0.02261
G1 X86.098 Y104.387 E0.02261
G1 X86.528 Y105.858 E0.02261
G1 X87.154 Y107.255 E0.02260
G1 X87.524 Y107.880 E0.01071
G1 X83.050 Y107.880 E0.06603
G1 X82.560 Y107.390 E0.01022
G1 X82.560 Y82.604 E0.36577
G1 X82.816 Y82.708 F3600.000
G1 X82.856 Y82.856 F3600.000
G1 X100.644 Y82.856 E0.26251 F600.000
G1 X100.644 Y84.844 E0.02934
G1 X93.644 Y84.844 E0.10330
G1 X93.644 Y88.556 E0.05477
G1 X101.084 Y88.556 E0.10979
G1 X101.084 Y89.016 E0.00679
G1 X107.051 Y89.016 E0.08806
G1 X107.051 Y93.454 E0.06549
G1 X106.933 Y93.485 E0.00181
G1 X107.051 Y93.929 E0.00678
G1 X107.051 Y94.496 E0.00836
G1 X107.203 Y94.496 E0.00224
G1 X108.281 Y98.517 E0.06143
G1 X108.254 Y98.704 E0.00279
G1 X108.241 Y99.103 E0.00590
G1 X108.063 Y99.124 E0.00265
G1 X107.823 Y98.243 E0.01347
G1 X107.207 Y96.796 E0.02321
G1 X106.398 Y95.447 E0.02321
G1 X105.411 Y94.221 E0.02321
G1 X104.267 Y93.143 E0.02321
G1 X102.985 Y92.231 E0.02321
G1 X101.590 Y91.503 E0.02321
G1 X100.109 Y90.973 E0.02321
G1 X98.569 Y90.651 E0.02321
G1 X97.000 Y90.543 E0.02321
G1 X95.431 Y90.651 E0.02321
G1 X93.891 Y90.973 E0.02321
G1 X92.410 Y91.503 E0.02321
G1 X92.283 Y91.569 E0.00211
G1 X91.015 Y92.231 E0.02110
G1 X89.733 Y93.143 E0.02321
G1 X88.589 Y94.221 E0.02321
G1 X87.602 Y95.447 E0.02321
G1 X86.793 Y96.796 E0.02321
G1 X86.177 Y98.243 E0.02321
G1 X85.764 Y99.761 E0.02321
G1 X85.563 Y101.321 E0.02321
G1 X85.578 Y102.894 E0.02321
G1 X85.808 Y104.450 E0.02321
G1 X86.249 Y105.960 E0.02321
G1 X86.978 Y107.584 E0.02627
G1 X83.172 Y107.584 E0.05616
G1 X82.856 Y107.268 E0.00660
G1 X82.856 Y82.900 E0.35960
G1 F1800.000 E-1.00000
G1 X108.233 Y88.956 F3600.000
G1 E3.00000 F1800.000
G1 X114.482 Y88.956 E0.09222 F600.000
G1 X114.775 Y88.981 E0.00434
G1 X114.806 Y91.361 E0.03512
G1 X114.761 Y102.183 E0.15970
G1 X112.623 Y107.584 E0.08572
G1 X107.022 Y107.584 E0.08266
G1 X107.751 Y105.960 E0.02627
G1 X108.192 Y104.450 E0.02321
G1 X108.422 Y102.894 E0.02321
G1 X108.437 Y101.321 E0.02321
G1 X108.236 Y99.761 E0.02321
G1 X108.084 Y99.201 E0.00856
G1 X108.236 Y99.131 E0.00247
G1 X108.581 Y99.612 E0.00873
G1 X108.752 Y99.763 E0.00338
G1 X108.949 Y99.880 E0.00338
G1 X109.165 Y99.958 E0.00338
G1 X109.315 Y99.986 E0.00225
G1 X109.620 Y99.986 E0.00450
G1 X109.770 Y99.958 E0.00225
G1 X109.985 Y99.880 E0.00338
G1 X110.182 Y99.763 E0.00338
G1 X110.354 Y99.612 E0.00337
G1 X110.494 Y99.431 E0.00338
G1 X110.567 Y99.298 E0.00225
G1 X110.645 Y99.082 E0.00338
G1 X110.681 Y98.856 E0.00338
G1 X110.674 Y98.627 E0.00338
G1 X110.598 Y98.333 E0.00449
G1 X110.494 Y98.128 E0.00338
G1 X110.299 Y97.893 E0.00450
G1 X110.119 Y97.753 E0.00337
G1 X109.843 Y97.623 E0.00450
G1 X109.620 Y97.573 E0.00338
G1 X109.302 Y97.569 E0.00469
G1 X108.233 Y93.580 E0.06094
G1 X108.233 Y89.000 E0.06759
G1 X114.552 Y89.167 F3600.000
G1 X114.573 Y89.188 E0.00045 F600.000
G1 X114.579 Y89.617 E0.00641
G1 X114.122 Y89.160 E0.00965
G1 X113.699 Y89.160 E0.00632
G1 X114.585 Y90.046 E0.01871
G1 X114.590 Y90.475 E0.00641
G1 X113.275 Y89.160 E0.02778
G1 X112.852 Y89.160 E0.00632
G1 X114.596 Y90.904 E0.03684
G1 X114.602 Y91.333 E0.00641
G1 X112.428 Y89.160 E0.04590
G1 X112.005 Y89.160 E0.00632
G1 X114.600 Y91.755 E0.05481
G1 X114.599 Y92.177 E0.00630
G1 X111.582 Y89.160 E0.06372
G1 X111.158 Y89.160 E0.00632
G1 X114.597 Y92.599 E0.07262
G1 X114.595 Y93.020 E0.00630
G1 X110.735 Y89.160 E0.08153
G1 X110.312 Y89.160 E0.00632
G1 X114.593 Y93.442 E0.09043
G1 X114.591 Y93.863 E0.00630
G1 X109.888 Y89.160 E0.09934
G1 X109.465 Y89.160 E0.00632
G1 X114.590 Y94.285 E0.10824
G1 X114.588 Y94.706 E0.00630
G1 X109.042 Y89.160 E0.11714
G1 X108.618 Y89.160 E0.00632
G1 X114.586 Y95.128 E0.12605
G1 X114.584 Y95.550 E0.00630
G1 X108.437 Y89.403 E0.12983
G1 X108.437 Y89.826 E0.00632
G1 X114.583 Y95.971 E0.12979
G1 X114.581 Y96.393 E0.00630
G1 X108.437 Y90.249 E0.12976
G1 X108.437 Y90.673 E0.00632
G1 X114.579 Y96.814 E0.12972
G1 X114.577 Y97.236 E0.00630
G1 X108.437 Y91.096 E0.12968
G1 X108.437 Y91.519 E0.00632
G1 X114.575 Y97.658 E0.12964
G1 X114.574 Y98.079 E0.00630
G1 X108.437 Y91.943 E0.12961
G1 X108.437 Y92.366 E0.00632
G1 X114.572 Y98.501 E0.12957
G1 X114.570 Y98.922 E0.00630
G1 X108.437 Y92.790 E0.12953
G1 X108.437 Y93.213 E0.00632
G1 X114.568 Y99.344 E0.12949
G1 X114.566 Y99.765 E0.00630
G1 X108.468 Y93.667 E0.12882
G1 X108.623 Y94.245 E0.00894
G1 X114.565 Y100.187 E0.12551
G1 X114.563 Y100.609 E0.00630
G1 X108.778 Y94.823 E0.12219
G1 X108.933 Y95.402 E0.00894
G1 X114.561 Y101.030 E0.11888
G1 X114.559 Y101.452 E0.00630
G1 X109.087 Y95.980 E0.11557
G1 X109.242 Y96.558 E0.00894
G1 X114.558 Y101.873 E0.11226
G1 X114.513 Y102.252 E0.00570
G1 X110.878 Y98.617 E0.07679
G1 X110.861 Y99.024 E0.00608
G1 X114.393 Y102.556 E0.07460
G1 X114.273 Y102.859 E0.00487
G1 X110.765 Y99.351 E0.07409
G1 X110.608 Y99.617 E0.00462
G1 X114.153 Y103.162 E0.07487
G1 X114.033 Y103.466 E0.00487
G1 X110.406 Y99.839 E0.07661
G1 X110.159 Y100.015 E0.00453
G1 X113.913 Y103.769 E0.07930
G1 X113.793 Y104.072 E0.00487
G1 X109.862 Y100.142 E0.08302
G1 X109.488 Y100.191 E0.00564
G1 X113.673 Y104.376 E0.08839
G1 X113.553 Y104.679 E0.00487
G1 X108.984 Y100.110 E0.09650
G1 X108.476 Y100.025 E0.00769
G1 X113.433 Y104.982 E0.10470
G1 X113.313 Y105.286 E0.00487
G1 X108.539 Y100.511 E0.10084
G1 X108.601 Y100.997 E0.00732
G1 X113.193 Y105.589 E0.09699
G1 X113.073 Y105.892 E0.00487
G1 X108.640 Y101.459 E0.09364
G1 X108.636 Y101.879 E0.00626
G1 X112.953 Y106.196 E0.09118
G1 X112.833 Y106.499 E0.00487
G1 X108.632 Y102.298 E0.08873
G1 X108.628 Y102.717 E0.00626
G1 X112.713 Y106.802 E0.08628
G1 X112.593 Y107.106 E0.00487
G1 X108.597 Y103.109 E0.08441
G1 X108.542 Y103.478 E0.00557
G1 X112.444 Y107.380 E0.08241
G1 X112.020 Y107.380 E0.00632
G1 X108.488 Y103.847 E0.07462
G1 X108.433 Y104.216 E0.00557
G1 X111.597 Y107.380 E0.06683
G1 X111.174 Y107.380 E0.00632
G1 X108.368 Y104.575 E0.05925
G1 X108.273 Y104.902 E0.00510
G1 X110.750 Y107.380 E0.05233
G1 X110.327 Y107.380 E0.00632
G1 X108.177 Y105.230 E0.04541
G1 X108.081 Y105.557 E0.00510
G1 X109.903 Y107.380 E0.03849
G1 X109.480 Y107.380 E0.00632
G1 X107.985 Y105.885 E0.03157
G1 X107.870 Y106.193 E0.00491
G1 X109.057 Y107.380 E0.02506
G1 X108.633 Y107.380 E0.00632
G1 X107.739 Y106.485 E0.01889
G1 X107.608 Y106.778 E0.00478
G1 X108.210 Y107.380 E0.01272
G1 X107.787 Y107.380 E0.00632
G1 X107.477 Y107.070 E0.00654
G1 X107.346 Y107.362 E0.00478
G1 X107.363 Y107.380 E0.00037
G1 X114.188 Y99.540 F3600.000
G1 X109.630 Y97.369 F3600.000
G1 X109.397 Y97.136 E0.00492 F600.000
G1 X107.801 Y97.446 F3600.000
G1 X107.779 Y97.424 E0.00049 F300.000
G1 X107.801 Y97.446 F3600.000
G1 X107.932 Y98.024 E0.00935 F300.000
G1 X107.951 Y98.043 E0.00042 F300.000
G1 X107.617 Y97.076 F3600.000
G1 X107.598 Y97.057 E0.00055 F300.000
G1 X107.419 Y96.298 E0.01596 F300.000
G1 X107.397 Y96.276 E0.00063 F300.000
G1 X107.274 Y95.987 F3600.000
G1 X106.921 Y95.635 E0.00740 F600.000
G1 X107.280 Y95.572 E0.00541
G1 X100.468 Y88.760 E0.14321
G1 X100.046 Y88.760 E0.00626
G1 X103.959 Y92.673 E0.08225
G1 X102.734 Y91.869 F3600.000
G1 X99.625 Y88.760 E0.06536 F600.000
G1 X99.204 Y88.760 E0.00626
G1 X101.853 Y91.410 E0.05569
G1 X101.151 Y91.129 F3600.000
G1 X98.782 Y88.760 E0.04979 F600.000
G1 X98.361 Y88.760 E0.00626
G1 X100.495 Y90.894 E0.04486
G1 X99.900 Y90.721 E0.00921
G1 X97.940 Y88.760 E0.04121
G1 X97.518 Y88.760 E0.00626
G1 X99.367 Y90.609 E0.03887
G1 X98.834 Y90.498 E0.00809
G1 X97.097 Y88.760 E0.03653
G1 X96.675 Y88.760 E0.00626
G1 X98.346 Y90.431 E0.03512
G1 X97.894 Y90.400 E0.00674
G1 X96.254 Y88.760 E0.03447
G1 X95.833 Y88.760 E0.00626
G1 X97.441 Y90.369 E0.03381
G1 X96.990 Y90.339 E0.00672
G1 X95.411 Y88.760 E0.03319
G1 X94.990 Y88.760 E0.00626
G1 X96.596 Y90.366 E0.03376
G1 X96.202 Y90.393 E0.00587
G1 X94.569 Y88.760 E0.03433
G1 X94.147 Y88.760 E0.00626
G1 X95.807 Y90.420 E0.03490
G1 X95.413 Y90.448 E0.00587
G1 X93.726 Y88.760 E0.03547
G1 X93.440 Y88.474 F3600.000
G1 X88.026 Y83.060 E0.11381 F600.000
G1 X87.605 Y83.060 E0.00626
G1 X95.063 Y90.519 E0.15680
G1 X94.715 Y90.592 E0.00529
G1 X87.183 Y83.060 E0.15833
G1 X86.762 Y83.060 E0.00626
G1 X94.366 Y90.665 E0.15987
G1 X94.018 Y90.738 E0.00529
G1 X86.340 Y83.060 E0.16140
G1 X85.919 Y83.060 E0.00626
G1 X93.688 Y90.829 E0.16331
G1 X93.377 Y90.940 E0.00490
G1 X85.498 Y83.060 E0.16564
G1 X85.076 Y83.060 E0.00626
G1 X93.067 Y91.051 E0.16798
G1 X92.757 Y91.162 E0.00490
G1 X84.655 Y83.060 E0.17031
G1 X84.234 Y83.060 E0.00626
G1 X92.446 Y91.273 E0.17265
G1 X92.157 Y91.405 E0.00473
G1 X83.812 Y83.060 E0.17541
G1 X83.391 Y83.060 E0.00626
G1 X91.880 Y91.549 E0.17845
G1 X91.603 Y91.693 E0.00464
G1 X83.060 Y83.151 E0.17958
G1 X83.060 Y83.572 E0.00626
G1 X91.326 Y91.838 E0.17376
G1 X91.049 Y91.982 E0.00464
G1 X83.060 Y83.994 E0.16794
G1 X83.060 Y84.415 E0.00626
G1 X90.787 Y92.142 E0.16244
G1 X90.541 Y92.317 E0.00449
G1 X83.060 Y84.836 E0.15726
G1 X83.060 Y85.258 E0.00626
G1 X90.295 Y92.492 E0.15208
G1 X90.049 Y92.667 E0.00449
G1 X83.060 Y85.679 E0.14691
G1 X83.060 Y86.101 E0.00626
G1 X89.802 Y92.843 E0.14173
G1 X89.562 Y93.023 E0.00447
G1 X83.060 Y86.522 E0.13668
G1 X83.060 Y86.943 E0.00626
G1 X89.345 Y93.228 E0.13212
G1 X89.128 Y93.432 E0.00443
G1 X83.060 Y87.365 E0.12755
G1 X83.060 Y87.786 E0.00626
G1 X88.911 Y93.637 E0.12299
G1 X88.694 Y93.841 E0.00443
G1 X83.060 Y88.207 E0.11843
G1 X83.060 Y88.629 E0.00626
G1 X88.477 Y94.046 E0.11387
G1 X88.284 Y94.274 E0.00444
G1 X83.060 Y89.050 E0.10981
G1 X83.060 Y89.471 E0.00626
G1 X88.096 Y94.507 E0.10586
G1 X87.908 Y94.741 E0.00445
G1 X83.060 Y89.893 E0.10191
G1 X83.060 Y90.314 E0.00626
G1 X87.720 Y94.974 E0.09796
G1 X87.532 Y95.208 E0.00445
G1 X83.060 Y90.736 E0.09401
G1 X83.060 Y91.157 E0.00626
G1 X87.359 Y95.456 E0.09037
G1 X87.201 Y95.719 E0.00457
G1 X83.060 Y91.578 E0.08704
G1 X83.060 Y92.000 E0.00626
G1 X87.043 Y95.982 E0.08372
G1 X86.885 Y96.246 E0.00457
G1 X83.060 Y92.421 E0.08040
G1 X83.060 Y92.842 E0.00626
G1 X86.727 Y96.509 E0.07708
G1 X86.577 Y96.781 E0.00461
G1 X83.060 Y93.264 E0.07394
G1 X83.060 Y93.685 E0.00626
G1 X86.452 Y97.077 E0.07129
G1 X86.326 Y97.372 E0.00477
G1 X83.060 Y94.107 E0.06865
G1 X83.060 Y94.528 E0.00626
G1 X86.200 Y97.667 E0.06600
G1 X86.074 Y97.963 E0.00477
G1 X83.060 Y94.949 E0.06335
G1 X83.060 Y95.371 E0.00626
G1 X85.958 Y98.268 E0.06092
G1 X85.868 Y98.600 E0.00510
G1 X83.060 Y95.792 E0.05902
G1 X83.060 Y96.213 E0.00626
G1 X85.778 Y98.931 E0.05713
G1 X85.688 Y99.262 E0.00510
G1 X83.060 Y96.635 E0.05524
G1 X83.060 Y97.056 E0.00626
G1 X85.598 Y99.594 E0.05334
G1 X85.534 Y99.951 E0.00539
G1 X83.060 Y97.477 E0.05199
G1 X83.060 Y97.899 E0.00626
G1 X85.486 Y100.324 E0.05099
G1 X85.437 Y100.697 E0.00560
G1 X83.060 Y98.320 E0.04998
G1 X83.060 Y98.742 E0.00626
G1 X85.389 Y101.071 E0.04897
G1 X85.360 Y101.463 E0.00585
G1 X83.060 Y99.163 E0.04835
G1 X83.060 Y99.584 E0.00626
G1 X85.364 Y101.888 E0.04844
G1 X85.368 Y102.314 E0.00632
G1 X83.060 Y100.006 E0.04852
G1 X83.060 Y100.427 E0.00626
G1 X85.372 Y102.739 E0.04860
G1 X85.418 Y103.206 E0.00697
G1 X83.060 Y100.848 E0.04956
G1 X83.060 Y101.270 E0.00626
G1 X85.491 Y103.700 E0.05109
G1 X85.564 Y104.195 E0.00743
G1 X83.060 Y101.691 E0.05263
G1 X83.060 Y102.113 E0.00626
G1 X85.677 Y104.729 E0.05501
G1 X85.851 Y105.324 E0.00922
G1 X83.060 Y102.534 E0.05866
G1 X83.060 Y102.955 E0.00626
G1 X86.025 Y105.920 E0.06232
G1 X86.336 Y106.652 F3600.000
G1 X83.060 Y103.377 E0.06886 F600.000
G1 X83.060 Y103.798 E0.00626
G1 X86.642 Y107.380 E0.07530
G1 X86.221 Y107.380 E0.00626
G1 X83.060 Y104.219 E0.06644
G1 X83.060 Y104.641 E0.00626
G1 X85.799 Y107.380 E0.05758
G1 X85.378 Y107.380 E0.00626
G1 X83.060 Y105.062 E0.04872
G1 X83.060 Y105.483 E0.00626
