; generated by Slic3r 1.0.0RC3 on 2014-03-24 at 20:49:18

; layer_height = 0.12
; perimeters = 2
; top_solid_layers = 4
; bottom_solid_layers = 3
; fill_density = 0.4
; perimeter_speed = 20
; infill_speed = 20
; travel_speed = 60
; nozzle_diameter = 0.5
; filament_diameter = 1.75
; extrusion_multiplier = 1
; perimeters extrusion width = 0.50mm
; infill extrusion width = 1.66mm
; solid infill extrusion width = 0.85mm
; top infill extrusion width = 0.85mm
; first layer extrusion width = 0.24mm

G21 ; set units to millimeters
M107
M104 S205 ; set temperature
G21 ; set units to millimeters
G90 ; use absolute coordinates
M83 ; use relative distances for extrusion
M140 S65; Set bed temperature
G1 Z5 F200 ; lift nozzle
G1 X2 Y50 F2000; Go to wait for warm position
M116; Wait for all temperatures
G10 P0 S205 R0 ; Set extruder temperature
T0; Select extruder
M116; Wait for all temperatures
M109 S205 ; wait for temperature to be reached
G90 ; use absolute coordinates
M83 ; use relative distances for extrusion
G1 F1800.000 E-1.00000
G1 Z0.120 F3600.000
G1 X83.550 Y78.550 F3600.000
G1 E3.00000 F1800.000
G1 X84.500 Y77.770 E0.01814 F600.000
G1 X85.590 Y77.180 E0.01829
G1 X86.770 Y76.830 E0.01816
G1 X88.000 Y76.700 E0.01825
G1 X112.000 Y76.700 E0.35418
G1 X113.230 Y76.830 E0.01825
G1 X114.410 Y77.180 E0.01816
G1 X115.500 Y77.770 E0.01829
G1 X116.450 Y78.550 E0.01814
G1 X117.230 Y79.500 E0.01814
G1 X117.820 Y80.590 E0.01829
G1 X118.170 Y81.770 E0.01816
G1 X118.300 Y83.000 E0.01825
G1 X118.300 Y117.000 E0.50175
G1 X118.170 Y118.230 E0.01825
G1 X117.820 Y119.410 E0.01816
G1 X117.230 Y120.500 E0.01829
G1 X116.450 Y121.450 E0.01814
G1 X115.500 Y122.230 E0.01814
G1 X114.410 Y122.820 E0.01829
G1 X113.230 Y123.170 E0.01816
G1 X112.000 Y123.300 E0.01825
G1 X88.000 Y123.300 E0.35418
G1 X86.770 Y123.170 E0.01825
G1 X85.590 Y122.820 E0.01816
G1 X84.500 Y122.230 E0.01829
G1 X83.550 Y121.450 E0.01814
G1 X82.770 Y120.500 E0.01814
G1 X82.180 Y119.410 E0.01829
G1 X81.830 Y118.230 E0.01816
G1 X81.700 Y117.000 E0.01825
G1 X81.700 Y83.000 E0.50175
G1 X81.830 Y81.770 E0.01825
G1 X82.180 Y80.590 E0.01816
G1 X82.770 Y79.500 E0.01829
G1 X83.522 Y78.584 E0.01748
G1 F1800.000 E-1.00000
G1 X88.120 Y102.120 F3600.000
G1 E3.00000 F1800.000
G1 X111.880 Y102.120 E0.35063 F420.000
G1 X111.880 Y116.880 E0.21782
G1 X88.120 Y116.880 E0.35063
G1 X88.120 Y102.164 E0.21716
G1 X88.376 Y102.268 F3600.000
G1 X88.416 Y102.416 F3600.000
G1 X111.584 Y102.416 E0.34190 F600.000
G1 X111.584 Y116.584 E0.20909
G1 X88.416 Y116.584 E0.34190
G1 X88.416 Y102.460 E0.20843
G1 X88.640 Y116.380 F3600.000
G1 X88.620 Y116.360 E0.00042 F600.000
G1 X88.620 Y115.940 E0.00620
G1 X89.060 Y116.380 E0.00919
G1 X89.479 Y116.380 E0.00620
G1 X88.620 Y115.521 E0.01796
G1 X88.620 Y115.102 E0.00620
G1 X89.898 Y116.380 E0.02673
G1 X90.317 Y116.380 E0.00620
G1 X88.620 Y114.683 E0.03550
G1 X88.620 Y114.263 E0.00620
G1 X90.737 Y116.380 E0.04428
G1 X91.156 Y116.380 E0.00620
G1 X88.620 Y113.844 E0.05305
G1 X88.620 Y113.425 E0.00620
G1 X91.575 Y116.380 E0.06182
G1 X91.995 Y116.380 E0.00620
G1 X88.620 Y113.005 E0.07059
G1 X88.620 Y112.586 E0.00620
G1 X92.414 Y116.380 E0.07936
G1 X92.833 Y116.380 E0.00620
G1 X88.620 Y112.167 E0.08813
G1 X88.620 Y111.747 E0.00620
G1 X93.253 Y116.380 E0.09690
G1 X93.672 Y116.380 E0.00620
G1 X88.620 Y111.328 E0.10567
G1 X88.620 Y110.909 E0.00620
G1 X94.091 Y116.380 E0.11445
G1 X94.510 Y116.380 E0.00620
G1 X88.620 Y110.490 E0.12322
G1 X88.620 Y110.070 E0.00620
G1 X94.930 Y116.380 E0.13199
G1 X95.349 Y116.380 E0.00620
G1 X88.620 Y109.651 E0.14076
G1 X88.620 Y109.232 E0.00620
G1 X95.768 Y116.380 E0.14953
G1 X96.188 Y116.380 E0.00620
G1 X88.620 Y108.812 E0.15830
G1 X88.620 Y108.393 E0.00620
G1 X96.607 Y116.380 E0.16707
G1 X97.026 Y116.380 E0.00620
G1 X88.620 Y107.974 E0.17585
G1 X88.620 Y107.554 E0.00620
G1 X97.446 Y116.380 E0.18462
G1 X97.865 Y116.380 E0.00620
G1 X88.620 Y107.135 E0.19339
G1 X88.620 Y106.716 E0.00620
G1 X98.284 Y116.380 E0.20216
G1 X98.703 Y116.380 E0.00620
G1 X88.620 Y106.297 E0.21093
G1 X88.620 Y105.877 E0.00620
G1 X99.123 Y116.380 E0.21970
G1 X99.542 Y116.380 E0.00620
G1 X88.620 Y105.458 E0.22847
G1 X88.620 Y105.039 E0.00620
G1 X99.961 Y116.380 E0.23724
G1 X100.381 Y116.380 E0.00620
G1 X88.620 Y104.619 E0.24602
G1 X88.620 Y104.200 E0.00620
G1 X100.800 Y116.380 E0.25479
G1 X101.219 Y116.380 E0.00620
G1 X88.620 Y103.781 E0.26356
G1 X88.620 Y103.361 E0.00620
G1 X101.639 Y116.380 E0.27233
G1 X102.058 Y116.380 E0.00620
G1 X88.620 Y102.942 E0.28110
G1 X88.718 Y102.620 E0.00497
G1 X102.477 Y116.380 E0.28784
G1 X102.896 Y116.380 E0.00620
G1 X89.137 Y102.620 E0.28784
G1 X89.556 Y102.620 E0.00620
G1 X103.316 Y116.380 E0.28784
G1 X103.735 Y116.380 E0.00620
G1 X89.976 Y102.620 E0.28784
G1 X90.395 Y102.620 E0.00620
G1 X104.154 Y116.380 E0.28784
G1 X104.574 Y116.380 E0.00620
G1 X90.814 Y102.620 E0.28784
G1 X91.233 Y102.620 E0.00620
G1 X104.993 Y116.380 E0.28784
G1 X105.412 Y116.380 E0.00620
G1 X91.653 Y102.620 E0.28784
G1 X92.072 Y102.620 E0.00620
G1 X105.832 Y116.380 E0.28784
G1 X106.251 Y116.380 E0.00620
G1 X92.491 Y102.620 E0.28784
G1 X92.911 Y102.620 E0.00620
G1 X106.670 Y116.380 E0.28784
G1 X107.089 Y116.380 E0.00620
G1 X93.330 Y102.620 E0.28784
G1 X93.749 Y102.620 E0.00620
G1 X107.509 Y116.380 E0.28784
G1 X107.928 Y116.380 E0.00620
G1 X94.169 Y102.620 E0.28784
G1 X94.588 Y102.620 E0.00620
G1 X108.347 Y116.380 E0.28784
G1 X108.767 Y116.380 E0.00620
G1 X95.007 Y102.620 E0.28784
G1 X95.426 Y102.620 E0.00620
G1 X109.186 Y116.380 E0.28784
G1 X109.605 Y116.380 E0.00620
G1 X95.846 Y102.620 E0.28784
G1 X96.265 Y102.620 E0.00620
G1 X110.025 Y116.380 E0.28784
G1 X110.444 Y116.380 E0.00620
G1 X96.684 Y102.620 E0.28784
G1 X97.104 Y102.620 E0.00620
G1 X110.863 Y116.380 E0.28784
G1 X111.282 Y116.380 E0.00620
G1 X97.523 Y102.620 E0.28784
G1 X97.942 Y102.620 E0.00620
G1 X111.380 Y116.058 E0.28110
G1 X111.380 Y115.638 E0.00620
G1 X98.362 Y102.620 E0.27233
G1 X98.781 Y102.620 E0.00620
G1 X111.380 Y115.219 E0.26356
G1 X111.380 Y114.800 E0.00620
G1 X99.200 Y102.620 E0.25479
G1 X99.619 Y102.620 E0.00620
G1 X111.380 Y114.381 E0.24601
G1 X111.380 Y113.961 E0.00620
G1 X100.039 Y102.620 E0.23724
G1 X100.458 Y102.620 E0.00620
G1 X111.380 Y113.542 E0.22847
G1 X111.380 Y113.123 E0.00620
G1 X100.877 Y102.620 E0.21970
G1 X101.297 Y102.620 E0.00620
G1 X111.380 Y112.703 E0.21093
G1 X111.380 Y112.284 E0.00620
G1 X101.716 Y102.620 E0.20216
G1 X102.135 Y102.620 E0.00620
G1 X111.380 Y111.865 E0.19339
G1 X111.380 Y111.445 E0.00620
G1 X102.555 Y102.620 E0.18462
G1 X102.974 Y102.620 E0.00620
G1 X111.380 Y111.026 E0.17584
G1 X111.380 Y110.607 E0.00620
G1 X103.393 Y102.620 E0.16707
G1 X103.812 Y102.620 E0.00620
G1 X111.380 Y110.188 E0.15830
G1 X111.380 Y109.768 E0.00620
G1 X104.232 Y102.620 E0.14953
G1 X104.651 Y102.620 E0.00620
G1 X111.380 Y109.349 E0.14076
G1 X111.380 Y108.930 E0.00620
G1 X105.070 Y102.620 E0.13199
G1 X105.490 Y102.620 E0.00620
G1 X111.380 Y108.510 E0.12322
G1 X111.380 Y108.091 E0.00620
G1 X105.909 Y102.620 E0.11444
G1 X106.328 Y102.620 E0.00620
G1 X111.380 Y107.672 E0.10567
G1 X111.380 Y107.252 E0.00620
G1 X106.748 Y102.620 E0.09690
G1 X107.167 Y102.620 E0.00620
G1 X111.380 Y106.833 E0.08813
G1 X111.380 Y106.414 E0.00620
G1 X107.586 Y102.620 E0.07936
G1 X108.005 Y102.620 E0.00620
G1 X111.380 Y105.995 E0.07059
G1 X111.380 Y105.575 E0.00620
G1 X108.425 Y102.620 E0.06182
G1 X108.844 Y102.620 E0.00620
G1 X111.380 Y105.156 E0.05305
G1 X111.380 Y104.737 E0.00620
G1 X109.263 Y102.620 E0.04427
G1 X109.683 Y102.620 E0.00620
G1 X111.380 Y104.317 E0.03550
G1 X111.380 Y103.898 E0.00620
G1 X110.102 Y102.620 E0.02673
G1 X110.521 Y102.620 E0.00620
G1 X111.380 Y103.479 E0.01796
G1 X111.380 Y103.059 E0.00620
G1 X110.941 Y102.620 E0.00919
G1 X111.360 Y102.620 E0.00620
G1 X111.380 Y102.640 E0.00042
G1 F1800.000 E-1.00000
G1 X111.880 Y97.880 F3600.000
G1 E3.00000 F1800.000
G1 X88.120 Y97.880 E0.35063 F420.000
G1 X88.120 Y83.120 E0.21782
G1 X111.880 Y83.120 E0.35063
G1 X111.880 Y97.836 E0.21716
G1 X111.624 Y97.732 F3600.000
G1 X111.584 Y97.584 F3600.000
G1 X88.416 Y97.584 E0.34190 F600.000
G1 X88.416 Y83.416 E0.20909
G1 X111.584 Y83.416 E0.34190
G1 X111.584 Y97.540 E0.20843
G1 X111.380 Y83.640 F3600.000
G1 X111.360 Y83.620 E0.00042 F600.000
G1 X110.941 Y83.620 E0.00620
G1 X111.380 Y84.059 E0.00919
G1 X111.380 Y84.479 E0.00620
G1 X110.521 Y83.620 E0.01796
G1 X110.102 Y83.620 E0.00620
G1 X111.380 Y84.898 E0.02673
G1 X111.380 Y85.317 E0.00620
G1 X109.683 Y83.620 E0.03550
G1 X109.263 Y83.620 E0.00620
G1 X111.380 Y85.737 E0.04427
G1 X111.380 Y86.156 E0.00620
G1 X108.844 Y83.620 E0.05305
G1 X108.425 Y83.620 E0.00620
G1 X111.380 Y86.575 E0.06182
G1 X111.380 Y86.995 E0.00620
G1 X108.005 Y83.620 E0.07059
G1 X107.586 Y83.620 E0.00620
G1 X111.380 Y87.414 E0.07936
G1 X111.380 Y87.833 E0.00620
G1 X107.167 Y83.620 E0.08813
G1 X106.748 Y83.620 E0.00620
G1 X111.380 Y88.252 E0.09690
G1 X111.380 Y88.672 E0.00620
G1 X106.328 Y83.620 E0.10567
G1 X105.909 Y83.620 E0.00620
G1 X111.380 Y89.091 E0.11444
G1 X111.380 Y89.510 E0.00620
G1 X105.490 Y83.620 E0.12322
G1 X105.070 Y83.620 E0.00620
G1 X111.380 Y89.930 E0.13199
G1 X111.380 Y90.349 E0.00620
G1 X104.651 Y83.620 E0.14076
G1 X104.232 Y83.620 E0.00620
G1 X111.380 Y90.768 E0.14953
G1 X111.380 Y91.188 E0.00620
G1 X103.812 Y83.620 E0.15830
G1 X103.393 Y83.620 E0.00620
G1 X111.380 Y91.607 E0.16707
G1 X111.380 Y92.026 E0.00620
G1 X102.974 Y83.620 E0.17584
G1 X102.555 Y83.620 E0.00620
G1 X111.380 Y92.445 E0.18462
G1 X111.380 Y92.865 E0.00620
G1 X102.135 Y83.620 E0.19339
G1 X101.716 Y83.620 E0.00620
G1 X111.380 Y93.284 E0.20216
G1 X111.380 Y93.703 E0.00620
G1 X101.297 Y83.620 E0.21093
G1 X100.877 Y83.620 E0.00620
G1 X111.380 Y94.123 E0.21970
G1 X111.380 Y94.542 E0.00620
G1 X100.458 Y83.620 E0.22847
G1 X100.039 Y83.620 E0.00620
G1 X111.380 Y94.961 E0.23724
G1 X111.380 Y95.381 E0.00620
G1 X99.619 Y83.620 E0.24601
G1 X99.200 Y83.620 E0.00620
G1 X111.380 Y95.800 E0.25479
G1 X111.380 Y96.219 E0.00620
G1 X98.781 Y83.620 E0.26356
G1 X98.362 Y83.620 E0.00620
G1 X111.380 Y96.638 E0.27233
G1 X111.380 Y97.058 E0.00620
G1 X97.942 Y83.620 E0.28110
G1 X97.523 Y83.620 E0.00620
G1 X111.282 Y97.380 E0.28784
G1 X110.863 Y97.380 E0.00620
G1 X97.104 Y83.620 E0.28784
G1 X96.684 Y83.620 E0.00620
G1 X110.444 Y97.380 E0.28784
G1 X110.025 Y97.380 E0.00620
G1 X96.265 Y83.620 E0.28784
G1 X95.846 Y83.620 E0.00620
G1 X109.605 Y97.380 E0.28784
G1 X109.186 Y97.380 E0.00620
G1 X95.426 Y83.620 E0.28784
G1 X95.007 Y83.620 E0.00620
G1 X108.767 Y97.380 E0.28784
G1 X108.347 Y97.380 E0.00620
G1 X94.588 Y83.620 E0.28784
G1 X94.169 Y83.620 E0.00620
G1 X107.928 Y97.380 E0.28784
G1 X107.509 Y97.380 E0.00620
G1 X93.749 Y83.620 E0.28784
G1 X93.330 Y83.620 E0.00620
G1 X107.089 Y97.380 E0.28784
G1 X106.670 Y97.380 E0.00620
G1 X92.911 Y83.620 E0.28784
G1 X92.491 Y83.620 E0.00620
G1 X106.251 Y97.380 E0.28784
G1 X105.832 Y97.380 E0.00620
G1 X92.072 Y83.620 E0.28784
G1 X91.653 Y83.620 E0.00620
G1 X105.412 Y97.380 E0.28784
G1 X104.993 Y97.380 E0.00620
G1 X91.233 Y83.620 E0.28784
G1 X90.814 Y83.620 E0.00620
G1 X104.574 Y97.380 E0.28784
G1 X104.154 Y97.380 E0.00620
G1 X90.395 Y83.620 E0.28784
G1 X89.976 Y83.620 E0.00620
G1 X103.735 Y97.380 E0.28784
G1 X103.316 Y97.380 E0.00620
G1 X89.556 Y83.620 E0.28784
G1 X89.137 Y83.620 E0.00620
G1 X102.896 Y97.380 E0.28784
G1 X102.477 Y97.380 E0.00620
G1 X88.718 Y83.620 E0.28784
G1 X88.620 Y83.942 E0.00497
G1 X102.058 Y97.380 E0.28110
G1 X101.639 Y97.380 E0.00620
G1 X88.620 Y84.361 E0.27233
G1 X88.620 Y84.781 E0.00620
G1 X101.219 Y97.380 E0.26356
G1 X100.800 Y97.380 E0.00620
G1 X88.620 Y85.200 E0.25479
G1 X88.620 Y85.619 E0.00620
G1 X100.381 Y97.380 E0.24602
G1 X99.961 Y97.380 E0.00620
G1 X88.620 Y86.039 E0.23724
G1 X88.620 Y86.458 E0.00620
G1 X99.542 Y97.380 E0.22847
G1 X99.123 Y97.380 E0.00620
G1 X88.620 Y86.877 E0.21970
G1 X88.620 Y87.297 E0.00620
G1 X98.703 Y97.380 E0.21093
G1 X98.284 Y97.380 E0.00620
G1 X88.620 Y87.716 E0.20216
G1 X88.620 Y88.135 E0.00620
G1 X97.865 Y97.380 E0.19339
G1 X97.446 Y97.380 E0.00620
G1 X88.620 Y88.554 E0.18462
G1 X88.620 Y88.974 E0.00620
G1 X97.026 Y97.380 E0.17585
G1 X96.607 Y97.380 E0.00620
G1 X88.620 Y89.393 E0.16707
G1 X88.620 Y89.812 E0.00620
G1 X96.188 Y97.380 E0.15830
G1 X95.768 Y97.380 E0.00620
G1 X88.620 Y90.232 E0.14953
G1 X88.620 Y90.651 E0.00620
G1 X95.349 Y97.380 E0.14076
G1 X94.930 Y97.380 E0.00620
G1 X88.620 Y91.070 E0.13199
G1 X88.620 Y91.490 E0.00620
G1 X94.510 Y97.380 E0.12322
G1 X94.091 Y97.380 E0.00620
G1 X88.620 Y91.909 E0.11445
G1 X88.620 Y92.328 E0.00620
G1 X93.672 Y97.380 E0.10567
G1 X93.253 Y97.380 E0.00620
G1 X88.620 Y92.747 E0.09690
G1 X88.620 Y93.167 E0.00620
G1 X92.833 Y97.380 E0.08813
G1 X92.414 Y97.380 E0.00620
G1 X88.620 Y93.586 E0.07936
G1 X88.620 Y94.005 E0.00620
G1 X91.995 Y97.380 E0.07059
G1 X91.575 Y97.380 E0.00620
G1 X88.620 Y94.425 E0.06182
G1 X88.620 Y94.844 E0.00620
G1 X91.156 Y97.380 E0.05305
G1 X90.737 Y97.380 E0.00620
G1 X88.620 Y95.263 E0.04428
G1 X88.620 Y95.683 E0.00620
G1 X90.317 Y97.380 E0.03550
G1 X89.898 Y97.380 E0.00620
G1 X88.620 Y96.102 E0.02673
G1 X88.620 Y96.521 E0.00620
G1 X89.479 Y97.380 E0.01796
G1 X89.060 Y97.380 E0.00620
G1 X88.620 Y96.940 E0.00919
G1 X88.620 Y97.360 E0.00620
G1 X88.640 Y97.380 E0.00042
G1 F1800.000 E-1.00000
G1 Z0.240 F3600.000
G1 X91.000 Y84.000 F3600.000
G1 X90.000 Y81.000 F3600.000
G1 X81.700 Y83.000 F3600.000
G1 E3.00000 F1800.000
G1 X81.830 Y81.770 E0.01825 F1200
G1 X82.180 Y80.590 E0.01816
G1 X82.770 Y79.500 E0.01829
G1 X83.550 Y78.550 E0.01814
G1 X84.500 Y77.770 E0.01814
G1 X85.590 Y77.180 E0.01829
G1 X86.770 Y76.830 E0.01816
G1 X88.000 Y76.700 E0.01825
G1 X112.000 Y76.700 E0.35418
G1 X113.230 Y76.830 E0.01825
G1 X114.410 Y77.180 E0.01816
G1 X115.500 Y77.770 E0.01829
G1 X116.450 Y78.550 E0.01814
G1 X117.230 Y79.500 E0.01814
G1 X117.820 Y80.590 E0.01829
G1 X118.170 Y81.770 E0.01816
G1 X118.300 Y83.000 E0.01825
G1 X118.300 Y117.000 E0.50175
G1 X118.170 Y118.230 E0.01825
G1 X117.820 Y119.410 E0.01816
G1 X117.230 Y120.500 E0.01829
G1 X116.450 Y121.450 E0.01814
G1 X115.500 Y122.230 E0.01814
G1 X114.410 Y122.820 E0.01829
G1 X113.230 Y123.170 E0.01816
G1 X112.000 Y123.300 E0.01825
G1 X88.000 Y123.300 E0.35418
G1 X86.770 Y123.170 E0.01825
G1 X85.590 Y122.820 E0.01816
G1 X84.500 Y122.230 E0.01829
G1 X83.550 Y121.450 E0.01814
G1 X82.770 Y120.500 E0.01814
G1 X82.180 Y119.410 E0.01829
G1 X81.830 Y118.230 E0.01816
G1 X81.700 Y117.000 E0.01825
G1 X81.700 Y83.044 E0.50110
G1 F1800.000 E-1.00000
G1 X88.250 Y102.250 F3600.000
G1 E3.00000 F1800.000
G1 X111.750 Y102.250 E0.58621 F840
G1 X111.750 Y116.750 E0.36170
G1 X88.250 Y116.750 E0.58621
G1 X88.250 Y102.325 E0.35983
G1 X88.683 Y102.500 F3600.000
G1 X88.750 Y102.750 F3600.000
G1 X111.250 Y102.750 E0.56126 F1200
G1 X111.250 Y116.250 E0.33676
G1 X88.750 Y116.250 E0.56126
G1 X88.750 Y102.825 E0.33489
G1 X89.195 Y103.175 F3600.000
G1 X89.175 Y103.195 E0.00118 F1200
G1 X89.175 Y104.377 E0.04923
G1 X90.377 Y103.175 E0.07080
G1 X91.558 Y103.175 E0.04923
G1 X89.175 Y105.558 E0.14042
G1 X89.175 Y106.739 E0.04923
G1 X92.739 Y103.175 E0.21004
G1 X93.921 Y103.175 E0.04923
G1 X89.175 Y107.921 E0.27967
G1 X89.175 Y109.102 E0.04923
G1 X95.102 Y103.175 E0.34929
G1 X96.283 Y103.175 E0.04923
G1 X89.175 Y110.283 E0.41891
G1 X89.175 Y111.465 E0.04923
G1 X97.465 Y103.175 E0.48854
G1 X98.646 Y103.175 E0.04923
G1 X89.175 Y112.646 E0.55816
G1 X89.175 Y113.827 E0.04923
G1 X99.827 Y103.175 E0.62778
G1 X101.009 Y103.175 E0.04923
G1 X89.175 Y115.009 E0.69740
G1 X89.541 Y115.825 E0.03726
G1 X102.190 Y103.175 E0.74549
G1 X103.371 Y103.175 E0.04923
G1 X90.722 Y115.825 E0.74549
G1 X91.903 Y115.825 E0.04923
G1 X104.553 Y103.175 E0.74549
G1 X105.734 Y103.175 E0.04923
G1 X93.085 Y115.825 E0.74549
G1 X94.266 Y115.825 E0.04923
G1 X106.915 Y103.175 E0.74549
G1 X108.097 Y103.175 E0.04923
G1 X95.447 Y115.825 E0.74549
G1 X96.629 Y115.825 E0.04923
G1 X109.278 Y103.175 E0.74549
G1 X110.459 Y103.175 E0.04923
G1 X97.810 Y115.825 E0.74549
G1 X98.991 Y115.825 E0.04923
G1 X110.825 Y103.991 E0.69741
G1 X110.825 Y105.173 E0.04923
G1 X100.173 Y115.825 E0.62778
