; generated by Slic3r 1.0.0RC3 on 2014-03-16 at 17:40:14

; layer_height = 0.24
; perimeters = 2
; top_solid_layers = 4
; bottom_solid_layers = 3
; fill_density = 0.4
; perimeter_speed = 20
; infill_speed = 20
; travel_speed = 60
; nozzle_diameter = 0.5
; filament_diameter = 1.75
; extrusion_multiplier = 1
; perimeters extrusion width = 0.50mm
; infill extrusion width = 0.87mm
; solid infill extrusion width = 0.85mm
; top infill extrusion width = 0.85mm
; first layer extrusion width = 0.48mm

G21 ; set units to millimeters
M107
M104 S205 ; set temperature
G21 ; set units to millimeters
G90 ; use absolute coordinates
M83 ; use relative distances for extrusion
M140 S65; Set bed temperature
G1 Z5 F200 ; lift nozzle
G1 X2 Y50 F2000; Go to wait for warm position
M116; Wait for all temperatures
G10 P0 S205 R0 ; Set extruder temperature
T0; Select extruder
M116; Wait for all temperatures
M109 S205 ; wait for temperature to be reached
G90 ; use absolute coordinates
M83 ; use relative distances for extrusion
G1 F1800.000 E-1.00000
G1 Z0.240 F3600.000
G1 X83.910 Y73.410 F3600.000
G1 E1.00000 F1800.000
G1 X84.900 Y72.610 E0.06151 F600.000
G1 X86.020 Y72.010 E0.06140
G1 X87.230 Y71.640 E0.06114
G1 X88.500 Y71.520 E0.06164
G1 X125.500 Y71.520 E1.78795
G1 X126.820 Y71.650 E0.06409
G1 X128.080 Y72.050 E0.06388
G1 X129.230 Y72.700 E0.06383
G1 X130.230 Y73.570 E0.06405
G1 X131.030 Y74.620 E0.06379
G1 X131.610 Y75.820 E0.06441
G1 X131.920 Y77.100 E0.06364
G1 X138.420 Y123.600 E2.26886
G1 X138.480 Y124.500 E0.04359
G1 X138.480 Y126.500 E0.09665
G1 X138.360 Y127.770 E0.06164
G1 X137.990 Y128.980 E0.06114
G1 X137.390 Y130.100 E0.06140
G1 X136.590 Y131.090 E0.06151
G1 X135.600 Y131.890 E0.06151
G1 X134.480 Y132.490 E0.06140
G1 X133.270 Y132.860 E0.06114
G1 X132.000 Y132.980 E0.06164
G1 X112.500 Y132.980 E0.94230
G1 X111.430 Y132.900 E0.05185
G1 X87.430 Y128.900 E1.17575
G1 X86.180 Y128.550 E0.06273
G1 X85.020 Y127.970 E0.06267
G1 X84.000 Y127.170 E0.06264
G1 X83.160 Y126.170 E0.06311
G1 X82.530 Y125.030 E0.06294
G1 X82.150 Y123.790 E0.06267
G1 X82.020 Y122.500 E0.06265
G1 X82.020 Y78.000 E2.15037
G1 X82.140 Y76.730 E0.06164
G1 X82.510 Y75.520 E0.06114
G1 X83.110 Y74.400 E0.06140
G1 X83.864 Y73.467 E0.05800
G1 F1800.000 E-1.00000
G1 X83.899 Y76.094 F3600.000
G1 E1.00000 F1800.000
G1 X86.594 Y73.399 E0.18418 F600.000
G1 X127.406 Y73.399 E1.97212
G1 X130.101 Y76.094 E0.18418
G1 X130.101 Y119.616 E2.10307
G1 X130.384 Y119.899 E0.01939
G1 X133.906 Y119.899 E0.17016
G1 X136.601 Y122.594 E0.18418
G1 X136.601 Y128.406 E0.28082
G1 X133.906 Y131.101 E0.18418
G1 X110.594 Y131.101 E1.12647
G1 X107.899 Y128.406 E0.18418
G1 X107.899 Y127.384 E0.04935
G1 X107.616 Y127.101 E0.01939
G1 X86.594 Y127.101 E1.01581
G1 X83.899 Y124.406 E0.18418
G1 X83.899 Y76.167 E2.33103
G1 X84.384 Y76.295 F3600.000
G1 X86.795 Y73.884 E0.16479 F600.000
G1 X127.205 Y73.884 E1.95274
G1 X129.616 Y76.295 E0.16479
G1 X129.616 Y120.100 E2.11678
G1 X129.900 Y120.384 E0.01939
G1 X133.705 Y120.384 E0.18386
G1 X136.116 Y122.795 E0.16479
G1 X136.116 Y128.205 E0.26144
G1 X133.705 Y130.616 E0.16479
G1 X110.795 Y130.616 E1.10709
G1 X108.384 Y128.205 E0.16479
G1 X108.384 Y126.900 E0.06306
G1 X108.100 Y126.616 E0.01939
G1 X86.795 Y126.616 E1.02951
G1 X84.384 Y124.205 E0.16479
G1 X84.384 Y76.368 E2.31165
G1 X84.868 Y76.495 F3600.000
G1 X86.995 Y74.368 E0.14540 F600.000
G1 X127.005 Y74.368 E1.93335
G1 X129.132 Y76.495 E0.14540
G1 X129.132 Y120.584 E2.13049
G1 X129.416 Y120.868 E0.01939
G1 X133.505 Y120.868 E0.19757
G1 X135.632 Y122.995 E0.14540
G1 X135.632 Y128.005 E0.24205
G1 X133.505 Y130.132 E0.14540
G1 X110.995 Y130.132 E1.08770
G1 X108.868 Y128.005 E0.14540
G1 X108.868 Y126.416 E0.07677
G1 X108.584 Y126.132 E0.01939
G1 X86.995 Y126.132 E1.04322
G1 X84.868 Y124.005 E0.14540
G1 X84.868 Y76.568 E2.29226
G1 X85.352 Y76.696 F3600.000
G1 X87.196 Y74.852 E0.12602 F600.000
G1 X126.804 Y74.852 E1.91396
G1 X128.648 Y76.696 E0.12602
G1 X128.648 Y121.068 E2.14420
G1 X128.932 Y121.352 E0.01939
G1 X133.304 Y121.352 E0.21128
G1 X135.148 Y123.196 E0.12602
G1 X135.148 Y127.804 E0.22266
G1 X133.304 Y129.648 E0.12602
G1 X111.196 Y129.648 E1.06831
G1 X109.352 Y127.804 E0.12602
G1 X109.352 Y125.932 E0.09048
G1 X109.068 Y125.648 E0.01939
G1 X87.196 Y125.648 E1.05693
G1 X85.352 Y123.804 E0.12602
G1 X85.352 Y76.769 E2.27287
G1 X85.836 Y76.897 F3600.000
G1 X87.397 Y75.336 E0.10663 F600.000
G1 X126.603 Y75.336 E1.89458
G1 X128.164 Y76.897 E0.10663
G1 X128.164 Y121.553 E2.15791
G1 X128.447 Y121.836 E0.01939
G1 X133.103 Y121.836 E0.22499
G1 X134.664 Y123.397 E0.10663
G1 X134.664 Y127.603 E0.20328
G1 X133.103 Y129.164 E0.10663
G1 X111.397 Y129.164 E1.04893
G1 X109.836 Y127.603 E0.10663
G1 X109.836 Y125.447 E0.10418
G1 X109.553 Y125.164 E0.01939
G1 X87.397 Y125.164 E1.07064
G1 X85.836 Y123.603 E0.10663
G1 X85.836 Y76.969 E2.25349
G1 X86.321 Y77.097 F3600.000
G1 X87.597 Y75.821 E0.08724 F600.000
G1 X126.403 Y75.821 E1.87519
G1 X127.679 Y77.097 E0.08724
G1 X127.679 Y122.037 E2.17161
G1 X127.963 Y122.321 E0.01939
G1 X132.903 Y122.321 E0.23870
G1 X134.179 Y123.597 E0.08724
G1 X134.179 Y127.403 E0.18389
G1 X132.903 Y128.679 E0.08724
G1 X111.597 Y128.679 E1.02954
G1 X110.321 Y127.403 E0.08724
G1 X110.321 Y124.963 E0.11789
G1 X110.037 Y124.679 E0.01939
G1 X87.597 Y124.679 E1.08435
G1 X86.321 Y123.403 E0.08724
G1 X86.321 Y77.170 E2.23410
G1 X86.805 Y77.298 F3600.000
G1 X87.798 Y76.305 E0.06786 F600.000
G1 X126.202 Y76.305 E1.85580
G1 X127.195 Y77.298 E0.06786
G1 X127.195 Y122.521 E2.18532
G1 X127.479 Y122.805 E0.01939
G1 X132.702 Y122.805 E0.25241
G1 X133.695 Y123.798 E0.06786
G1 X133.695 Y127.202 E0.16450
G1 X132.702 Y128.195 E0.06786
G1 X111.798 Y128.195 E1.01015
G1 X110.805 Y127.202 E0.06786
G1 X110.805 Y124.479 E0.13160
G1 X110.521 Y124.195 E0.01939
G1 X87.798 Y124.195 E1.09806
G1 X86.805 Y123.202 E0.06786
G1 X86.805 Y77.371 E2.21471
G1 X87.289 Y77.498 F3600.000
G1 X87.998 Y76.789 E0.04847 F600.000
G1 X126.001 Y76.789 E1.83641
G1 X126.711 Y77.498 E0.04847
G1 X126.711 Y123.006 E2.19903
G1 X126.994 Y123.289 E0.01939
G1 X132.501 Y123.289 E0.26612
G1 X133.211 Y123.998 E0.04847
G1 X133.211 Y127.001 E0.14511
G1 X132.501 Y127.711 E0.04847
G1 X111.998 Y127.711 E0.99076
G1 X111.289 Y127.001 E0.04847
G1 X111.289 Y123.994 E0.14531
G1 X111.006 Y123.711 E0.01939
G1 X87.998 Y123.711 E1.11177
G1 X87.289 Y123.001 E0.04847
G1 X87.289 Y77.571 E2.19532
G1 X87.774 Y77.699 F3600.000
G1 X88.199 Y77.274 E0.02908 F600.000
G1 X125.801 Y77.274 E1.81703
G1 X126.226 Y77.699 E0.02908
G1 X126.226 Y122.801 E2.17945
G1 X125.852 Y123.176 E0.02561
G1 X126.099 Y123.774 E0.03127
G1 X132.301 Y123.774 E0.29968
G1 X132.726 Y124.199 E0.02908
G1 X132.726 Y126.801 E0.12573
G1 X132.301 Y127.226 E0.02908
G1 X112.199 Y127.226 E0.97138
G1 X111.774 Y126.801 E0.02908
G1 X111.774 Y123.510 E0.15902
G1 X111.490 Y123.226 E0.01939
G1 X88.199 Y123.226 E1.12548
G1 X87.774 Y122.801 E0.02908
G1 X87.774 Y77.772 E2.17594
G1 X88.258 Y77.900 F3600.000
G1 X88.400 Y77.758 E0.00969 F600.000
G1 X125.600 Y77.758 E1.79764
G1 X125.742 Y77.900 E0.00969
G1 X125.742 Y122.600 E2.16006
G1 X125.600 Y122.742 E0.00969
G1 X124.026 Y122.742 E0.07608
G1 X123.742 Y123.026 E0.01939
G1 X123.742 Y123.974 E0.04583
G1 X124.026 Y124.258 E0.01939
G1 X132.100 Y124.258 E0.39018
G1 X132.242 Y124.400 E0.00969
G1 X132.242 Y126.600 E0.10634
G1 X132.100 Y126.742 E0.00969
G1 X112.400 Y126.742 E0.95199
G1 X112.258 Y126.600 E0.00969
G1 X112.258 Y123.026 E0.17273
G1 X111.974 Y122.742 E0.01939
G1 X88.400 Y122.742 E1.13919
G1 X88.258 Y122.600 E0.00969
G1 X88.258 Y77.972 E2.15655
G1 X88.740 Y78.240 F3600.000
G1 X125.260 Y78.240 E1.76475 F420.000
G1 X125.260 Y122.260 E2.12717
G1 X123.260 Y122.260 E0.09665
G1 X123.260 Y124.740 E0.11984
G1 X131.760 Y124.740 E0.41074
G1 X131.760 Y126.260 E0.07345
G1 X112.740 Y126.260 E0.91910
G1 X112.740 Y122.260 E0.19329
G1 X88.740 Y122.260 E1.15975
G1 X88.740 Y78.313 E2.12366
G1 X89.159 Y78.482 F3600.000
G1 X89.224 Y78.724 F3600.000
G1 X124.776 Y78.724 E1.71795 F600.000
G1 X124.776 Y121.776 E2.08037
G1 X122.776 Y121.776 E0.09665
G1 X122.776 Y125.224 E0.16665
G1 X131.276 Y125.224 E0.41074
G1 X131.276 Y125.776 E0.02665
G1 X113.224 Y125.776 E0.87230
G1 X113.224 Y121.776 E0.19329
G1 X89.224 Y121.776 E1.15975
G1 X89.224 Y78.797 E2.07686
G1 X89.575 Y79.251 F3600.000
G1 X90.448 Y81.842 E0.13211 F600.000
G1 X90.874 Y83.231 E0.07021
G1 X91.275 Y84.627 E0.07021
G1 X91.651 Y86.031 E0.07021
G1 X92.000 Y87.441 E0.07021
G1 X92.525 Y89.805 E0.11701
G1 X92.977 Y92.184 E0.11701
G1 X93.213 Y93.617 E0.07021
G1 X93.422 Y95.055 E0.07021
G1 X93.713 Y97.459 E0.11701
G1 X93.852 Y98.905 E0.07021
G1 X93.964 Y100.354 E0.07021
G1 X94.092 Y102.772 E0.11701
G1 X94.133 Y104.224 E0.07021
G1 X94.147 Y105.677 E0.07021
G1 X94.112 Y108.098 E0.11701
G1 X94.055 Y109.549 E0.07021
G1 X93.972 Y111.000 E0.07021
G1 X93.773 Y113.413 E0.11701
G1 X93.619 Y114.858 E0.07021
G1 X93.438 Y116.299 E0.07021
G1 X93.077 Y118.694 E0.11701
G1 X92.573 Y121.425 E0.13419
G1 X92.079 Y121.425 F3600.000
G1 X92.351 Y120.029 E0.06869 F600.000
G1 X92.602 Y118.598 E0.07021
G1 X92.962 Y116.204 E0.11701
G1 X93.248 Y113.799 E0.11701
G1 X93.384 Y112.353 E0.07021
G1 X93.493 Y110.904 E0.07021
G1 X93.615 Y108.486 E0.11701
G1 X93.652 Y107.033 E0.07021
G1 X93.663 Y105.581 E0.07021
G1 X93.621 Y103.160 E0.11701
G1 X93.504 Y100.741 E0.11701
G1 X93.313 Y98.327 E0.11701
G1 X93.162 Y96.882 E0.07021
G1 X92.985 Y95.440 E0.07021
G1 X92.631 Y93.045 E0.11701
G1 X92.203 Y90.662 E0.11701
G1 X91.911 Y89.239 E0.07021
G1 X91.592 Y87.821 E0.07021
G1 X91.003 Y85.472 E0.11701
G1 X90.343 Y83.143 E0.11701
G1 X89.575 Y80.732 E0.12224
G1 X89.575 Y82.298 F3600.000
G1 X90.313 Y84.783 E0.12530 F600.000
G1 X90.927 Y87.126 E0.11701
G1 X91.468 Y89.486 E0.11701
G1 X91.936 Y91.862 E0.11701
G1 X92.329 Y94.251 E0.11701
G1 X92.648 Y96.651 E0.11701
G1 X92.804 Y98.095 E0.07021
G1 X92.933 Y99.543 E0.07021
G1 X93.087 Y101.959 E0.11701
G1 X93.167 Y104.379 E0.11701
G1 X93.171 Y106.800 E0.11701
G1 X93.101 Y109.221 E0.11701
G1 X92.955 Y111.638 E0.11701
G1 X92.734 Y114.049 E0.11701
G1 X92.439 Y116.452 E0.11701
G1 X92.069 Y118.845 E0.11701
G1 X91.585 Y121.425 E0.12682
G1 X91.090 Y121.425 F3600.000
G1 X91.475 Y119.434 E0.09798 F600.000
G1 X91.865 Y117.044 E0.11701
G1 X92.181 Y114.643 E0.11701
G1 X92.422 Y112.234 E0.11701
G1 X92.587 Y109.818 E0.11701
G1 X92.677 Y107.399 E0.11701
G1 X92.691 Y104.977 E0.11701
G1 X92.629 Y102.557 E0.11701
G1 X92.492 Y100.139 E0.11701
G1 X92.280 Y97.727 E0.11701
G1 X91.992 Y95.323 E0.11701
G1 X91.630 Y92.929 E0.11701
G1 X91.193 Y90.547 E0.11701
G1 X90.682 Y88.181 E0.11701
G1 X90.097 Y85.831 E0.11701
G1 X89.575 Y83.963 E0.09372
G1 X89.575 Y85.757 F3600.000
G1 X90.068 Y87.689 E0.09635 F600.000
G1 X90.598 Y90.051 E0.11701
G1 X90.968 Y91.953 E0.09361
G1 X91.363 Y94.342 E0.11701
G1 X91.684 Y96.742 E0.11701
G1 X91.886 Y98.668 E0.09361
G1 X92.070 Y101.083 E0.11701
G1 X92.178 Y103.502 E0.11701
G1 X92.210 Y105.923 E0.11701
G1 X92.181 Y107.860 E0.09361
G1 X92.076 Y110.279 E0.11701
G1 X91.895 Y112.693 E0.11701
G1 X91.639 Y115.101 E0.11701
G1 X91.379 Y117.021 E0.09361
G1 X90.987 Y119.410 E0.11701
G1 X90.596 Y121.425 E0.09916
G1 X90.101 Y121.425 F3600.000
G1 X90.523 Y119.252 E0.10697 F600.000
G1 X90.841 Y117.341 E0.09361
G1 X91.111 Y115.422 E0.09361
G1 X91.379 Y113.016 E0.11701
G1 X91.571 Y110.602 E0.11701
G1 X91.670 Y108.668 E0.09361
G1 X91.724 Y106.247 E0.11701
G1 X91.713 Y104.310 E0.09361
G1 X91.629 Y101.890 E0.11701
G1 X91.508 Y99.957 E0.09361
G1 X91.337 Y98.027 E0.09361
G1 X91.118 Y96.102 E0.09361
G1 X90.850 Y94.184 E0.09361
G1 X90.447 Y91.796 E0.11701
G1 X90.070 Y89.896 E0.09361
G1 X89.575 Y87.716 E0.10805
G1 X89.575 Y89.899 F3600.000
G1 X89.988 Y91.981 E0.10255 F600.000
G1 X90.314 Y93.891 E0.09361
G1 X90.591 Y95.808 E0.09361
G1 X90.820 Y97.731 E0.09361
G1 X90.999 Y99.660 E0.09361
G1 X91.129 Y101.593 E0.09361
G1 X91.210 Y103.528 E0.09361
G1 X91.241 Y105.465 E0.09361
G1 X91.223 Y107.402 E0.09361
G1 X91.132 Y109.822 E0.11701
G1 X91.003 Y111.755 E0.09361
G1 X90.825 Y113.684 E0.09361
G1 X90.598 Y115.607 E0.09361
G1 X90.323 Y117.525 E0.09361
G1 X89.998 Y119.435 E0.09361
G1 X89.606 Y121.425 E0.09801
G1 X89.575 Y119.050 F3600.000
G1 X89.825 Y117.573 E0.07238 F600.000
G1 X90.103 Y115.656 E0.09361
G1 X90.333 Y113.733 E0.09361
G1 X90.473 Y112.287 E0.07021
G1 X90.585 Y110.838 E0.07021
G1 X90.691 Y108.904 E0.09361
G1 X90.747 Y106.968 E0.09361
G1 X90.757 Y105.515 E0.07021
G1 X90.739 Y104.062 E0.07021
G1 X90.671 Y102.126 E0.09361
G1 X90.588 Y100.676 E0.07021
G1 X90.434 Y98.745 E0.09361
G1 X90.230 Y96.818 E0.09361
G1 X90.045 Y95.377 E0.07021
G1 X89.832 Y93.940 E0.07021
G1 X89.575 Y92.419 E0.07455
G1 X89.575 Y95.523 F3600.000
G1 X89.892 Y98.176 E0.12913 F600.000
G1 X90.097 Y100.589 E0.11701
G1 X90.224 Y103.007 E0.11701
G1 X90.262 Y104.459 E0.07021
G1 X90.273 Y105.912 E0.07021
G1 X90.228 Y108.333 E0.11701
G1 X90.105 Y110.751 E0.11701
G1 X89.905 Y113.164 E0.11701
G1 X89.747 Y114.608 E0.07021
G1 X89.575 Y115.947 E0.06520
G1 X89.575 Y111.370 F3600.000
G1 X89.664 Y110.044 E0.06422 F600.000
G1 X89.734 Y108.592 E0.07021
G1 X89.775 Y107.140 E0.07021
G1 X89.789 Y105.687 E0.07021
G1 X89.774 Y104.235 E0.07021
G1 X89.730 Y102.782 E0.07021
G1 X89.575 Y100.100 E0.12985
G1 X90.027 Y79.075 F3600.000
G1 X90.491 Y80.417 E0.06860 F600.000
G1 X90.942 Y81.798 E0.07021
G1 X91.636 Y84.118 E0.11701
G1 X92.259 Y86.458 E0.11701
G1 X92.598 Y87.870 E0.07021
G1 X92.912 Y89.289 E0.07021
G1 X93.199 Y90.713 E0.07021
G1 X93.461 Y92.142 E0.07021
G1 X93.839 Y94.534 E0.11701
G1 X94.143 Y96.936 E0.11701
G1 X94.291 Y98.382 E0.07021
G1 X94.412 Y99.829 E0.07021
G1 X94.555 Y102.246 E0.11701
G1 X94.606 Y103.698 E0.07021
G1 X94.630 Y105.151 E0.07021
G1 X94.627 Y106.604 E0.07021
G1 X94.598 Y108.057 E0.07021
G1 X94.490 Y110.476 E0.11701
G1 X94.390 Y111.925 E0.07021
G1 X94.264 Y113.372 E0.07021
G1 X93.994 Y115.779 E0.11701
G1 X93.798 Y117.218 E0.07021
G1 X93.575 Y118.654 E0.07021
G1 X93.325 Y120.085 E0.07021
G1 X93.067 Y121.425 E0.06592
G1 X93.561 Y121.425 F3600.000
G1 X94.015 Y118.956 E0.12128 F600.000
G1 X94.242 Y117.521 E0.07021
G1 X94.444 Y116.082 E0.07021
G1 X94.721 Y113.677 E0.11701
G1 X94.852 Y112.230 E0.07021
G1 X94.957 Y110.781 E0.07021
G1 X95.035 Y109.330 E0.07021
G1 X95.087 Y107.878 E0.07021
G1 X95.115 Y105.457 E0.11701
G1 X95.097 Y104.004 E0.07021
G1 X95.053 Y102.552 E0.07021
G1 X94.920 Y100.134 E0.11701
G1 X94.805 Y98.686 E0.07021
G1 X94.664 Y97.240 E0.07021
G1 X94.370 Y94.837 E0.11701
G1 X94.004 Y92.443 E0.11701
G1 X93.749 Y91.013 E0.07021
G1 X93.469 Y89.587 E0.07021
G1 X92.944 Y87.223 E0.11701
G1 X92.595 Y85.813 E0.07021
G1 X92.220 Y84.409 E0.07021
G1 X91.820 Y83.013 E0.07021
G1 X91.394 Y81.624 E0.07021
G1 X90.541 Y79.075 E0.12986
G1 X91.054 Y79.075 F3600.000
G1 X91.506 Y80.397 E0.06749 F600.000
G1 X91.951 Y81.780 E0.07021
G1 X92.637 Y84.102 E0.11701
G1 X93.015 Y85.505 E0.07021
G1 X93.368 Y86.914 E0.07021
G1 X93.899 Y89.277 E0.11701
G1 X94.359 Y91.654 E0.11701
G1 X94.600 Y93.087 E0.07021
G1 X94.815 Y94.524 E0.07021
G1 X95.117 Y96.926 E0.11701
G1 X95.263 Y98.372 E0.07021
G1 X95.383 Y99.820 E0.07021
G1 X95.476 Y101.269 E0.07021
G1 X95.544 Y102.721 E0.07021
G1 X95.598 Y105.142 E0.11701
G1 X95.596 Y106.594 E0.07021
G1 X95.567 Y108.047 E0.07021
G1 X95.461 Y110.466 E0.11701
G1 X95.282 Y112.881 E0.11701
G1 X95.140 Y114.327 E0.07021
G1 X94.972 Y115.770 E0.07021
G1 X94.778 Y117.210 E0.07021
G1 X94.557 Y118.646 E0.07021
G1 X94.055 Y121.425 E0.13646
G1 X94.549 Y121.425 F3600.000
G1 X95.043 Y118.678 E0.13487 F600.000
G1 X95.262 Y117.241 E0.07021
G1 X95.456 Y115.801 E0.07021
G1 X95.721 Y113.395 E0.11701
G1 X95.846 Y111.947 E0.07021
G1 X95.944 Y110.498 E0.07021
G1 X96.017 Y109.047 E0.07021
G1 X96.063 Y107.594 E0.07021
G1 X96.083 Y105.173 E0.11701
G1 X96.030 Y102.752 E0.11701
G1 X95.963 Y101.301 E0.07021
G1 X95.870 Y99.851 E0.07021
G1 X95.752 Y98.403 E0.07021
G1 X95.607 Y96.958 E0.07021
G1 X95.309 Y94.555 E0.11701
G1 X95.095 Y93.118 E0.07021
G1 X94.856 Y91.685 E0.07021
G1 X94.400 Y89.306 E0.11701
G1 X94.092 Y87.887 E0.07021
G1 X93.759 Y86.472 E0.07021
G1 X93.148 Y84.130 E0.11701
G1 X92.466 Y81.806 E0.11701
